%
O0
(ADAPTER PLATE)
(DATE=DD-MM-YY - 11-07-19 TIME=HH:MM - 16:04)
(MCAM FILE - C:\USERS\BZIMMERM\DESKTOP\ADAPTER PLATE.EMCAM)
(NC FILE - C:\USERS\BZIMMERM\DOCUMENTS\MY MASTERCAM 2020\MASTERCAM\MILL\NC\ADAP)
(MATERIAL - ALUMINUM INCH - 2024)
(T1| 1/4 FLAT ENDMILL|H1|D1|TOOL DIA. - .25)
(T2| 1/8 CENTERDRILL|H2|D2|TOOL DIA. - .125)
(T4| 1/4-20 TAPRH|H4|D4|TOOL DIA. - .25)
N100 G20
N110 G0 G17 G40 G49 G80 G90
N120 T1 M6
N130 G187 P3 E.001
N140 G0 G90 G54 X.0375 Y-.1107 S2139 M3
N150 G43 H1 Z.25
N160 Z.2
N170 G1 Z.1 F6.4
N180 X.0278 Y-.0859 Z.0986
N190 X.0207 Y-.0601 Z.0972
N200 X.0164 Y-.0338 Z.0958
N210 X.015 Y-.0071 Z.0944
N220 X.0166 Y.0209 Z.0929
N230 X.0213 Y.0485 Z.0915
N240 X.029 Y.0755 Z.09
N250 X.0398 Y.1014 Z.0885
N260 X.0533 Y.1259 Z.087
N270 X.0696 Y.1488 Z.0856
N280 X.0882 Y.1697 Z.0841
N290 X.1091 Y.1883 Z.0826
N300 X.132 Y.2046 Z.0812
N310 X.1565 Y.2181 Z.0797
N320 X.1824 Y.2289 Z.0782
N330 X.2094 Y.2366 Z.0767
N340 X.237 Y.2413 Z.0753
N350 X.265 Y.2429 Z.0738
N360 X.293 Y.2413 Z.0723
N370 X.3206 Y.2366 Z.0709
N380 X.3476 Y.2289 Z.0694
N390 X.3735 Y.2181 Z.0679
N400 X.398 Y.2046 Z.0665
N410 X.4209 Y.1883 Z.065
N420 X.4418 Y.1697 Z.0635
N430 X.4604 Y.1488 Z.0621
N440 X.4767 Y.1259 Z.0606
N450 X.4902 Y.1014 Z.0592
N460 X.501 Y.0755 Z.0577
N470 X.5087 Y.0485 Z.0562
N480 X.5134 Y.0209 Z.0548
N490 X.515 Y-.0071 Z.0533
N500 X.5134 Y-.0351 Z.0518
N510 X.5087 Y-.0627 Z.0504
N520 X.501 Y-.0897 Z.0489
N530 X.4902 Y-.1156 Z.0474
N540 X.4767 Y-.1401 Z.0459
N550 X.4604 Y-.163 Z.0445
N560 X.4418 Y-.1839 Z.043
N570 X.4209 Y-.2025 Z.0415
N580 X.398 Y-.2188 Z.0401
N590 X.3735 Y-.2323 Z.0386
N600 X.3476 Y-.2431 Z.0371
N610 X.3206 Y-.2508 Z.0356
N620 X.293 Y-.2555 Z.0342
N630 X.265 Y-.2571 Z.0327
N640 X.2365 Y-.2554 Z.0312
N650 X.2083 Y-.2506 Z.0297
N660 X.1809 Y-.2425 Z.0282
N670 X.1546 Y-.2314 Z.0267
N680 X.1297 Y-.2173 Z.0252
N690 X.1066 Y-.2005 Z.0237
N700 X.0856 Y-.1812 Z.0222
N710 X.0669 Y-.1596 Z.0207
N720 X.0508 Y-.136 Z.0192
N730 X.0375 Y-.1107 Z.0177
N740 X.0278 Y-.0859 Z.0163
N750 X.0207 Y-.0601 Z.0149
N760 X.0164 Y-.0338 Z.0135
N770 X.015 Y-.0071 Z.0121
N780 X.0166 Y.0209 Z.0106
N790 X.0213 Y.0485 Z.0092
N800 X.029 Y.0755 Z.0077
N810 X.0398 Y.1014 Z.0062
N820 X.0533 Y.1259 Z.0047
N830 X.0696 Y.1488 Z.0033
N840 X.0882 Y.1697 Z.0018
N850 X.1091 Y.1883 Z.0003
N860 X.132 Y.2046 Z-.0011
N870 X.1565 Y.2181 Z-.0026
N880 X.1824 Y.2289 Z-.0041
N890 X.2094 Y.2366 Z-.0056
N900 X.237 Y.2413 Z-.007
N910 X.265 Y.2429 Z-.0085
N920 X.293 Y.2413 Z-.01
N930 X.3206 Y.2366 Z-.0114
N940 X.3476 Y.2289 Z-.0129
N950 X.3735 Y.2181 Z-.0144
N960 X.398 Y.2046 Z-.0159
N970 X.4209 Y.1883 Z-.0173
N980 X.4418 Y.1697 Z-.0188
N990 X.4604 Y.1488 Z-.0203
N1000 X.4767 Y.1259 Z-.0217
N1010 X.4902 Y.1014 Z-.0232
N1020 X.501 Y.0755 Z-.0247
N1030 X.5087 Y.0485 Z-.0262
N1040 X.5134 Y.0209 Z-.0276
N1050 X.515 Y-.0071 Z-.0291
N1060 X.5134 Y-.0351 Z-.0306
N1070 X.5087 Y-.0627 Z-.032
N1080 X.501 Y-.0897 Z-.0335
N1090 X.4902 Y-.1156 Z-.035
N1100 X.4767 Y-.1401 Z-.0365
N1110 X.4604 Y-.163 Z-.0379
N1120 X.4418 Y-.1839 Z-.0394
N1130 X.3025 Y-.0446
N1140 Y.0446
N1150 X-.3025
N1160 Y-.0446
N1170 X.3025
N1180 X.365 Y-.1071
N1190 Y.1071
N1200 X-.365
N1210 Y-.1071
N1220 X.365
N1230 X.49 Y-.2321
N1240 Y.2321
N1250 X-.49
N1260 Y-.2321
N1270 X.49
N1280 X.615 Y-.3571
N1290 Y.3571
N1300 X-.615
N1310 Y-.3571
N1320 X.615
N1330 Z.1606
N1340 G0 Z.2106
N1350 X.0375 Y-.1107
N1360 Z.1606
N1370 G1 Z.0606
N1380 X.0278 Y-.0859 Z.0592
N1390 X.0207 Y-.0601 Z.0578
N1400 X.0164 Y-.0338 Z.0564
N1410 X.015 Y-.0071 Z.055
N1420 X.0166 Y.0209 Z.0535
N1430 X.0213 Y.0485 Z.0521
N1440 X.029 Y.0755 Z.0506
N1450 X.0398 Y.1014 Z.0491
N1460 X.0533 Y.1259 Z.0476
N1470 X.0696 Y.1488 Z.0462
N1480 X.0882 Y.1697 Z.0447
N1490 X.1091 Y.1883 Z.0432
N1500 X.132 Y.2046 Z.0418
N1510 X.1565 Y.2181 Z.0403
N1520 X.1824 Y.2289 Z.0388
N1530 X.2094 Y.2366 Z.0373
N1540 X.237 Y.2413 Z.0359
N1550 X.265 Y.2429 Z.0344
N1560 X.293 Y.2413 Z.0329
N1570 X.3206 Y.2366 Z.0315
N1580 X.3476 Y.2289 Z.03
N1590 X.3735 Y.2181 Z.0285
N1600 X.398 Y.2046 Z.0271
N1610 X.4209 Y.1883 Z.0256
N1620 X.4418 Y.1697 Z.0241
N1630 X.4604 Y.1488 Z.0227
N1640 X.4767 Y.1259 Z.0212
N1650 X.4902 Y.1014 Z.0198
N1660 X.501 Y.0755 Z.0183
N1670 X.5087 Y.0485 Z.0168
N1680 X.5134 Y.0209 Z.0154
N1690 X.515 Y-.0071 Z.0139
N1700 X.5134 Y-.0351 Z.0124
N1710 X.5087 Y-.0627 Z.011
N1720 X.501 Y-.0897 Z.0095
N1730 X.4902 Y-.1156 Z.008
N1740 X.4767 Y-.1401 Z.0065
N1750 X.4604 Y-.163 Z.0051
N1760 X.4418 Y-.1839 Z.0036
N1770 X.4209 Y-.2025 Z.0021
N1780 X.398 Y-.2188 Z.0007
N1790 X.3735 Y-.2323 Z-.0008
N1800 X.3476 Y-.2431 Z-.0023
N1810 X.3206 Y-.2508 Z-.0038
N1820 X.293 Y-.2555 Z-.0052
N1830 X.265 Y-.2571 Z-.0067
N1840 X.2365 Y-.2554 Z-.0082
N1850 X.2083 Y-.2506 Z-.0097
N1860 X.1809 Y-.2425 Z-.0112
N1870 X.1546 Y-.2314 Z-.0127
N1880 X.1297 Y-.2173 Z-.0142
N1890 X.1066 Y-.2005 Z-.0157
N1900 X.0856 Y-.1812 Z-.0172
N1910 X.0669 Y-.1596 Z-.0187
N1920 X.0508 Y-.136 Z-.0202
N1930 X.0375 Y-.1107 Z-.0217
N1940 X.0278 Y-.0859 Z-.0231
N1950 X.0207 Y-.0601 Z-.0245
N1960 X.0164 Y-.0338 Z-.0259
N1970 X.015 Y-.0071 Z-.0273
N1980 X.0166 Y.0209 Z-.0288
N1990 X.0213 Y.0485 Z-.0302
N2000 X.029 Y.0755 Z-.0317
N2010 X.0398 Y.1014 Z-.0332
N2020 X.0533 Y.1259 Z-.0347
N2030 X.0696 Y.1488 Z-.0361
N2040 X.0882 Y.1697 Z-.0376
N2050 X.1091 Y.1883 Z-.0391
N2060 X.132 Y.2046 Z-.0405
N2070 X.1565 Y.2181 Z-.042
N2080 X.1824 Y.2289 Z-.0435
N2090 X.2094 Y.2366 Z-.045
N2100 X.237 Y.2413 Z-.0464
N2110 X.265 Y.2429 Z-.0479
N2120 X.293 Y.2413 Z-.0494
N2130 X.3206 Y.2366 Z-.0508
N2140 X.3476 Y.2289 Z-.0523
N2150 X.3735 Y.2181 Z-.0538
N2160 X.398 Y.2046 Z-.0552
N2170 X.4209 Y.1883 Z-.0567
N2180 X.4418 Y.1697 Z-.0582
N2190 X.4604 Y.1488 Z-.0596
N2200 X.4767 Y.1259 Z-.0611
N2210 X.4902 Y.1014 Z-.0625
N2220 X.501 Y.0755 Z-.064
N2230 X.5087 Y.0485 Z-.0655
N2240 X.5134 Y.0209 Z-.0669
N2250 X.515 Y-.0071 Z-.0684
N2260 X.5134 Y-.0351 Z-.0699
N2270 X.5087 Y-.0627 Z-.0713
N2280 X.501 Y-.0897 Z-.0728
N2290 X.4902 Y-.1156 Z-.0743
N2300 X.4767 Y-.1401 Z-.0758
N2310 X.4604 Y-.163 Z-.0772
N2320 X.4418 Y-.1839 Z-.0787
N2330 X.3025 Y-.0446
N2340 Y.0446
N2350 X-.3025
N2360 Y-.0446
N2370 X.3025
N2380 X.365 Y-.1071
N2390 Y.1071
N2400 X-.365
N2410 Y-.1071
N2420 X.365
N2430 X.49 Y-.2321
N2440 Y.2321
N2450 X-.49
N2460 Y-.2321
N2470 X.49
N2480 X.615 Y-.3571
N2490 Y.3571
N2500 X-.615
N2510 Y-.3571
N2520 X.615
N2530 Z.1213
N2540 G0 Z.1713
N2550 Z.2
N2560 X.125 Y-.25
N2570 G1 Z-.0394
N2580 X.375
N2590 G3 X.625 Y0. I0. J.25
N2600 G1 Y.3671
N2610 X-.625
N2620 Y-.3671
N2630 X.625
N2640 Y0.
N2650 G3 X.375 Y.25 I-.25 J0.
N2660 G1 X.125
N2670 Z.1606
N2680 G0 Z.2106
N2690 Y-.25
N2700 Z.1606
N2710 G1 Z-.0787
N2720 X.375
N2730 G3 X.625 Y0. I0. J.25
N2740 G1 Y.3671
N2750 X-.625
N2760 Y-.3671
N2770 X.625
N2780 Y0.
N2790 G3 X.375 Y.25 I-.25 J0.
N2800 G1 X.125
N2810 Z.1213
N2820 G0 Z.25
N2830 M5
N2840 G91 G28 Z0.
N2850 M01
N2860 T2 M6
N2870 G187 P3 E.001
N2880 G0 G90 G54 X-.5925 Y-.3346 S2139 M3
N2890 G43 H2 Z.0213
N2900 G99 G83 Z-.2537 R.0213 Q.1 F1.
N2910 Y.3346
N2920 X.5925
N2930 Y-.3346
N2940 G80
N2950 M5
N2960 G91 G28 Z0.
N2970 M01
N2980 T1 M6
N2990 G187 P3 E.001
N3000 G0 G90 G54 X-1.625 Y.25 S1069 M3
N3010 G43 H1 Z.1
N3020 Z.05
N3030 G1 Z-.045 F6.4
N3040 X-1.375
N3050 G2 X-1.125 Y0. I0. J-.25
N3060 G3 X0. Y-1.125 I1.125 J0.
N3070 X1.125 Y0. I0. J1.125
N3080 X0. Y1.125 I-1.125 J0.
N3090 X-1.125 Y0. I0. J-1.125
N3100 G2 X-1.375 Y-.25 I-.25 J0.
N3110 G1 X-1.625
N3120 Z.005
N3130 G0 Z.055
N3140 Y.25
N3150 Z.005
N3160 G1 Z-.09
N3170 X-1.375
N3180 G2 X-1.125 Y0. I0. J-.25
N3190 G3 X0. Y-1.125 I1.125 J0.
N3200 X1.125 Y0. I0. J1.125
N3210 X0. Y1.125 I-1.125 J0.
N3220 X-1.125 Y0. I0. J-1.125
N3230 G2 X-1.375 Y-.25 I-.25 J0.
N3240 G1 X-1.625
N3250 Z-.04
N3260 G0 Z.01
N3270 Y.25
N3280 Z-.04
N3290 G1 Z-.135
N3300 X-1.375
N3310 G2 X-1.125 Y0. I0. J-.25
N3320 G3 X0. Y-1.125 I1.125 J0.
N3330 X1.125 Y0. I0. J1.125
N3340 X0. Y1.125 I-1.125 J0.
N3350 X-1.125 Y0. I0. J-1.125
N3360 G2 X-1.375 Y-.25 I-.25 J0.
N3370 G1 X-1.625
N3380 Z-.085
N3390 G0 Z-.035
N3400 Y.25
N3410 Z-.085
N3420 G1 Z-.18
N3430 X-1.375
N3440 G2 X-1.125 Y0. I0. J-.25
N3450 G3 X0. Y-1.125 I1.125 J0.
N3460 X1.125 Y0. I0. J1.125
N3470 X0. Y1.125 I-1.125 J0.
N3480 X-1.125 Y0. I0. J-1.125
N3490 G2 X-1.375 Y-.25 I-.25 J0.
N3500 G1 X-1.625
N3510 Z-.13
N3520 G0 Z-.08
N3530 Y.25
N3540 Z-.13
N3550 G1 Z-.225
N3560 X-1.375
N3570 G2 X-1.125 Y0. I0. J-.25
N3580 G3 X0. Y-1.125 I1.125 J0.
N3590 X1.125 Y0. I0. J1.125
N3600 X0. Y1.125 I-1.125 J0.
N3610 X-1.125 Y0. I0. J-1.125
N3620 G2 X-1.375 Y-.25 I-.25 J0.
N3630 G1 X-1.625
N3640 Z-.175
N3650 G0 Z-.125
N3660 Y.25
N3670 Z-.175
N3680 G1 Z-.27
N3690 X-1.375
N3700 G2 X-1.125 Y0. I0. J-.25
N3710 G3 X0. Y-1.125 I1.125 J0.
N3720 X1.125 Y0. I0. J1.125
N3730 X0. Y1.125 I-1.125 J0.
N3740 X-1.125 Y0. I0. J-1.125
N3750 G2 X-1.375 Y-.25 I-.25 J0.
N3760 G1 X-1.625
N3770 Z-.22
N3780 G0 Z-.17
N3790 Y.25
N3800 Z-.22
N3810 G1 Z-.315
N3820 X-1.375
N3830 G2 X-1.125 Y0. I0. J-.25
N3840 G3 X0. Y-1.125 I1.125 J0.
N3850 X1.125 Y0. I0. J1.125
N3860 X0. Y1.125 I-1.125 J0.
N3870 X-1.125 Y0. I0. J-1.125
N3880 G2 X-1.375 Y-.25 I-.25 J0.
N3890 G1 X-1.625
N3900 Z-.265
N3910 G0 Z.1
N3920 M5
N3930 G91 G28 Z0.
N3940 M01
N3950 T4 M6
N3960 G187 P3 E.001
N3970 G0 G90 G54 X-.5925 Y.3346 S80 M3
N3980 G43 H4 Z.0213
N3990 G99 G84 Z-.2537 R.0213 F4.
N4000 G80
N4010 G187 P3 E.001
N4020 Y-.3346
N4030 G99 G84 Z-.2537 R.0213 F4.
N4040 G80
N4050 M5
N4060 G91 G28 Z0.
N4070 G28 X0. Y0.
N4080 M30
%
