%
O0
(BASE_BOTTOM_V6)
(DATE=DD-MM-YY - 05-06-23 TIME=HH:MM - 15:43)
(MCAM FILE - C:\USERS\PPAK\DOWNLOADS\BASE_BOTTOM_V6.EMCAM)
(NC FILE - C:\USERS\PPAK\DOCUMENTS\MY MASTERCAM 2020\MASTERCAM\MILL\NC\BASE_BOT)
(MATERIAL - ALUMINUM INCH - 6061)
(T5| 1/8 FLAT ENDMILL|H5|D5|TOOL DIA. - .125|XY STOCK - -.1|Z STOCK - 0.)
N100 G20
N110 G0 G17 G40 G49 G80 G90
N120 T5 M6
N130 G187 P3 E.001
N140 G0 G90 G54 X3.0905 Y-1.8188 S2500 M3
N150 G43 H5 Z.25
N160 M8
N170 Z-.0239
N180 G1 Z-.1339 F4.
N190 X3.128 F15.
N200 G3 X3.1655 Y-1.7813 I0. J.0375
N210 X3. Y-1.6158 I-.1655 J0.
N220 X2.8345 Y-1.7813 I0. J-.1655
N230 X3. Y-1.9467 I.1655 J0.
N240 X3.1655 Y-1.7813 I0. J.1654
N250 X3.128 Y-1.7437 I-.0375 J0.
N260 G1 X3.0905
N270 G0 Z.25
N280 X5.0905 Y-3.975
N290 Z.1
N300 G1 Z-.1339 F4.
N310 X5.128 F15.
N320 G3 X5.1655 Y-3.9375 I0. J.0375
N330 X5. Y-3.772 I-.1655 J0.
N340 X4.8345 Y-3.9375 I0. J-.1655
N350 X5. Y-4.103 I.1655 J0.
N360 X5.1655 Y-3.9375 I0. J.1655
N370 X5.128 Y-3.9 I-.0375 J0.
N380 G1 X5.0905
N390 G0 Z.25
N400 X1.0905 Y-3.975
N410 Z.1
N420 G1 Z-.1339 F4.
N430 X1.128 F15.
N440 G3 X1.1655 Y-3.9375 I0. J.0375
N450 X1. Y-3.772 I-.1655 J0.
N460 X.8345 Y-3.9375 I0. J-.1655
N470 X1. Y-4.103 I.1655 J0.
N480 X1.1655 Y-3.9375 I0. J.1655
N490 X1.128 Y-3.9 I-.0375 J0.
N500 G1 X1.0905
N510 G0 Z.25
N520 M5
N530 G91 G28 Z0. M9
N540 G28 X0. Y0.
N550 M30
%
