%
O0
(BASE_TOP_OPS_V5)
(DATE=DD-MM-YY - 05-06-23 TIME=HH:MM - 13:29)
(MCAM FILE - C:\USERS\PPAK\DOWNLOADS\BASE_TOP_V5.EMCAM)
(NC FILE - C:\USERS\PPAK\DOCUMENTS\MY MASTERCAM 2020\MASTERCAM\MILL\NC\BASE_TOP)
(MATERIAL - ALUMINUM INCH - 6061)
(T1| 3/8 BALL ENDMILL|H1|D1|TOOL DIA. - .375)
(T2| 1/8 CENTERDRILL|H2|D2|TOOL DIA. - .125)
(T3| NO. 27 DRILL|H3|D3|TOOL DIA. - .144)
(T4| 3/8 FLAT ENDMILL|H4|D4|TOOL DIA. - .375|XY STOCK - -.005|Z STOCK - 0.)
N100 G20
N110 G0 G17 G40 G49 G80 G90
N120 T1 M6
N130 G187 P3 E.001
N140 G0 G90 G54 X5.5 Y-5.135 S4000 M3
N150 G43 H1 Z.25
N160 M8
N170 Z.1
N180 G1 Z-.0767 F6.
N190 X.5 F20.
N200 G3 X.385 Y-5.25 I0. J-.115
N210 X.5 Y-5.365 I.115 J0.
N220 G1 X5.5
N230 G3 X5.615 Y-5.25 I0. J.115
N240 X5.5 Y-5.135 I-.115 J0.
N250 G1 Z-.1533 F6.
N260 X.5 F20.
N270 G3 X.385 Y-5.25 I0. J-.115
N280 X.5 Y-5.365 I.115 J0.
N290 G1 X5.5
N300 G3 X5.615 Y-5.25 I0. J.115
N310 X5.5 Y-5.135 I-.115 J0.
N320 G1 Z-.23 F6.
N330 X.5 F20.
N340 G3 X.385 Y-5.25 I0. J-.115
N350 X.5 Y-5.365 I.115 J0.
N360 G1 X5.5
N370 G3 X5.615 Y-5.25 I0. J.115
N380 X5.5 Y-5.135 I-.115 J0.
N390 G1 Z-.24 F6.
N400 X.5 F20.
N410 G3 X.385 Y-5.25 I0. J-.115
N420 X.5 Y-5.365 I.115 J0.
N430 G1 X5.5
N440 G3 X5.615 Y-5.25 I0. J.115
N450 X5.5 Y-5.135 I-.115 J0.
N460 G1 Z-.25 F6.
N470 X.5 F20.
N480 G3 X.385 Y-5.25 I0. J-.115
N490 X.5 Y-5.365 I.115 J0.
N500 G1 X5.5
N510 G3 X5.615 Y-5.25 I0. J.115
N520 X5.5 Y-5.135 I-.115 J0.
N530 G0 Z.25
N540 X3.1125 Y-5.35
N550 Z-.14
N560 G1 Z-.25 F6.
N570 Y-5.2375 F20.
N580 G3 X3. Y-5.125 I-.1125 J0.
N590 G1 X.5
N600 G3 X.375 Y-5.25 I0. J-.125
N610 X.5 Y-5.375 I.125 J0.
N620 G1 X5.5
N630 G3 X5.625 Y-5.25 I0. J.125
N640 X5.5 Y-5.125 I-.125 J0.
N650 G1 X3.
N660 G3 X2.8875 Y-5.2375 I0. J-.1125
N670 G1 Y-5.35
N680 G0 Z.25
N690 S3259 M3
N700 G187 P3 E.001
N710 X.4861 Y-5.374
N720 Z-.0919
N730 G1 Z-.1919 F7.7
N740 X.4867 Z-.1931 F15.4
N750 X.4929 Z-.1971
N760 X.4938 Z-.1973
N770 X.4997
N780 X.5 Z-.1972
N790 X.5003 Z-.1973
N800 X.5072
N810 Z-.1981
N820 X5.4928
N830 Z-.1973
N840 X5.4997
N850 X5.5 Z-.1972
N860 X5.5003 Z-.1973
N870 X5.5062
N880 X5.5071 Z-.1971
N890 X5.5133 Z-.1931
N900 X5.5137 Z-.1923
N910 G0 Z-.0923
N920 Z.25
N930 X5.5503 Y-5.3641
N940 Z-.0928
N950 G1 Z-.1928 F7.7
N960 Z-.1931 F15.4
N970 X5.5485 Z-.1986
N980 X5.5475 Z-.2004
N990 X5.5452 Z-.204
N1000 X5.5404 Z-.2092
N1010 X5.5378 Z-.2114
N1020 X5.5337 Z-.2142
N1030 X5.529 Z-.2167
N1040 X5.5237 Z-.2188
N1050 X5.5209 Z-.2198
N1060 X5.5135 Z-.2215
N1070 X5.5065 Z-.2225
N1080 X5.5018 Z-.2227
N1090 X5.5 Z-.2224
N1100 X5.4987 Z-.2226
N1110 X.5013
N1120 X.5 Z-.2224
N1130 X.4982 Z-.2227
N1140 X.4935 Z-.2225
N1150 X.4865 Z-.2215
N1160 X.4791 Z-.2198
N1170 X.4763 Z-.2188
N1180 X.471 Z-.2167
N1190 X.4663 Z-.2142
N1200 X.4622 Z-.2114
N1210 X.4596 Z-.2092
N1220 X.4548 Z-.204
N1230 X.4525 Z-.2004
N1240 X.4515 Z-.1986
N1250 X.4498 Z-.1933
N1260 Z-.1915
N1270 X.4314 Y-5.3542
N1280 X.4315 Z-.1931
N1290 X.4329 Z-.1986
N1300 X.4352 Z-.2043
N1310 X.4384 Z-.2092
N1320 X.4426 Z-.2142
N1330 X.4466 Z-.2179
N1340 X.4477 Z-.2188
N1350 X.4543 Z-.2232
N1360 X.4566 Z-.2244
N1370 X.4655 Z-.2284
N1380 X.4735 Z-.2308
N1390 X.4809 Z-.2324
N1400 X.4877 Z-.2334
N1410 X.494 Z-.2339
N1420 X.4975
N1430 X.5 Z-.2336
N1440 X.5025 Z-.2339
N1450 X5.4975
N1460 X5.5 Z-.2336
N1470 X5.5025 Z-.2339
N1480 X5.5072 Z-.2338
N1490 X5.5129 Z-.2333
N1500 X5.5191 Z-.2324
N1510 X5.5265 Z-.2308
N1520 X5.5351 Z-.2282
N1530 X5.5434 Z-.2244
N1540 X5.5457 Z-.2232
N1550 X5.5527 Z-.2185
N1560 X5.5534 Z-.2179
N1570 X5.5574 Z-.2142
N1580 X5.5616 Z-.2092
N1590 X5.565 Z-.204
N1600 X5.5671 Z-.1986
N1610 X5.5685 Z-.1931
N1620 X5.5686 Z-.1915
N1630 X5.5815 Y-5.3442
N1640 Z-.1933
N1650 X5.5804 Z-.1986
N1660 X5.5785 Z-.204
N1670 X5.5759 Z-.2092
N1680 X5.5726 Z-.2142
N1690 X5.5707 Z-.2165
N1700 X5.5685 Z-.2188
N1710 X5.5636 Z-.2232
N1720 X5.5586 Z-.2268
N1730 X5.5565 Z-.2282
N1740 X5.5478 Z-.2327
N1750 X5.5393 Z-.2358
N1760 X5.5344 Z-.2372
N1770 X5.5322 Z-.2377
N1780 X5.5239 Z-.2393
N1790 X5.5173 Z-.2403
N1800 X5.5111 Z-.2409
N1810 X5.5057 Z-.2412
N1820 X5.5022 Z-.2413
N1830 X5.5 Z-.241
N1840 X5.4977 Z-.2413
N1850 X.5023
N1860 X.5 Z-.241
N1870 X.4978 Z-.2413
N1880 X.495 Z-.2412
N1890 X.4898 Z-.241
N1900 X.4827 Z-.2403
N1910 X.4761 Z-.2393
N1920 X.4688 Z-.238
N1930 X.4656 Z-.2372
N1940 X.4607 Z-.2358
N1950 X.4528 Z-.2329
N1960 X.4517 Z-.2324
N1970 X.4435 Z-.2282
N1980 X.4414 Z-.2268
N1990 X.4364 Z-.2232
N2000 X.4315 Z-.2188
N2010 X.4293 Z-.2165
N2020 X.4274 Z-.2142
N2030 X.4241 Z-.2092
N2040 X.4215 Z-.204
N2050 X.4196 Z-.1986
N2060 X.4184 Z-.1931
N2070 Z-.1925
N2080 X.4083 Y-5.3343
N2090 Z-.1941
N2100 X.4093 Z-.199
N2110 X.4109 Z-.204
N2120 X.4132 Z-.2092
N2130 X.4162 Z-.2142
N2140 X.4197 Z-.2188
N2150 X.4239 Z-.2235
N2160 X.4296 Z-.2282
N2170 X.4368 Z-.2329
N2180 X.4456 Z-.2372
N2190 X.4475 Z-.2379
N2200 X.457 Z-.2411
N2210 X.4649 Z-.2428
N2220 X.4721 Z-.2442
N2230 X.4806 Z-.2451
N2240 X.4875 Z-.2456
N2250 X.4952 Z-.2459
N2260 X.4995 Z-.246
N2270 X.5 Z-.2459
N2280 X.5005 Z-.246
N2290 X5.4995
N2300 X5.5 Z-.2459
N2310 X5.5005 Z-.246
N2320 X5.508 Z-.2458
N2330 X5.5155 Z-.2454
N2340 X5.5228 Z-.2448
N2350 X5.5279 Z-.2442
N2360 X5.5351 Z-.2428
N2370 X5.5434 Z-.241
N2380 X5.5534 Z-.2376
N2390 X5.5544 Z-.2372
N2400 X5.5633 Z-.2329
N2410 X5.5704 Z-.2282
N2420 X5.5764 Z-.2232
N2430 X5.5803 Z-.2188
N2440 X5.5838 Z-.2142
N2450 X5.5868 Z-.2092
N2460 X5.5891 Z-.204
N2470 X5.5909 Z-.1983
N2480 X5.5918 Z-.1938
N2490 Z-.1934
N2500 X5.6001 Y-5.3244
N2510 X5.5992 Z-.1986
N2520 X5.5977 Z-.2036
N2530 X5.5954 Z-.2092
N2540 X5.5927 Z-.2142
N2550 X5.5896 Z-.2188
N2560 X5.586 Z-.2232
N2570 X5.5812 Z-.2279
N2580 X5.5746 Z-.2329
N2590 X5.5674 Z-.2372
N2600 X5.5587 Z-.241
N2610 X5.5573 Z-.2415
N2620 X5.5484 Z-.2442
N2630 X5.5421 Z-.2455
N2640 X5.5354 Z-.2467
N2650 X5.5323 Z-.2471
N2660 X5.5246 Z-.2479
N2670 X5.5147 Z-.2486
N2680 X5.5027 Z-.2488
N2690 X5.5 Z-.2485
N2700 X5.4971 Z-.2488
N2710 X.5029
N2720 X.5 Z-.2485
N2730 X.4973 Z-.2488
N2740 X.4865 Z-.2486
N2750 X.4811 Z-.2483
N2760 X.4716 Z-.2475
N2770 X.4646 Z-.2467
N2780 X.4619 Z-.2463
N2790 X.4516 Z-.2442
N2800 X.4442 Z-.242
N2810 X.4413 Z-.241
N2820 X.4328 Z-.2373
N2830 X.4254 Z-.2329
N2840 X.4193 Z-.2284
N2850 X.414 Z-.2232
N2860 X.4104 Z-.2188
N2870 X.4073 Z-.2142
N2880 X.4046 Z-.2092
N2890 X.4024 Z-.204
N2900 X.4008 Z-.1986
N2910 X.3999 Z-.1934
N2920 X.3933 Y-5.3145
N2930 Z-.1935
N2940 X.3942 Z-.1989
N2950 X.3956 Z-.204
N2960 X.3976 Z-.2092
N2970 X.4001 Z-.2142
N2980 X.4031 Z-.2188
N2990 X.4064 Z-.2232
N3000 X.4111 Z-.2282
N3010 X.414 Z-.2308
N3020 X.4166 Z-.2329
N3030 X.4232 Z-.2372
N3040 X.4305 Z-.241
N3050 X.439 Z-.2442
N3060 X.4418 Z-.245
N3070 X.4487 Z-.2467
N3080 X.46 Z-.2486
N3090 X.4731 Z-.2495
N3100 X.4786 Z-.2497
N3110 X.4973 Z-.2499
N3120 X.5 Z-.2496
N3130 X.5028 Z-.2499
N3140 X5.4972
N3150 X5.5 Z-.2496
N3160 X5.5027 Z-.2499
N3170 X5.5249 Z-.2496
N3180 X5.5353 Z-.2489
N3190 X5.5401 Z-.2485
N3200 X5.5513 Z-.2467
N3210 X5.5597 Z-.2445
N3220 X5.561 Z-.2442
N3230 X5.5698 Z-.2408
N3240 X5.5768 Z-.2372
N3250 X5.5834 Z-.2329
N3260 X5.586 Z-.2308
N3270 X5.5889 Z-.2282
N3280 X5.5936 Z-.2232
N3290 X5.5969 Z-.2188
N3300 X5.5999 Z-.2142
N3310 X5.6024 Z-.2092
N3320 X5.6044 Z-.204
N3330 X5.6059 Z-.1983
N3340 X5.6067 Z-.1935
N3350 X5.612 Y-5.3046
N3360 X5.6112 Z-.1986
N3370 X5.6099 Z-.204
N3380 X5.608 Z-.2092
N3390 X5.6056 Z-.2142
N3400 X5.6028 Z-.2188
N3410 X5.5997 Z-.2232
N3420 X5.5953 Z-.2282
N3430 X5.5903 Z-.2328
N3440 X5.5841 Z-.2372
N3450 X5.5774 Z-.241
N3460 X5.5759 Z-.2417
N3470 X5.57 Z-.2442
N3480 X5.5617 Z-.2467
N3490 X5.5526 Z-.2486
N3500 X5.5425 Z-.2496
N3510 X5.5303 Z-.25
N3520 X.4696
N3530 X.4575 Z-.2496
N3540 X.4474 Z-.2486
N3550 X.4383 Z-.2467
N3560 X.43 Z-.2442
N3570 X.4272 Z-.2431
N3580 X.4226 Z-.241
N3590 X.4159 Z-.2372
N3600 X.41 Z-.233
N3610 X.4047 Z-.2282
N3620 X.4003 Z-.2232
N3630 X.3972 Z-.2188
N3640 X.3944 Z-.2142
N3650 X.392 Z-.2092
N3660 X.3901 Z-.204
N3670 X.3888 Z-.1986
N3680 X.3879 Z-.1931
N3690 X.3837 Y-5.2946
N3700 Z-.1932
N3710 X.3845 Z-.1986
N3720 X.3858 Z-.204
N3730 X.3876 Z-.2092
N3740 X.3898 Z-.2142
N3750 X.3925 Z-.2188
N3760 X.3955 Z-.2232
N3770 X.3996 Z-.2282
N3780 X.4045 Z-.2329
N3790 X.4102 Z-.2372
N3800 X.4165 Z-.241
N3810 X.4233 Z-.2442
N3820 X.4308 Z-.2467
N3830 X.4387 Z-.2486
N3840 X.4473 Z-.2496
N3850 X.4564 Z-.25
N3860 X5.5436
N3870 X5.5527 Z-.2496
N3880 X5.5613 Z-.2486
N3890 X5.5692 Z-.2467
N3900 X5.5767 Z-.2442
N3910 X5.5835 Z-.241
N3920 X5.5898 Z-.2372
N3930 X5.5955 Z-.2329
N3940 X5.6004 Z-.2282
N3950 X5.6045 Z-.2232
N3960 X5.6075 Z-.2188
N3970 X5.6102 Z-.2142
N3980 X5.6124 Z-.2092
N3990 X5.6142 Z-.204
N4000 X5.6155 Z-.1986
N4010 X5.6163 Z-.1932
N4020 X5.6196 Y-5.2847
N4030 Z-.1933
N4040 X5.6189 Z-.1986
N4050 X5.6176 Z-.204
N4060 X5.6159 Z-.2092
N4070 X5.6137 Z-.2142
N4080 X5.6111 Z-.2188
N4090 X5.6083 Z-.2232
N4100 X5.6043 Z-.2282
N4110 X5.5997 Z-.2327
N4120 X5.5941 Z-.2372
N4130 X5.5881 Z-.241
N4140 X5.5816 Z-.2442
N4150 X5.5748 Z-.2467
N4160 X5.5674 Z-.2486
N4170 X5.5598 Z-.2496
N4180 X5.5519 Z-.25
N4190 X.4481
N4200 X.4402 Z-.2496
N4210 X.4326 Z-.2486
N4220 X.4252 Z-.2467
N4230 X.4184 Z-.2442
N4240 X.4119 Z-.241
N4250 X.4059 Z-.2372
N4260 X.4005 Z-.2329
N4270 X.3957 Z-.2282
N4280 X.3917 Z-.2232
N4290 X.3889 Z-.2188
N4300 X.3863 Z-.2142
N4310 X.3841 Z-.2092
N4320 X.3824 Z-.204
N4330 X.3811 Z-.1986
N4340 X.3804 Z-.1933
N4350 X.3779 Y-5.2748
N4360 X.3786 Z-.1986
N4370 X.3799 Z-.204
N4380 X.3815 Z-.2092
N4390 X.3837 Z-.2142
N4400 X.3861 Z-.2188
N4410 X.3889 Z-.2232
N4420 X.3932 Z-.2285
N4430 X.3976 Z-.2329
N4440 X.4028 Z-.2372
N4450 X.4086 Z-.241
N4460 X.4149 Z-.2442
N4470 X.4215 Z-.2467
N4480 X.4286 Z-.2486
N4490 X.4355 Z-.2496
N4500 X.4433 Z-.25
N4510 X5.5573
N4520 X5.5645 Z-.2496
N4530 X5.5718 Z-.2485
N4540 X5.5785 Z-.2467
N4550 X5.5851 Z-.2442
N4560 X5.5914 Z-.241
N4570 X5.5972 Z-.2372
N4580 X5.6024 Z-.2329
N4590 X5.6073 Z-.2279
N4600 X5.6111 Z-.2232
N4610 X5.6139 Z-.2188
N4620 X5.6163 Z-.2142
N4630 X5.6185 Z-.2092
N4640 X5.6201 Z-.204
N4650 X5.6214 Z-.1986
N4660 X5.6221 Z-.1933
N4670 X5.6238 Y-5.2649
N4680 X5.6231 Z-.1981
N4690 X5.6219 Z-.2035
N4700 X5.6203 Z-.2086
N4710 X5.618 Z-.2142
N4720 X5.6155 Z-.2188
N4730 X5.6127 Z-.2232
N4740 X5.6088 Z-.2282
N4750 X5.6043 Z-.2329
N4760 X5.5991 Z-.2372
N4770 X5.5935 Z-.241
N4780 X5.5874 Z-.2442
N4790 X5.581 Z-.2467
N4800 X5.5743 Z-.2486
N4810 X5.5675 Z-.2496
N4820 X5.5606 Z-.25
N4830 X.4394
N4840 X.4325 Z-.2496
N4850 X.4257 Z-.2486
N4860 X.419 Z-.2467
N4870 X.4126 Z-.2442
N4880 X.4065 Z-.241
N4890 X.4009 Z-.2372
N4900 X.3957 Z-.2329
N4910 X.3912 Z-.2282
N4920 X.3873 Z-.2232
N4930 X.3845 Z-.2188
N4940 X.382 Z-.2142
N4950 X.3801 Z-.2098
N4960 X.3784 Z-.2045
N4970 X.3771 Z-.1991
N4980 X.3762 Z-.1933
N4990 X.3756 Y-5.255
N5000 X.3763 Z-.1986
N5010 X.3775 Z-.204
N5020 X.3792 Z-.2092
N5030 X.3812 Z-.2142
N5040 X.3837 Z-.2188
N5050 X.3865 Z-.2232
N5060 X.3903 Z-.2282
N5070 X.3948 Z-.2329
N5080 X.3999 Z-.2372
N5090 X.4055 Z-.241
N5100 X.4115 Z-.2442
N5110 X.4178 Z-.2467
N5120 X.4244 Z-.2486
N5130 X.4311 Z-.2496
N5140 X.4378 Z-.25
N5150 X5.5622
N5160 X5.5689 Z-.2496
N5170 X5.5756 Z-.2486
N5180 X5.5822 Z-.2467
N5190 X5.5885 Z-.2442
N5200 X5.5945 Z-.241
N5210 X5.6001 Z-.2372
N5220 X5.6052 Z-.2329
N5230 X5.6097 Z-.2282
N5240 X5.6135 Z-.2232
N5250 X5.6163 Z-.2188
N5260 X5.6188 Z-.2142
N5270 X5.6208 Z-.2092
N5280 X5.6225 Z-.204
N5290 X5.6237 Z-.1986
N5300 X5.6244 Z-.1934
N5310 Y-5.245
N5320 X5.6237 Z-.1986
N5330 X5.6225 Z-.204
N5340 X5.6208 Z-.2092
N5350 X5.6188 Z-.2142
N5360 X5.6163 Z-.2188
N5370 X5.6135 Z-.2232
N5380 X5.6097 Z-.2282
N5390 X5.6052 Z-.2329
N5400 X5.6001 Z-.2372
N5410 X5.5945 Z-.241
N5420 X5.5885 Z-.2442
N5430 X5.5822 Z-.2467
N5440 X5.5756 Z-.2486
N5450 X5.5689 Z-.2496
N5460 X5.5622 Z-.25
N5470 X.438
N5480 X.4311 Z-.2496
N5490 X.4244 Z-.2486
N5500 X.4178 Z-.2467
N5510 X.4115 Z-.2442
N5520 X.4055 Z-.241
N5530 X.3999 Z-.2372
N5540 X.3948 Z-.2329
N5550 X.3903 Z-.2282
N5560 X.3865 Z-.2232
N5570 X.3837 Z-.2188
N5580 X.3812 Z-.2142
N5590 X.3792 Z-.2092
N5600 X.3775 Z-.204
N5610 X.3763 Z-.1986
N5620 X.3756 Z-.1934
N5630 X.3762 Y-5.2351 Z-.1933
N5640 X.377 Z-.1986
N5650 X.3782 Z-.204
N5660 X.3799 Z-.2092
N5670 X.382 Z-.2142
N5680 X.3845 Z-.2188
N5690 X.3873 Z-.2232
N5700 X.3912 Z-.2282
N5710 X.3957 Z-.2329
N5720 X.4009 Z-.2372
N5730 X.4065 Z-.241
N5740 X.4126 Z-.2442
N5750 X.419 Z-.2467
N5760 X.4257 Z-.2486
N5770 X.4327 Z-.2497
N5780 X.4394 Z-.25
N5790 X5.5606
N5800 X5.5678 Z-.2496
N5810 X5.5743 Z-.2486
N5820 X5.581 Z-.2467
N5830 X5.5874 Z-.2442
N5840 X5.5935 Z-.241
N5850 X5.5991 Z-.2372
N5860 X5.6043 Z-.2329
N5870 X5.6088 Z-.2282
N5880 X5.6127 Z-.2232
N5890 X5.6155 Z-.2188
N5900 X5.618 Z-.2142
N5910 X5.6201 Z-.2092
N5920 X5.6218 Z-.204
N5930 X5.623 Z-.1986
N5940 X5.6238 Z-.1933
N5950 X5.6221 Y-5.2252
N5960 X5.6214 Z-.1986
N5970 X5.6201 Z-.204
N5980 X5.6185 Z-.2092
N5990 X5.6166 Z-.2136
N6000 X5.614 Z-.2185
N6010 X5.6111 Z-.2231
N6020 X5.6071 Z-.2282
N6030 X5.6024 Z-.2329
N6040 X5.5972 Z-.2372
N6050 X5.5914 Z-.241
N6060 X5.5851 Z-.2442
N6070 X5.5785 Z-.2467
N6080 X5.5717 Z-.2486
N6090 X5.5645 Z-.2496
N6100 X5.5573 Z-.25
N6110 X.4427
N6120 X.4355 Z-.2496
N6130 X.4283 Z-.2486
N6140 X.4215 Z-.2467
N6150 X.4149 Z-.2442
N6160 X.4086 Z-.241
N6170 X.4028 Z-.2372
N6180 X.3976 Z-.2329
N6190 X.3929 Z-.2282
N6200 X.389 Z-.2233
N6210 X.3863 Z-.2191
N6220 X.3839 Z-.2146
N6230 X.3815 Z-.2092
N6240 X.3799 Z-.204
N6250 X.3786 Z-.1986
N6260 X.3779 Z-.1933
N6270 X.3804 Y-5.2153
N6280 X.3811 Z-.1986
N6290 X.3824 Z-.204
N6300 X.3841 Z-.2092
N6310 X.3863 Z-.2142
N6320 X.3889 Z-.2188
N6330 X.3917 Z-.2232
N6340 X.3961 Z-.2285
N6350 X.4005 Z-.2329
N6360 X.4059 Z-.2372
N6370 X.4119 Z-.241
N6380 X.4184 Z-.2442
N6390 X.4254 Z-.2468
N6400 X.4326 Z-.2486
N6410 X.4402 Z-.2496
N6420 X.4481 Z-.25
N6430 X5.5519
N6440 X5.5598 Z-.2496
N6450 X5.5674 Z-.2486
N6460 X5.575 Z-.2466
N6470 X5.5816 Z-.2442
N6480 X5.5881 Z-.241
N6490 X5.5941 Z-.2372
N6500 X5.5995 Z-.2329
N6510 X5.6043 Z-.2282
N6520 X5.6083 Z-.2232
N6530 X5.6111 Z-.2188
N6540 X5.6137 Z-.2142
N6550 X5.6159 Z-.2092
N6560 X5.6176 Z-.204
N6570 X5.6189 Z-.1986
N6580 X5.6196 Z-.1933
N6590 Z-.1932
N6600 X5.6163 Y-5.2054
N6610 X5.6155 Z-.1986
N6620 X5.6142 Z-.204
N6630 X5.6124 Z-.2092
N6640 X5.6102 Z-.2142
N6650 X5.6075 Z-.2188
N6660 X5.6045 Z-.2232
N6670 X5.6004 Z-.2282
N6680 X5.5955 Z-.2329
N6690 X5.5898 Z-.2372
N6700 X5.5835 Z-.241
N6710 X5.5767 Z-.2442
N6720 X5.5692 Z-.2467
N6730 X5.5613 Z-.2486
N6740 X5.5527 Z-.2496
N6750 X5.5436 Z-.25
N6760 X.4564
N6770 X.4473 Z-.2496
N6780 X.4387 Z-.2486
N6790 X.4308 Z-.2467
N6800 X.4233 Z-.2442
N6810 X.4165 Z-.241
N6820 X.4102 Z-.2372
N6830 X.4045 Z-.2329
N6840 X.3996 Z-.2282
N6850 X.3955 Z-.2232
N6860 X.3925 Z-.2188
N6870 X.3898 Z-.2142
N6880 X.3876 Z-.2092
N6890 X.3858 Z-.204
N6900 X.3845 Z-.1986
N6910 X.3837 Z-.1932
N6920 X.388 Y-5.1954
N6930 Z-.1935
N6940 X.3888 Z-.1986
N6950 X.3901 Z-.204
N6960 X.392 Z-.2092
N6970 X.3944 Z-.2142
N6980 X.3972 Z-.2188
N6990 X.4003 Z-.2232
N7000 X.4047 Z-.2282
N7010 X.4098 Z-.2329
N7020 X.4159 Z-.2372
N7030 X.4226 Z-.241
N7040 X.4291 Z-.2438
N7050 X.43 Z-.2442
N7060 X.4383 Z-.2467
N7070 X.4474 Z-.2486
N7080 X.4575 Z-.2496
N7090 X.4697 Z-.25
N7100 X5.5304
N7110 X5.5425 Z-.2496
N7120 X5.5526 Z-.2486
N7130 X5.5617 Z-.2467
N7140 X5.57 Z-.2442
N7150 X5.5728 Z-.2431
N7160 X5.5774 Z-.241
N7170 X5.5841 Z-.2372
N7180 X5.5902 Z-.2329
N7190 X5.5953 Z-.2282
N7200 X5.5997 Z-.2232
N7210 X5.6028 Z-.2188
N7220 X5.6056 Z-.2142
N7230 X5.608 Z-.2092
N7240 X5.6099 Z-.204
N7250 X5.6112 Z-.1986
N7260 X5.6121 Z-.1931
N7270 X5.6067 Y-5.1855
N7280 Z-.1935
N7290 X5.6059 Z-.1986
N7300 X5.6044 Z-.204
N7310 X5.6024 Z-.2092
N7320 X5.5999 Z-.2142
N7330 X5.5969 Z-.2188
N7340 X5.5936 Z-.2232
N7350 X5.5889 Z-.2282
N7360 X5.586 Z-.2308
N7370 X5.5834 Z-.2329
N7380 X5.5768 Z-.2372
N7390 X5.5695 Z-.241
N7400 X5.561 Z-.2442
N7410 X5.5582 Z-.245
N7420 X5.5513 Z-.2467
N7430 X5.5405 Z-.2485
N7440 X5.5331 Z-.2491
N7450 X5.5249 Z-.2496
N7460 X5.5027 Z-.2499
N7470 X5.5 Z-.2496
N7480 X5.4972 Z-.2499
N7490 X.5028
N7500 X.5 Z-.2496
N7510 X.4973 Z-.2499
N7520 X.4821 Z-.2498
N7530 X.4736 Z-.2496
N7540 X.46 Z-.2486
N7550 X.4487 Z-.2467
N7560 X.4454 Z-.2459
N7570 X.439 Z-.2442
N7580 X.4305 Z-.241
N7590 X.4232 Z-.2372
N7600 X.4166 Z-.2329
N7610 X.414 Z-.2308
N7620 X.4111 Z-.2282
N7630 X.4064 Z-.2232
N7640 X.4031 Z-.2188
N7650 X.4001 Z-.2142
N7660 X.3976 Z-.2092
N7670 X.3956 Z-.204
N7680 X.3941 Z-.1986
N7690 X.3933 Z-.1935
N7700 Z-.1934
N7710 X.3999 Y-5.1756
N7720 X.4008 Z-.1986
N7730 X.4024 Z-.204
N7740 X.4046 Z-.2092
N7750 X.4073 Z-.2142
N7760 X.4104 Z-.2188
N7770 X.414 Z-.2232
N7780 X.4191 Z-.2282
N7790 X.4254 Z-.2329
N7800 X.4328 Z-.2373
N7810 X.4413 Z-.241
N7820 X.4442 Z-.242
N7830 X.4516 Z-.2442
N7840 X.4619 Z-.2463
N7850 X.4646 Z-.2467
N7860 X.4725 Z-.2476
N7870 X.4818 Z-.2483
N7880 X.4864 Z-.2486
N7890 X.4973 Z-.2488
N7900 X.5 Z-.2485
N7910 X.5029 Z-.2488
N7920 X5.4971
N7930 X5.5 Z-.2485
N7940 X5.5027 Z-.2488
N7950 X5.5147 Z-.2486
N7960 X5.5246 Z-.2479
N7970 X5.531 Z-.2472
N7980 X5.5354 Z-.2467
N7990 X5.5423 Z-.2454
N8000 X5.5484 Z-.2442
N8010 X5.5558 Z-.242
N8020 X5.5587 Z-.241
N8030 X5.5677 Z-.237
N8040 X5.5746 Z-.2329
N8050 X5.5812 Z-.2279
N8060 X5.586 Z-.2232
N8070 X5.5896 Z-.2188
N8080 X5.5927 Z-.2142
N8090 X5.5954 Z-.2092
N8100 X5.5976 Z-.204
N8110 X5.5992 Z-.1986
N8120 X5.6001 Z-.1934
N8130 X5.5917 Y-5.1657
N8140 Z-.1941
N8150 X5.5909 Z-.1986
N8160 X5.5891 Z-.204
N8170 X5.5868 Z-.2092
N8180 X5.5838 Z-.2142
N8190 X5.5803 Z-.2188
N8200 X5.5765 Z-.2231
N8210 X5.5704 Z-.2282
N8220 X5.5634 Z-.2328
N8230 X5.5544 Z-.2372
N8240 X5.5525 Z-.2379
N8250 X5.5434 Z-.241
N8260 X5.5351 Z-.2428
N8270 X5.528 Z-.2442
N8280 X5.5194 Z-.2451
N8290 X5.5125 Z-.2456
N8300 X5.5067 Z-.2459
N8310 X5.5005 Z-.246
N8320 X5.5 Z-.2459
N8330 X5.4995 Z-.246
N8340 X.5005
N8350 X.5 Z-.2459
N8360 X.4995 Z-.246
N8370 X.4952 Z-.2459
N8380 X.4872 Z-.2456
N8390 X.4786 Z-.2449
N8400 X.4721 Z-.2442
N8410 X.4649 Z-.2428
N8420 X.4568 Z-.241
N8430 X.4475 Z-.2379
N8440 X.4456 Z-.2372
N8450 X.4368 Z-.2329
N8460 X.4296 Z-.2282
N8470 X.4239 Z-.2235
N8480 X.4197 Z-.2188
N8490 X.4162 Z-.2142
N8500 X.4132 Z-.2092
N8510 X.4109 Z-.204
N8520 X.4091 Z-.1986
N8530 X.4082 Z-.1938
N8540 Z-.1933
N8550 X.4185 Y-5.1558
N8560 X.4196 Z-.1986
N8570 X.4215 Z-.204
N8580 X.4241 Z-.2092
N8590 X.4274 Z-.2142
N8600 X.4293 Z-.2165
N8610 X.4315 Z-.2188
N8620 X.4364 Z-.2232
N8630 X.4414 Z-.2268
N8640 X.4435 Z-.2282
N8650 X.4522 Z-.2327
N8660 X.4607 Z-.2358
N8670 X.4656 Z-.2372
N8680 X.4688 Z-.238
N8690 X.4761 Z-.2393
N8700 X.4837 Z-.2404
N8710 X.4898 Z-.241
N8720 X.4946 Z-.2412
N8730 X.4978 Z-.2413
N8740 X.5 Z-.241
N8750 X.5023 Z-.2413
N8760 X5.4977
N8770 X5.5 Z-.241
N8780 X5.5022 Z-.2413
N8790 X5.5054 Z-.2412
N8800 X5.5112 Z-.2409
N8810 X5.5173 Z-.2403
N8820 X5.5239 Z-.2393
N8830 X5.5312 Z-.238
N8840 X5.5344 Z-.2372
N8850 X5.5393 Z-.2358
N8860 X5.5472 Z-.2329
N8870 X5.5483 Z-.2324
N8880 X5.5565 Z-.2282
N8890 X5.5586 Z-.2268
N8900 X5.5636 Z-.2232
N8910 X5.5685 Z-.2188
N8920 X5.5707 Z-.2165
N8930 X5.5726 Z-.2142
N8940 X5.5759 Z-.2092
N8950 X5.5785 Z-.204
N8960 X5.5804 Z-.1986
N8970 X5.5816 Z-.1931
N8980 Z-.1925
N8990 Z-.1915
N9000 X5.5686 Y-5.1458
N9010 X5.5685 Z-.1931
N9020 X5.5671 Z-.1986
N9030 X5.565 Z-.2039
N9040 X5.5616 Z-.2092
N9050 X5.5574 Z-.2142
N9060 X5.5534 Z-.2179
N9070 X5.5523 Z-.2188
N9080 X5.5457 Z-.2232
N9090 X5.5434 Z-.2244
N9100 X5.5351 Z-.2282
N9110 X5.5265 Z-.2308
N9120 X5.5191 Z-.2324
N9130 X5.5123 Z-.2334
N9140 X5.506 Z-.2339
N9150 X5.5025
N9160 X5.5 Z-.2336
N9170 X5.4975 Z-.2339
N9180 X.5025
N9190 X.5 Z-.2336
N9200 X.4975 Z-.2339
N9210 X.494
N9220 X.4877 Z-.2334
N9230 X.4815 Z-.2325
N9240 X.4735 Z-.2308
N9250 X.4655 Z-.2284
N9260 X.4566 Z-.2244
N9270 X.4543 Z-.2232
N9280 X.4477 Z-.2188
N9290 X.4466 Z-.2179
N9300 X.4426 Z-.2142
N9310 X.4384 Z-.2092
N9320 X.4352 Z-.2043
N9330 X.4329 Z-.1986
N9340 X.4315 Z-.1931
N9350 X.4314 Z-.1915
N9360 X.4497 Y-5.1359
N9370 Z-.1928
N9380 X.4501 Z-.1943
N9390 X.4515 Z-.1986
N9400 X.4525 Z-.2004
N9410 X.4548 Z-.204
N9420 X.4596 Z-.2092
N9430 X.4622 Z-.2114
N9440 X.4663 Z-.2142
N9450 X.471 Z-.2167
N9460 X.4763 Z-.2188
N9470 X.4791 Z-.2198
N9480 X.4865 Z-.2215
N9490 X.4935 Z-.2225
N9500 X.4982 Z-.2227
N9510 X.5 Z-.2224
N9520 X.5013 Z-.2226
N9530 X5.4987
N9540 X5.5 Z-.2224
N9550 X5.5018 Z-.2227
N9560 X5.5065 Z-.2225
N9570 X5.5135 Z-.2215
N9580 X5.5209 Z-.2198
N9590 X5.5237 Z-.2188
N9600 X5.529 Z-.2167
N9610 X5.5337 Z-.2142
N9620 X5.5378 Z-.2114
N9630 X5.5404 Z-.2092
N9640 X5.5452 Z-.204
N9650 X5.5475 Z-.2004
N9660 X5.5485 Z-.1986
N9670 X5.5502 Z-.1933
N9680 G0 Z-.0933
N9690 Z.25
N9700 X5.5139 Y-5.126
N9710 Z-.0919
N9720 G1 Z-.1919 F7.7
N9730 X5.5133 Z-.1931 F15.4
N9740 X5.5071 Z-.1971
N9750 X5.5062 Z-.1973
N9760 X5.5003
N9770 X5.5 Z-.1972
N9780 X5.4997 Z-.1973
N9790 X5.4928
N9800 Z-.1981
N9810 X.5072
N9820 Z-.1973
N9830 X.5003
N9840 X.5 Z-.1972
N9850 X.4997 Z-.1973
N9860 X.4938
N9870 X.4929 Z-.1971
N9880 X.4867 Z-.1931
N9890 X.4863 Z-.1923
N9900 G0 Z-.0923
N9910 Z.25
N9920 M5
N9930 G91 G28 Z0. M9
N9940 M01
N9950 T2 M6
N9960 G187 P3 E.001
N9970 G0 G90 G17 G54 X1. Y-3.9375 S7334 M3
N9980 G43 H2 Z.1
N9990 M8
N100 G99 G83 Z-.075 R.1 Q.1 F7.
N110 X5.
N120 X3. Y-1.7813
N130 G80
N140 M5
N150 G91 G28 Z0. M9
N160 M01
N170 T3 M6
N180 G187 P3 E.001
N190 G0 G90 G17 G54 X1. Y-3.9375 S6366 M3
N200 G43 H3 Z.1
N210 M8
N220 G99 G83 Z-1.0533 R.1 Q.1 F8.6
N230 X5.
N240 X3. Y-1.7813
N250 G80
N260 M5
N270 G91 G28 Z0. M9
N280 M01
N290 T4 M6
N300 G187 P3 E.001
N310 G0 G90 G17 G54 X3.0275 Y-2.9877 S4000 M3
N320 G43 H4 Z.25
N330 M8
N340 Z.1
N350 G1 X3.0138 Y-2.9885 Z.0993 F20.
N360 X3. Y-2.9887 Z.0986
N370 X2.9633 Y-2.9869 Z.0967
N380 X2.9269 Y-2.9815 Z.0947
N390 X2.8912 Y-2.9726 Z.0928
N400 X2.8565 Y-2.9602 Z.0909
N410 X2.8233 Y-2.9444 Z.0889
N420 X2.7917 Y-2.9255 Z.087
N430 X2.7622 Y-2.9036 Z.0851
N440 X2.7349 Y-2.8789 Z.0832
N450 X2.7102 Y-2.8516 Z.0812
N460 X2.6883 Y-2.8221 Z.0793
N470 X2.6694 Y-2.7905 Z.0774
N480 X2.6536 Y-2.7573 Z.0754
N490 X2.6412 Y-2.7226 Z.0735
N500 X2.6323 Y-2.6869 Z.0716
N510 X2.6269 Y-2.6505 Z.0696
N520 X2.6251 Y-2.6138 Z.0677
N530 X2.6269 Y-2.5771 Z.0658
N540 X2.6323 Y-2.5407 Z.0638
N550 X2.6412 Y-2.505 Z.0619
N560 X2.6536 Y-2.4703 Z.06
N570 X2.6694 Y-2.4371 Z.058
N580 X2.6883 Y-2.4055 Z.0561
N590 X2.7102 Y-2.376 Z.0542
N600 X2.7349 Y-2.3487 Z.0522
N610 X2.7622 Y-2.324 Z.0503
N620 X2.7917 Y-2.3021 Z.0484
N630 X2.8233 Y-2.2832 Z.0465
N640 X2.8565 Y-2.2674 Z.0445
N650 X2.8912 Y-2.255 Z.0426
N660 X2.9269 Y-2.2461 Z.0407
N670 X2.9633 Y-2.2407 Z.0387
N680 X3. Y-2.2389 Z.0368
N690 X3.0367 Y-2.2407 Z.0349
N700 X3.0731 Y-2.2461 Z.0329
N710 X3.1088 Y-2.255 Z.031
N720 X3.1435 Y-2.2674 Z.0291
N730 X3.1767 Y-2.2832 Z.0271
N740 X3.2083 Y-2.3021 Z.0252
N750 X3.2378 Y-2.324 Z.0233
N760 X3.2651 Y-2.3487 Z.0214
N770 X3.2898 Y-2.376 Z.0194
N780 X3.3117 Y-2.4055 Z.0175
N790 X3.3306 Y-2.4371 Z.0156
N800 X3.3464 Y-2.4703 Z.0136
N810 X3.3588 Y-2.505 Z.0117
N820 X3.3677 Y-2.5407 Z.0098
N830 X3.3731 Y-2.5771 Z.0078
N840 X3.3749 Y-2.6138 Z.0059
N850 X3.3733 Y-2.6488 Z.0041
N860 X3.3684 Y-2.6836 Z.0022
N870 X3.3602 Y-2.7177 Z.0004
N880 X3.3489 Y-2.7509 Z-.0014
N890 X3.3346 Y-2.7829 Z-.0033
N900 X3.3173 Y-2.8134 Z-.0051
N910 X3.2973 Y-2.8422 Z-.007
N920 X3.2747 Y-2.869 Z-.0088
N930 X3.2496 Y-2.8935 Z-.0106
N940 X3.2224 Y-2.9156 Z-.0125
N950 X3.1932 Y-2.9351 Z-.0143
N960 X3.1623 Y-2.9518 Z-.0162
N970 X3.13 Y-2.9654 Z-.018
N980 X3.0966 Y-2.9761 Z-.0198
N990 X3.0623 Y-2.9835 Z-.0217
N1000 X3.0275 Y-2.9877 Z-.0235
N1010 X3.0138 Y-2.9885 Z-.0242
N1020 X3. Y-2.9887 Z-.0249
N1030 X2.9633 Y-2.9869 Z-.0268
N1040 X2.9269 Y-2.9815 Z-.0288
N1050 X2.8912 Y-2.9726 Z-.0307
N1060 X2.8565 Y-2.9602 Z-.0326
N1070 X2.8233 Y-2.9444 Z-.0346
N1080 X2.7917 Y-2.9255 Z-.0365
N1090 X2.7622 Y-2.9036 Z-.0384
N1100 X2.7349 Y-2.8789 Z-.0403
N1110 X2.7102 Y-2.8516 Z-.0423
N1120 X2.6883 Y-2.8221 Z-.0442
N1130 X2.6694 Y-2.7905 Z-.0461
N1140 X2.6536 Y-2.7573 Z-.0481
N1150 X2.6412 Y-2.7226 Z-.05
N1160 X2.6323 Y-2.6869 Z-.0519
N1170 X2.6269 Y-2.6505 Z-.0539
N1180 X2.6251 Y-2.6138 Z-.0558
N1190 X2.6269 Y-2.5771 Z-.0577
N1200 X2.6323 Y-2.5407 Z-.0597
N1210 X2.6412 Y-2.505 Z-.0616
N1220 X2.6536 Y-2.4703 Z-.0635
N1230 X2.6694 Y-2.4371 Z-.0655
N1240 X2.6883 Y-2.4055 Z-.0674
N1250 X2.7102 Y-2.376 Z-.0693
N1260 X2.7349 Y-2.3487 Z-.0713
N1270 X2.7622 Y-2.324 Z-.0732
N1280 X2.7917 Y-2.3021 Z-.0751
N1290 X2.8233 Y-2.2832 Z-.077
N1300 X2.8565 Y-2.2674 Z-.079
N1310 X2.8912 Y-2.255 Z-.0809
N1320 X2.9269 Y-2.2461 Z-.0828
N1330 X2.9633 Y-2.2407 Z-.0848
N1340 X3. Y-2.2389 Z-.0867
N1350 Y-1.8231
N1360 G3 X3.0418 Y-1.7813 I0. J.0418
N1370 X3. Y-1.7394 I-.0418 J0.
N1380 X2.9581 Y-1.7813 I0. J-.0419
N1390 X3. Y-1.8231 I.0419 J0.
N1400 G1 Y-1.9638
N1410 G3 X3.1825 Y-1.7813 I0. J.1825
N1420 X3. Y-1.5987 I-.1825 J0.
N1430 X2.8174 Y-1.7813 I0. J-.1826
N1440 X3. Y-1.9638 I.1826 J0.
N1450 G1 Y-2.245
N1460 G3 X3.4637 Y-1.7813 I0. J.4637
N1470 X3. Y-1.3175 I-.4637 J0.
N1480 X2.5362 Y-1.7813 I0. J-.4638
N1490 X3. Y-2.245 I.4638 J0.
N1500 G1 Y-2.5263
N1510 G3 X3.745 Y-1.7813 I0. J.745
N1520 X3. Y-1.0362 I-.745 J0.
N1530 X2.2549 Y-1.7813 I0. J-.7451
N1540 X3. Y-2.5263 I.7451 J0.
N1550 G1 Y-2.8075
N1560 G3 X4.0262 Y-1.7813 I0. J1.0262
N1570 X3. Y-.755 I-1.0262 J0.
N1580 X1.9737 Y-1.7813 I0. J-1.0263
N1590 X3. Y-2.8075 I1.0263 J0.
N1600 G1 Y-3.0888
N1610 G3 X4.3075 Y-1.7813 I0. J1.3075
N1620 X3. Y-.4738 I-1.3075 J0.
N1630 X1.6925 Y-1.7813 I0. J-1.3075
N1640 X3. Y-3.0888 I1.3075 J0.
N1650 G0 Z.25
N1660 X3.0275 Y-2.9877
N1670 Z.0133
N1680 G1 X3.0138 Y-2.9885 Z.0126
N1690 X3. Y-2.9887 Z.0119
N1700 X2.9633 Y-2.9869 Z.01
N1710 X2.9269 Y-2.9815 Z.008
N1720 X2.8912 Y-2.9726 Z.0061
N1730 X2.8565 Y-2.9602 Z.0042
N1740 X2.8233 Y-2.9444 Z.0022
N1750 X2.7917 Y-2.9255 Z.0003
N1760 X2.7622 Y-2.9036 Z-.0016
N1770 X2.7349 Y-2.8789 Z-.0035
N1780 X2.7102 Y-2.8516 Z-.0055
N1790 X2.6883 Y-2.8221 Z-.0074
N1800 X2.6694 Y-2.7905 Z-.0093
N1810 X2.6536 Y-2.7573 Z-.0113
N1820 X2.6412 Y-2.7226 Z-.0132
N1830 X2.6323 Y-2.6869 Z-.0151
N1840 X2.6269 Y-2.6505 Z-.0171
N1850 X2.6251 Y-2.6138 Z-.019
N1860 X2.6269 Y-2.5771 Z-.0209
N1870 X2.6323 Y-2.5407 Z-.0228
N1880 X2.6412 Y-2.505 Z-.0248
N1890 X2.6536 Y-2.4703 Z-.0267
N1900 X2.6694 Y-2.4371 Z-.0286
N1910 X2.6883 Y-2.4055 Z-.0306
N1920 X2.7102 Y-2.376 Z-.0325
N1930 X2.7349 Y-2.3487 Z-.0344
N1940 X2.7622 Y-2.324 Z-.0363
N1950 X2.7917 Y-2.3021 Z-.0382
N1960 X2.8233 Y-2.2832 Z-.0402
N1970 X2.8565 Y-2.2674 Z-.0421
N1980 X2.8912 Y-2.255 Z-.044
N1990 X2.9269 Y-2.2461 Z-.0459
N2000 X2.9633 Y-2.2407 Z-.0479
N2010 X3. Y-2.2389 Z-.0498
N2020 X3.0367 Y-2.2407 Z-.0517
N2030 X3.0731 Y-2.2461 Z-.0537
N2040 X3.1088 Y-2.255 Z-.0556
N2050 X3.1435 Y-2.2674 Z-.0575
N2060 X3.1767 Y-2.2832 Z-.0595
N2070 X3.2083 Y-2.3021 Z-.0614
N2080 X3.2378 Y-2.324 Z-.0633
N2090 X3.2651 Y-2.3487 Z-.0653
N2100 X3.2898 Y-2.376 Z-.0672
N2110 X3.3117 Y-2.4055 Z-.0691
N2120 X3.3306 Y-2.4371 Z-.071
N2130 X3.3464 Y-2.4703 Z-.073
N2140 X3.3588 Y-2.505 Z-.0749
N2150 X3.3677 Y-2.5407 Z-.0768
N2160 X3.3731 Y-2.5771 Z-.0788
N2170 X3.3749 Y-2.6138 Z-.0807
N2180 X3.3733 Y-2.6488 Z-.0825
N2190 X3.3684 Y-2.6836 Z-.0844
N2200 X3.3602 Y-2.7177 Z-.0862
N2210 X3.3489 Y-2.7509 Z-.088
N2220 X3.3346 Y-2.7829 Z-.0899
N2230 X3.3173 Y-2.8134 Z-.0917
N2240 X3.2973 Y-2.8422 Z-.0936
N2250 X3.2747 Y-2.869 Z-.0954
N2260 X3.2496 Y-2.8935 Z-.0972
N2270 X3.2224 Y-2.9156 Z-.0991
N2280 X3.1932 Y-2.9351 Z-.1009
N2290 X3.1623 Y-2.9518 Z-.1028
N2300 X3.13 Y-2.9654 Z-.1046
N2310 X3.0966 Y-2.9761 Z-.1064
N2320 X3.0623 Y-2.9835 Z-.1083
N2330 X3.0275 Y-2.9877 Z-.1101
N2340 X3.0138 Y-2.9885 Z-.1108
N2350 X3. Y-2.9887 Z-.1115
N2360 X2.9633 Y-2.9869 Z-.1134
N2370 X2.9269 Y-2.9815 Z-.1154
N2380 X2.8912 Y-2.9726 Z-.1173
N2390 X2.8565 Y-2.9602 Z-.1192
N2400 X2.8233 Y-2.9444 Z-.1212
N2410 X2.7917 Y-2.9255 Z-.1231
N2420 X2.7622 Y-2.9036 Z-.125
N2430 X2.7349 Y-2.8789 Z-.127
N2440 X2.7102 Y-2.8516 Z-.1289
N2450 X2.6883 Y-2.8221 Z-.1308
N2460 X2.6694 Y-2.7905 Z-.1327
N2470 X2.6536 Y-2.7573 Z-.1347
N2480 X2.6412 Y-2.7226 Z-.1366
N2490 X2.6323 Y-2.6869 Z-.1385
N2500 X2.6269 Y-2.6505 Z-.1405
N2510 X2.6251 Y-2.6138 Z-.1424
N2520 X2.6269 Y-2.5771 Z-.1443
N2530 X2.6323 Y-2.5407 Z-.1463
N2540 X2.6412 Y-2.505 Z-.1482
N2550 X2.6536 Y-2.4703 Z-.1501
N2560 X2.6694 Y-2.4371 Z-.1521
N2570 X2.6883 Y-2.4055 Z-.154
N2580 X2.7102 Y-2.376 Z-.1559
N2590 X2.7349 Y-2.3487 Z-.1578
N2600 X2.7622 Y-2.324 Z-.1598
N2610 X2.7917 Y-2.3021 Z-.1617
N2620 X2.8233 Y-2.2832 Z-.1636
N2630 X2.8565 Y-2.2674 Z-.1656
N2640 X2.8912 Y-2.255 Z-.1675
N2650 X2.9269 Y-2.2461 Z-.1694
N2660 X2.9633 Y-2.2407 Z-.1714
N2670 X3. Y-2.2389 Z-.1733
N2680 Y-1.8231
N2690 G3 X3.0418 Y-1.7813 I0. J.0418
N2700 X3. Y-1.7394 I-.0418 J0.
N2710 X2.9581 Y-1.7813 I0. J-.0419
N2720 X3. Y-1.8231 I.0419 J0.
N2730 G1 Y-1.9638
N2740 G3 X3.1825 Y-1.7813 I0. J.1825
N2750 X3. Y-1.5987 I-.1825 J0.
N2760 X2.8174 Y-1.7813 I0. J-.1826
N2770 X3. Y-1.9638 I.1826 J0.
N2780 G1 Y-2.245
N2790 G3 X3.4637 Y-1.7813 I0. J.4637
N2800 X3. Y-1.3175 I-.4637 J0.
N2810 X2.5362 Y-1.7813 I0. J-.4638
N2820 X3. Y-2.245 I.4638 J0.
N2830 G1 Y-2.5263
N2840 G3 X3.745 Y-1.7813 I0. J.745
N2850 X3. Y-1.0362 I-.745 J0.
N2860 X2.2549 Y-1.7813 I0. J-.7451
N2870 X3. Y-2.5263 I.7451 J0.
N2880 G1 Y-2.8075
N2890 G3 X4.0262 Y-1.7813 I0. J1.0262
N2900 X3. Y-.755 I-1.0262 J0.
N2910 X1.9737 Y-1.7813 I0. J-1.0263
N2920 X3. Y-2.8075 I1.0263 J0.
N2930 G1 Y-3.0888
N2940 G3 X4.3075 Y-1.7813 I0. J1.3075
N2950 X3. Y-.4738 I-1.3075 J0.
N2960 X1.6925 Y-1.7813 I0. J-1.3075
N2970 X3. Y-3.0888 I1.3075 J0.
N2980 G0 Z.25
N2990 X3.0275 Y-2.9877
N3000 Z-.0733
N3010 G1 X3.0138 Y-2.9885 Z-.074
N3020 X3. Y-2.9887 Z-.0747
N3030 X2.9633 Y-2.9869 Z-.0766
N3040 X2.9269 Y-2.9815 Z-.0786
N3050 X2.8912 Y-2.9726 Z-.0805
N3060 X2.8565 Y-2.9602 Z-.0824
N3070 X2.8233 Y-2.9444 Z-.0844
N3080 X2.7917 Y-2.9255 Z-.0863
N3090 X2.7622 Y-2.9036 Z-.0882
N3100 X2.7349 Y-2.8789 Z-.0902
N3110 X2.7102 Y-2.8516 Z-.0921
N3120 X2.6883 Y-2.8221 Z-.094
N3130 X2.6694 Y-2.7905 Z-.0959
N3140 X2.6536 Y-2.7573 Z-.0979
N3150 X2.6412 Y-2.7226 Z-.0998
N3160 X2.6323 Y-2.6869 Z-.1017
N3170 X2.6269 Y-2.6505 Z-.1037
N3180 X2.6251 Y-2.6138 Z-.1056
N3190 X2.6269 Y-2.5771 Z-.1075
N3200 X2.6323 Y-2.5407 Z-.1095
N3210 X2.6412 Y-2.505 Z-.1114
N3220 X2.6536 Y-2.4703 Z-.1133
N3230 X2.6694 Y-2.4371 Z-.1153
N3240 X2.6883 Y-2.4055 Z-.1172
N3250 X2.7102 Y-2.376 Z-.1191
N3260 X2.7349 Y-2.3487 Z-.1211
N3270 X2.7622 Y-2.324 Z-.123
N3280 X2.7917 Y-2.3021 Z-.1249
N3290 X2.8233 Y-2.2832 Z-.1268
N3300 X2.8565 Y-2.2674 Z-.1288
N3310 X2.8912 Y-2.255 Z-.1307
N3320 X2.9269 Y-2.2461 Z-.1326
N3330 X2.9633 Y-2.2407 Z-.1346
N3340 X3. Y-2.2389 Z-.1365
N3350 X3.0367 Y-2.2407 Z-.1384
N3360 X3.0731 Y-2.2461 Z-.1404
N3370 X3.1088 Y-2.255 Z-.1423
N3380 X3.1435 Y-2.2674 Z-.1442
N3390 X3.1767 Y-2.2832 Z-.1462
N3400 X3.2083 Y-2.3021 Z-.1481
N3410 X3.2378 Y-2.324 Z-.15
N3420 X3.2651 Y-2.3487 Z-.152
N3430 X3.2898 Y-2.376 Z-.1539
N3440 X3.3117 Y-2.4055 Z-.1558
N3450 X3.3306 Y-2.4371 Z-.1577
N3460 X3.3464 Y-2.4703 Z-.1597
N3470 X3.3588 Y-2.505 Z-.1616
N3480 X3.3677 Y-2.5407 Z-.1635
N3490 X3.3731 Y-2.5771 Z-.1655
N3500 X3.3749 Y-2.6138 Z-.1674
N3510 X3.3733 Y-2.6488 Z-.1692
N3520 X3.3684 Y-2.6836 Z-.1711
N3530 X3.3602 Y-2.7177 Z-.1729
N3540 X3.3489 Y-2.7509 Z-.1747
N3550 X3.3346 Y-2.7829 Z-.1766
N3560 X3.3173 Y-2.8134 Z-.1784
N3570 X3.2973 Y-2.8422 Z-.1803
N3580 X3.2747 Y-2.869 Z-.1821
N3590 X3.2496 Y-2.8935 Z-.1839
N3600 X3.2224 Y-2.9156 Z-.1858
N3610 X3.1932 Y-2.9351 Z-.1876
N3620 X3.1623 Y-2.9518 Z-.1895
N3630 X3.13 Y-2.9654 Z-.1913
N3640 X3.0966 Y-2.9761 Z-.1931
N3650 X3.0623 Y-2.9835 Z-.195
N3660 X3.0275 Y-2.9877 Z-.1968
N3670 X3.0138 Y-2.9885 Z-.1975
N3680 X3. Y-2.9887 Z-.1982
N3690 X2.9633 Y-2.9869 Z-.2001
N3700 X2.9269 Y-2.9815 Z-.2021
N3710 X2.8912 Y-2.9726 Z-.204
N3720 X2.8565 Y-2.9602 Z-.2059
N3730 X2.8233 Y-2.9444 Z-.2079
N3740 X2.7917 Y-2.9255 Z-.2098
N3750 X2.7622 Y-2.9036 Z-.2117
N3760 X2.7349 Y-2.8789 Z-.2137
N3770 X2.7102 Y-2.8516 Z-.2156
N3780 X2.6883 Y-2.8221 Z-.2175
N3790 X2.6694 Y-2.7905 Z-.2194
N3800 X2.6536 Y-2.7573 Z-.2214
N3810 X2.6412 Y-2.7226 Z-.2233
N3820 X2.6323 Y-2.6869 Z-.2252
N3830 X2.6269 Y-2.6505 Z-.2272
N3840 X2.6251 Y-2.6138 Z-.2291
N3850 X2.6269 Y-2.5771 Z-.231
N3860 X2.6323 Y-2.5407 Z-.233
N3870 X2.6412 Y-2.505 Z-.2349
N3880 X2.6536 Y-2.4703 Z-.2368
N3890 X2.6694 Y-2.4371 Z-.2388
N3900 X2.6883 Y-2.4055 Z-.2407
N3910 X2.7102 Y-2.376 Z-.2426
N3920 X2.7349 Y-2.3487 Z-.2445
N3930 X2.7622 Y-2.324 Z-.2465
N3940 X2.7917 Y-2.3021 Z-.2484
N3950 X2.8233 Y-2.2832 Z-.2503
N3960 X2.8565 Y-2.2674 Z-.2523
N3970 X2.8912 Y-2.255 Z-.2542
N3980 X2.9269 Y-2.2461 Z-.2561
N3990 X2.9633 Y-2.2407 Z-.2581
N4000 X3. Y-2.2389 Z-.26
N4010 Y-1.8231
N4020 G3 X3.0418 Y-1.7813 I0. J.0418
N4030 X3. Y-1.7394 I-.0418 J0.
N4040 X2.9581 Y-1.7813 I0. J-.0419
N4050 X3. Y-1.8231 I.0419 J0.
N4060 G1 Y-1.9638
N4070 G3 X3.1825 Y-1.7813 I0. J.1825
N4080 X3. Y-1.5987 I-.1825 J0.
N4090 X2.8174 Y-1.7813 I0. J-.1826
N4100 X3. Y-1.9638 I.1826 J0.
N4110 G1 Y-2.245
N4120 G3 X3.4637 Y-1.7813 I0. J.4637
N4130 X3. Y-1.3175 I-.4637 J0.
N4140 X2.5362 Y-1.7813 I0. J-.4638
N4150 X3. Y-2.245 I.4638 J0.
N4160 G1 Y-2.5263
N4170 G3 X3.745 Y-1.7813 I0. J.745
N4180 X3. Y-1.0362 I-.745 J0.
N4190 X2.2549 Y-1.7813 I0. J-.7451
N4200 X3. Y-2.5263 I.7451 J0.
N4210 G1 Y-2.8075
N4220 G3 X4.0262 Y-1.7813 I0. J1.0262
N4230 X3. Y-.755 I-1.0262 J0.
N4240 X1.9737 Y-1.7813 I0. J-1.0263
N4250 X3. Y-2.8075 I1.0263 J0.
N4260 G1 Y-3.0888
N4270 G3 X4.3075 Y-1.7813 I0. J1.3075
N4280 X3. Y-.4738 I-1.3075 J0.
N4290 X1.6925 Y-1.7813 I0. J-1.3075
N4300 X3. Y-3.0888 I1.3075 J0.
N4310 G0 Z.25
N4320 X3.0275 Y-2.9877
N4330 Z-.16
N4340 G1 X3.0138 Y-2.9885 Z-.1607
N4350 X3. Y-2.9887 Z-.1614
N4360 X2.9633 Y-2.9869 Z-.1633
N4370 X2.9269 Y-2.9815 Z-.1653
N4380 X2.8912 Y-2.9726 Z-.1672
N4390 X2.8565 Y-2.9602 Z-.1691
N4400 X2.8233 Y-2.9444 Z-.1711
N4410 X2.7917 Y-2.9255 Z-.173
N4420 X2.7622 Y-2.9036 Z-.1749
N4430 X2.7349 Y-2.8789 Z-.1769
N4440 X2.7102 Y-2.8516 Z-.1788
N4450 X2.6883 Y-2.8221 Z-.1807
N4460 X2.6694 Y-2.7905 Z-.1826
N4470 X2.6536 Y-2.7573 Z-.1846
N4480 X2.6412 Y-2.7226 Z-.1865
N4490 X2.6323 Y-2.6869 Z-.1884
N4500 X2.6269 Y-2.6505 Z-.1904
N4510 X2.6251 Y-2.6138 Z-.1923
N4520 X2.6269 Y-2.5771 Z-.1942
N4530 X2.6323 Y-2.5407 Z-.1962
N4540 X2.6412 Y-2.505 Z-.1981
N4550 X2.6536 Y-2.4703 Z-.2
N4560 X2.6694 Y-2.4371 Z-.202
N4570 X2.6883 Y-2.4055 Z-.2039
N4580 X2.7102 Y-2.376 Z-.2058
N4590 X2.7349 Y-2.3487 Z-.2077
N4600 X2.7622 Y-2.324 Z-.2097
N4610 X2.7917 Y-2.3021 Z-.2116
N4620 X2.8233 Y-2.2832 Z-.2135
N4630 X2.8565 Y-2.2674 Z-.2155
N4640 X2.8912 Y-2.255 Z-.2174
N4650 X2.9269 Y-2.2461 Z-.2193
N4660 X2.9633 Y-2.2407 Z-.2213
N4670 X3. Y-2.2389 Z-.2232
N4680 X3.0367 Y-2.2407 Z-.2251
N4690 X3.0731 Y-2.2461 Z-.2271
N4700 X3.1088 Y-2.255 Z-.229
N4710 X3.1435 Y-2.2674 Z-.2309
N4720 X3.1767 Y-2.2832 Z-.2329
N4730 X3.2083 Y-2.3021 Z-.2348
N4740 X3.2378 Y-2.324 Z-.2367
N4750 X3.2651 Y-2.3487 Z-.2387
N4760 X3.2898 Y-2.376 Z-.2406
N4770 X3.3117 Y-2.4055 Z-.2425
N4780 X3.3306 Y-2.4371 Z-.2444
N4790 X3.3464 Y-2.4703 Z-.2464
N4800 X3.3588 Y-2.505 Z-.2483
N4810 X3.3677 Y-2.5407 Z-.2502
N4820 X3.3731 Y-2.5771 Z-.2522
N4830 X3.3749 Y-2.6138 Z-.2541
N4840 X3.3733 Y-2.6488 Z-.2559
N4850 X3.3684 Y-2.6836 Z-.2578
N4860 X3.3602 Y-2.7177 Z-.2596
N4870 X3.3489 Y-2.7509 Z-.2614
N4880 X3.3346 Y-2.7829 Z-.2633
N4890 X3.3173 Y-2.8134 Z-.2651
N4900 X3.2973 Y-2.8422 Z-.267
N4910 X3.2747 Y-2.869 Z-.2688
N4920 X3.2496 Y-2.8935 Z-.2706
N4930 X3.2224 Y-2.9156 Z-.2725
N4940 X3.1932 Y-2.9351 Z-.2743
N4950 X3.1623 Y-2.9518 Z-.2762
N4960 X3.13 Y-2.9654 Z-.278
N4970 X3.0966 Y-2.9761 Z-.2798
N4980 X3.0623 Y-2.9835 Z-.2817
N4990 X3.0275 Y-2.9877 Z-.2835
N5000 X3.0138 Y-2.9885 Z-.2842
N5010 X3. Y-2.9887 Z-.2849
N5020 X2.9633 Y-2.9869 Z-.2868
N5030 X2.9269 Y-2.9815 Z-.2888
N5040 X2.8912 Y-2.9726 Z-.2907
N5050 X2.8565 Y-2.9602 Z-.2926
N5060 X2.8233 Y-2.9444 Z-.2946
N5070 X2.7917 Y-2.9255 Z-.2965
N5080 X2.7622 Y-2.9036 Z-.2984
N5090 X2.7349 Y-2.8789 Z-.3004
N5100 X2.7102 Y-2.8516 Z-.3023
N5110 X2.6883 Y-2.8221 Z-.3042
N5120 X2.6694 Y-2.7905 Z-.3061
N5130 X2.6536 Y-2.7573 Z-.3081
N5140 X2.6412 Y-2.7226 Z-.31
N5150 X2.6323 Y-2.6869 Z-.3119
N5160 X2.6269 Y-2.6505 Z-.3139
N5170 X2.6251 Y-2.6138 Z-.3158
N5180 X2.6269 Y-2.5771 Z-.3177
N5190 X2.6323 Y-2.5407 Z-.3197
N5200 X2.6412 Y-2.505 Z-.3216
N5210 X2.6536 Y-2.4703 Z-.3235
N5220 X2.6694 Y-2.4371 Z-.3255
N5230 X2.6883 Y-2.4055 Z-.3274
N5240 X2.7102 Y-2.376 Z-.3293
N5250 X2.7349 Y-2.3487 Z-.3313
N5260 X2.7622 Y-2.324 Z-.3332
N5270 X2.7917 Y-2.3021 Z-.3351
N5280 X2.8233 Y-2.2832 Z-.337
N5290 X2.8565 Y-2.2674 Z-.339
N5300 X2.8912 Y-2.255 Z-.3409
N5310 X2.9269 Y-2.2461 Z-.3428
N5320 X2.9633 Y-2.2407 Z-.3448
N5330 X3. Y-2.2389 Z-.3467
N5340 Y-1.8231
N5350 G3 X3.0418 Y-1.7813 I0. J.0418
N5360 X3. Y-1.7394 I-.0418 J0.
N5370 X2.9581 Y-1.7813 I0. J-.0419
N5380 X3. Y-1.8231 I.0419 J0.
N5390 G1 Y-1.9638
N5400 G3 X3.1825 Y-1.7813 I0. J.1825
N5410 X3. Y-1.5987 I-.1825 J0.
N5420 X2.8174 Y-1.7813 I0. J-.1826
N5430 X3. Y-1.9638 I.1826 J0.
N5440 G1 Y-2.245
N5450 G3 X3.4637 Y-1.7813 I0. J.4637
N5460 X3. Y-1.3175 I-.4637 J0.
N5470 X2.5362 Y-1.7813 I0. J-.4638
N5480 X3. Y-2.245 I.4638 J0.
N5490 G1 Y-2.5263
N5500 G3 X3.745 Y-1.7813 I0. J.745
N5510 X3. Y-1.0362 I-.745 J0.
N5520 X2.2549 Y-1.7813 I0. J-.7451
N5530 X3. Y-2.5263 I.7451 J0.
N5540 G1 Y-2.8075
N5550 G3 X4.0262 Y-1.7813 I0. J1.0262
N5560 X3. Y-.755 I-1.0262 J0.
N5570 X1.9737 Y-1.7813 I0. J-1.0263
N5580 X3. Y-2.8075 I1.0263 J0.
N5590 G1 Y-3.0888
N5600 G3 X4.3075 Y-1.7813 I0. J1.3075
N5610 X3. Y-.4738 I-1.3075 J0.
N5620 X1.6925 Y-1.7813 I0. J-1.3075
N5630 X3. Y-3.0888 I1.3075 J0.
N5640 G0 Z.25
N5650 X3.0275 Y-2.9877
N5660 Z-.2467
N5670 G1 X3.0138 Y-2.9885 Z-.2474
N5680 X3. Y-2.9887 Z-.2481
N5690 X2.9633 Y-2.9869 Z-.25
N5700 X2.9269 Y-2.9815 Z-.252
N5710 X2.8912 Y-2.9726 Z-.2539
N5720 X2.8565 Y-2.9602 Z-.2558
N5730 X2.8233 Y-2.9444 Z-.2578
N5740 X2.7917 Y-2.9255 Z-.2597
N5750 X2.7622 Y-2.9036 Z-.2616
N5760 X2.7349 Y-2.8789 Z-.2636
N5770 X2.7102 Y-2.8516 Z-.2655
N5780 X2.6883 Y-2.8221 Z-.2674
N5790 X2.6694 Y-2.7905 Z-.2693
N5800 X2.6536 Y-2.7573 Z-.2713
N5810 X2.6412 Y-2.7226 Z-.2732
N5820 X2.6323 Y-2.6869 Z-.2751
N5830 X2.6269 Y-2.6505 Z-.2771
N5840 X2.6251 Y-2.6138 Z-.279
N5850 X2.6269 Y-2.5771 Z-.2809
N5860 X2.6323 Y-2.5407 Z-.2829
N5870 X2.6412 Y-2.505 Z-.2848
N5880 X2.6536 Y-2.4703 Z-.2867
N5890 X2.6694 Y-2.4371 Z-.2886
N5900 X2.6883 Y-2.4055 Z-.2906
N5910 X2.7102 Y-2.376 Z-.2925
N5920 X2.7349 Y-2.3487 Z-.2944
N5930 X2.7622 Y-2.324 Z-.2963
N5940 X2.7917 Y-2.3021 Z-.2983
N5950 X2.8233 Y-2.2832 Z-.3002
N5960 X2.8565 Y-2.2674 Z-.3021
N5970 X2.8912 Y-2.255 Z-.304
N5980 X2.9269 Y-2.2461 Z-.3059
N5990 X2.9633 Y-2.2407 Z-.3079
N6000 X3. Y-2.2389 Z-.3098
N6010 X3.0367 Y-2.2407 Z-.3117
N6020 X3.0731 Y-2.2461 Z-.3137
N6030 X3.1088 Y-2.255 Z-.3156
N6040 X3.1435 Y-2.2674 Z-.3175
N6050 X3.1767 Y-2.2832 Z-.3195
N6060 X3.2083 Y-2.3021 Z-.3214
N6070 X3.2378 Y-2.324 Z-.3233
N6080 X3.2651 Y-2.3487 Z-.3253
N6090 X3.2898 Y-2.376 Z-.3272
N6100 X3.3117 Y-2.4055 Z-.3291
N6110 X3.3306 Y-2.4371 Z-.331
N6120 X3.3464 Y-2.4703 Z-.333
N6130 X3.3588 Y-2.505 Z-.3349
N6140 X3.3677 Y-2.5407 Z-.3368
N6150 X3.3731 Y-2.5771 Z-.3388
N6160 X3.3749 Y-2.6138 Z-.3407
N6170 X3.3733 Y-2.6488 Z-.3425
N6180 X3.3684 Y-2.6836 Z-.3444
N6190 X3.3602 Y-2.7177 Z-.3462
N6200 X3.3489 Y-2.7509 Z-.348
N6210 X3.3346 Y-2.7829 Z-.3499
N6220 X3.3173 Y-2.8134 Z-.3517
N6230 X3.2973 Y-2.8422 Z-.3536
N6240 X3.2747 Y-2.869 Z-.3554
N6250 X3.2496 Y-2.8935 Z-.3572
N6260 X3.2224 Y-2.9156 Z-.3591
N6270 X3.1932 Y-2.9351 Z-.3609
N6280 X3.1623 Y-2.9518 Z-.3628
N6290 X3.13 Y-2.9654 Z-.3646
N6300 X3.0966 Y-2.9761 Z-.3664
N6310 X3.0623 Y-2.9835 Z-.3683
N6320 X3.0275 Y-2.9877 Z-.3701
N6330 X3.0138 Y-2.9885 Z-.3708
N6340 X3. Y-2.9887 Z-.3715
N6350 X2.9633 Y-2.9869 Z-.3734
N6360 X2.9269 Y-2.9815 Z-.3754
N6370 X2.8912 Y-2.9726 Z-.3773
N6380 X2.8565 Y-2.9602 Z-.3792
N6390 X2.8233 Y-2.9444 Z-.3812
N6400 X2.7917 Y-2.9255 Z-.3831
N6410 X2.7622 Y-2.9036 Z-.385
N6420 X2.7349 Y-2.8789 Z-.387
N6430 X2.7102 Y-2.8516 Z-.3889
N6440 X2.6883 Y-2.8221 Z-.3908
N6450 X2.6694 Y-2.7905 Z-.3927
N6460 X2.6536 Y-2.7573 Z-.3947
N6470 X2.6412 Y-2.7226 Z-.3966
N6480 X2.6323 Y-2.6869 Z-.3985
N6490 X2.6269 Y-2.6505 Z-.4005
N6500 X2.6251 Y-2.6138 Z-.4024
N6510 X2.6269 Y-2.5771 Z-.4043
N6520 X2.6323 Y-2.5407 Z-.4063
N6530 X2.6412 Y-2.505 Z-.4082
N6540 X2.6536 Y-2.4703 Z-.4101
N6550 X2.6694 Y-2.4371 Z-.4121
N6560 X2.6883 Y-2.4055 Z-.414
N6570 X2.7102 Y-2.376 Z-.4159
N6580 X2.7349 Y-2.3487 Z-.4178
N6590 X2.7622 Y-2.324 Z-.4198
N6600 X2.7917 Y-2.3021 Z-.4217
N6610 X2.8233 Y-2.2832 Z-.4236
N6620 X2.8565 Y-2.2674 Z-.4256
N6630 X2.8912 Y-2.255 Z-.4275
N6640 X2.9269 Y-2.2461 Z-.4294
N6650 X2.9633 Y-2.2407 Z-.4314
N6660 X3. Y-2.2389 Z-.4333
N6670 Y-1.8231
N6680 G3 X3.0418 Y-1.7813 I0. J.0418
N6690 X3. Y-1.7394 I-.0418 J0.
N6700 X2.9581 Y-1.7813 I0. J-.0419
N6710 X3. Y-1.8231 I.0419 J0.
N6720 G1 Y-1.9638
N6730 G3 X3.1825 Y-1.7813 I0. J.1825
N6740 X3. Y-1.5987 I-.1825 J0.
N6750 X2.8174 Y-1.7813 I0. J-.1826
N6760 X3. Y-1.9638 I.1826 J0.
N6770 G1 Y-2.245
N6780 G3 X3.4637 Y-1.7813 I0. J.4637
N6790 X3. Y-1.3175 I-.4637 J0.
N6800 X2.5362 Y-1.7813 I0. J-.4638
N6810 X3. Y-2.245 I.4638 J0.
N6820 G1 Y-2.5263
N6830 G3 X3.745 Y-1.7813 I0. J.745
N6840 X3. Y-1.0362 I-.745 J0.
N6850 X2.2549 Y-1.7813 I0. J-.7451
N6860 X3. Y-2.5263 I.7451 J0.
N6870 G1 Y-2.8075
N6880 G3 X4.0262 Y-1.7813 I0. J1.0262
N6890 X3. Y-.755 I-1.0262 J0.
N6900 X1.9737 Y-1.7813 I0. J-1.0263
N6910 X3. Y-2.8075 I1.0263 J0.
N6920 G1 Y-3.0888
N6930 G3 X4.3075 Y-1.7813 I0. J1.3075
N6940 X3. Y-.4738 I-1.3075 J0.
N6950 X1.6925 Y-1.7813 I0. J-1.3075
N6960 X3. Y-3.0888 I1.3075 J0.
N6970 G0 Z.25
N6980 X3.0275 Y-2.9877
N6990 Z-.3333
N7000 G1 X3.0138 Y-2.9885 Z-.334
N7010 X3. Y-2.9887 Z-.3347
N7020 X2.9633 Y-2.9869 Z-.3366
N7030 X2.9269 Y-2.9815 Z-.3386
N7040 X2.8912 Y-2.9726 Z-.3405
N7050 X2.8565 Y-2.9602 Z-.3424
N7060 X2.8233 Y-2.9444 Z-.3444
N7070 X2.7917 Y-2.9255 Z-.3463
N7080 X2.7622 Y-2.9036 Z-.3482
N7090 X2.7349 Y-2.8789 Z-.3501
N7100 X2.7102 Y-2.8516 Z-.3521
N7110 X2.6883 Y-2.8221 Z-.354
N7120 X2.6694 Y-2.7905 Z-.3559
N7130 X2.6536 Y-2.7573 Z-.3579
N7140 X2.6412 Y-2.7226 Z-.3598
N7150 X2.6323 Y-2.6869 Z-.3617
N7160 X2.6269 Y-2.6505 Z-.3637
N7170 X2.6251 Y-2.6138 Z-.3656
N7180 X2.6269 Y-2.5771 Z-.3675
N7190 X2.6323 Y-2.5407 Z-.3695
N7200 X2.6412 Y-2.505 Z-.3714
N7210 X2.6536 Y-2.4703 Z-.3733
N7220 X2.6694 Y-2.4371 Z-.3753
N7230 X2.6883 Y-2.4055 Z-.3772
N7240 X2.7102 Y-2.376 Z-.3791
N7250 X2.7349 Y-2.3487 Z-.381
N7260 X2.7622 Y-2.324 Z-.383
N7270 X2.7917 Y-2.3021 Z-.3849
N7280 X2.8233 Y-2.2832 Z-.3868
N7290 X2.8565 Y-2.2674 Z-.3888
N7300 X2.8912 Y-2.255 Z-.3907
N7310 X2.9269 Y-2.2461 Z-.3926
N7320 X2.9633 Y-2.2407 Z-.3946
N7330 X3. Y-2.2389 Z-.3965
N7340 X3.0367 Y-2.2407 Z-.3984
N7350 X3.0731 Y-2.2461 Z-.4004
N7360 X3.1088 Y-2.255 Z-.4023
N7370 X3.1435 Y-2.2674 Z-.4042
N7380 X3.1767 Y-2.2832 Z-.4062
N7390 X3.2083 Y-2.3021 Z-.4081
N7400 X3.2378 Y-2.324 Z-.41
N7410 X3.2651 Y-2.3487 Z-.412
N7420 X3.2898 Y-2.376 Z-.4139
N7430 X3.3117 Y-2.4055 Z-.4158
N7440 X3.3306 Y-2.4371 Z-.4177
N7450 X3.3464 Y-2.4703 Z-.4197
N7460 X3.3588 Y-2.505 Z-.4216
N7470 X3.3677 Y-2.5407 Z-.4235
N7480 X3.3731 Y-2.5771 Z-.4255
N7490 X3.3749 Y-2.6138 Z-.4274
N7500 X3.3733 Y-2.6488 Z-.4292
N7510 X3.3684 Y-2.6836 Z-.4311
N7520 X3.3602 Y-2.7177 Z-.4329
N7530 X3.3489 Y-2.7509 Z-.4347
N7540 X3.3346 Y-2.7829 Z-.4366
N7550 X3.3173 Y-2.8134 Z-.4384
N7560 X3.2973 Y-2.8422 Z-.4403
N7570 X3.2747 Y-2.869 Z-.4421
N7580 X3.2496 Y-2.8935 Z-.4439
N7590 X3.2224 Y-2.9156 Z-.4458
N7600 X3.1932 Y-2.9351 Z-.4476
N7610 X3.1623 Y-2.9518 Z-.4495
N7620 X3.13 Y-2.9654 Z-.4513
N7630 X3.0966 Y-2.9761 Z-.4531
N7640 X3.0623 Y-2.9835 Z-.455
N7650 X3.0275 Y-2.9877 Z-.4568
N7660 X3.0138 Y-2.9885 Z-.4575
N7670 X3. Y-2.9887 Z-.4582
N7680 X2.9633 Y-2.9869 Z-.4601
N7690 X2.9269 Y-2.9815 Z-.4621
N7700 X2.8912 Y-2.9726 Z-.464
N7710 X2.8565 Y-2.9602 Z-.4659
N7720 X2.8233 Y-2.9444 Z-.4679
N7730 X2.7917 Y-2.9255 Z-.4698
N7740 X2.7622 Y-2.9036 Z-.4717
N7750 X2.7349 Y-2.8789 Z-.4737
N7760 X2.7102 Y-2.8516 Z-.4756
N7770 X2.6883 Y-2.8221 Z-.4775
N7780 X2.6694 Y-2.7905 Z-.4794
N7790 X2.6536 Y-2.7573 Z-.4814
N7800 X2.6412 Y-2.7226 Z-.4833
N7810 X2.6323 Y-2.6869 Z-.4852
N7820 X2.6269 Y-2.6505 Z-.4872
N7830 X2.6251 Y-2.6138 Z-.4891
N7840 X2.6269 Y-2.5771 Z-.491
N7850 X2.6323 Y-2.5407 Z-.493
N7860 X2.6412 Y-2.505 Z-.4949
N7870 X2.6536 Y-2.4703 Z-.4968
N7880 X2.6694 Y-2.4371 Z-.4988
N7890 X2.6883 Y-2.4055 Z-.5007
N7900 X2.7102 Y-2.376 Z-.5026
N7910 X2.7349 Y-2.3487 Z-.5046
N7920 X2.7622 Y-2.324 Z-.5065
N7930 X2.7917 Y-2.3021 Z-.5084
N7940 X2.8233 Y-2.2832 Z-.5103
N7950 X2.8565 Y-2.2674 Z-.5123
N7960 X2.8912 Y-2.255 Z-.5142
N7970 X2.9269 Y-2.2461 Z-.5161
N7980 X2.9633 Y-2.2407 Z-.5181
N7990 X3. Y-2.2389 Z-.52
N8000 Y-1.8231
N8010 G3 X3.0418 Y-1.7813 I0. J.0418
N8020 X3. Y-1.7394 I-.0418 J0.
N8030 X2.9581 Y-1.7813 I0. J-.0419
N8040 X3. Y-1.8231 I.0419 J0.
N8050 G1 Y-1.9638
N8060 G3 X3.1825 Y-1.7813 I0. J.1825
N8070 X3. Y-1.5987 I-.1825 J0.
N8080 X2.8174 Y-1.7813 I0. J-.1826
N8090 X3. Y-1.9638 I.1826 J0.
N8100 G1 Y-2.245
N8110 G3 X3.4637 Y-1.7813 I0. J.4637
N8120 X3. Y-1.3175 I-.4637 J0.
N8130 X2.5362 Y-1.7813 I0. J-.4638
N8140 X3. Y-2.245 I.4638 J0.
N8150 G1 Y-2.5263
N8160 G3 X3.745 Y-1.7813 I0. J.745
N8170 X3. Y-1.0362 I-.745 J0.
N8180 X2.2549 Y-1.7813 I0. J-.7451
N8190 X3. Y-2.5263 I.7451 J0.
N8200 G1 Y-2.8075
N8210 G3 X4.0262 Y-1.7813 I0. J1.0262
N8220 X3. Y-.755 I-1.0262 J0.
N8230 X1.9737 Y-1.7813 I0. J-1.0263
N8240 X3. Y-2.8075 I1.0263 J0.
N8250 G1 Y-3.0888
N8260 G3 X4.3075 Y-1.7813 I0. J1.3075
N8270 X3. Y-.4738 I-1.3075 J0.
N8280 X1.6925 Y-1.7813 I0. J-1.3075
N8290 X3. Y-3.0888 I1.3075 J0.
N8300 G0 Z.25
N8310 X3.0275 Y-2.9877
N8320 Z-.3433
N8330 G1 X3.0138 Y-2.9885 Z-.344
N8340 X3. Y-2.9887 Z-.3447
N8350 X2.9633 Y-2.9869 Z-.3466
N8360 X2.9269 Y-2.9815 Z-.3486
N8370 X2.8912 Y-2.9726 Z-.3505
N8380 X2.8565 Y-2.9602 Z-.3524
N8390 X2.8233 Y-2.9444 Z-.3544
N8400 X2.7917 Y-2.9255 Z-.3563
N8410 X2.7622 Y-2.9036 Z-.3582
N8420 X2.7349 Y-2.8789 Z-.3601
N8430 X2.7102 Y-2.8516 Z-.3621
N8440 X2.6883 Y-2.8221 Z-.364
N8450 X2.6694 Y-2.7905 Z-.3659
N8460 X2.6536 Y-2.7573 Z-.3679
N8470 X2.6412 Y-2.7226 Z-.3698
N8480 X2.6323 Y-2.6869 Z-.3717
N8490 X2.6269 Y-2.6505 Z-.3737
N8500 X2.6251 Y-2.6138 Z-.3756
N8510 X2.6269 Y-2.5771 Z-.3775
N8520 X2.6323 Y-2.5407 Z-.3795
N8530 X2.6412 Y-2.505 Z-.3814
N8540 X2.6536 Y-2.4703 Z-.3833
N8550 X2.6694 Y-2.4371 Z-.3853
N8560 X2.6883 Y-2.4055 Z-.3872
N8570 X2.7102 Y-2.376 Z-.3891
N8580 X2.7349 Y-2.3487 Z-.3911
N8590 X2.7622 Y-2.324 Z-.393
N8600 X2.7917 Y-2.3021 Z-.3949
N8610 X2.8233 Y-2.2832 Z-.3968
N8620 X2.8565 Y-2.2674 Z-.3988
N8630 X2.8912 Y-2.255 Z-.4007
N8640 X2.9269 Y-2.2461 Z-.4026
N8650 X2.9633 Y-2.2407 Z-.4046
N8660 X3. Y-2.2389 Z-.4065
N8670 X3.0367 Y-2.2407 Z-.4084
N8680 X3.0731 Y-2.2461 Z-.4104
N8690 X3.1088 Y-2.255 Z-.4123
N8700 X3.1435 Y-2.2674 Z-.4142
N8710 X3.1767 Y-2.2832 Z-.4162
N8720 X3.2083 Y-2.3021 Z-.4181
N8730 X3.2378 Y-2.324 Z-.42
N8740 X3.2651 Y-2.3487 Z-.4219
N8750 X3.2898 Y-2.376 Z-.4239
N8760 X3.3117 Y-2.4055 Z-.4258
N8770 X3.3306 Y-2.4371 Z-.4277
N8780 X3.3464 Y-2.4703 Z-.4297
N8790 X3.3588 Y-2.505 Z-.4316
N8800 X3.3677 Y-2.5407 Z-.4335
N8810 X3.3731 Y-2.5771 Z-.4355
N8820 X3.3749 Y-2.6138 Z-.4374
N8830 X3.3733 Y-2.6488 Z-.4392
N8840 X3.3684 Y-2.6836 Z-.4411
N8850 X3.3602 Y-2.7177 Z-.4429
N8860 X3.3489 Y-2.7509 Z-.4447
N8870 X3.3346 Y-2.7829 Z-.4466
N8880 X3.3173 Y-2.8134 Z-.4484
N8890 X3.2973 Y-2.8422 Z-.4503
N8900 X3.2747 Y-2.869 Z-.4521
N8910 X3.2496 Y-2.8935 Z-.4539
N8920 X3.2224 Y-2.9156 Z-.4558
N8930 X3.1932 Y-2.9351 Z-.4576
N8940 X3.1623 Y-2.9518 Z-.4595
N8950 X3.13 Y-2.9654 Z-.4613
N8960 X3.0966 Y-2.9761 Z-.4631
N8970 X3.0623 Y-2.9835 Z-.465
N8980 X3.0275 Y-2.9877 Z-.4668
N8990 X3.0138 Y-2.9885 Z-.4675
N9000 X3. Y-2.9887 Z-.4682
N9010 X2.9633 Y-2.9869 Z-.4701
N9020 X2.9269 Y-2.9815 Z-.4721
N9030 X2.8912 Y-2.9726 Z-.474
N9040 X2.8565 Y-2.9602 Z-.4759
N9050 X2.8233 Y-2.9444 Z-.4779
N9060 X2.7917 Y-2.9255 Z-.4798
N9070 X2.7622 Y-2.9036 Z-.4817
N9080 X2.7349 Y-2.8789 Z-.4837
N9090 X2.7102 Y-2.8516 Z-.4856
N9100 X2.6883 Y-2.8221 Z-.4875
N9110 X2.6694 Y-2.7905 Z-.4894
N9120 X2.6536 Y-2.7573 Z-.4914
N9130 X2.6412 Y-2.7226 Z-.4933
N9140 X2.6323 Y-2.6869 Z-.4952
N9150 X2.6269 Y-2.6505 Z-.4972
N9160 X2.6251 Y-2.6138 Z-.4991
N9170 X2.6269 Y-2.5771 Z-.501
N9180 X2.6323 Y-2.5407 Z-.503
N9190 X2.6412 Y-2.505 Z-.5049
N9200 X2.6536 Y-2.4703 Z-.5068
N9210 X2.6694 Y-2.4371 Z-.5088
N9220 X2.6883 Y-2.4055 Z-.5107
N9230 X2.7102 Y-2.376 Z-.5126
N9240 X2.7349 Y-2.3487 Z-.5146
N9250 X2.7622 Y-2.324 Z-.5165
N9260 X2.7917 Y-2.3021 Z-.5184
N9270 X2.8233 Y-2.2832 Z-.5203
N9280 X2.8565 Y-2.2674 Z-.5223
N9290 X2.8912 Y-2.255 Z-.5242
N9300 X2.9269 Y-2.2461 Z-.5261
N9310 X2.9633 Y-2.2407 Z-.5281
N9320 X3. Y-2.2389 Z-.53
N9330 Y-1.8231
N9340 G3 X3.0418 Y-1.7813 I0. J.0418
N9350 X3. Y-1.7394 I-.0418 J0.
N9360 X2.9581 Y-1.7813 I0. J-.0419
N9370 X3. Y-1.8231 I.0419 J0.
N9380 G1 Y-1.9638
N9390 G3 X3.1825 Y-1.7813 I0. J.1825
N9400 X3. Y-1.5987 I-.1825 J0.
N9410 X2.8174 Y-1.7813 I0. J-.1826
N9420 X3. Y-1.9638 I.1826 J0.
N9430 G1 Y-2.245
N9440 G3 X3.4637 Y-1.7813 I0. J.4637
N9450 X3. Y-1.3175 I-.4637 J0.
N9460 X2.5362 Y-1.7813 I0. J-.4638
N9470 X3. Y-2.245 I.4638 J0.
N9480 G1 Y-2.5263
N9490 G3 X3.745 Y-1.7813 I0. J.745
N9500 X3. Y-1.0362 I-.745 J0.
N9510 X2.2549 Y-1.7813 I0. J-.7451
N9520 X3. Y-2.5263 I.7451 J0.
N9530 G1 Y-2.8075
N9540 G3 X4.0262 Y-1.7813 I0. J1.0262
N9550 X3. Y-.755 I-1.0262 J0.
N9560 X1.9737 Y-1.7813 I0. J-1.0263
N9570 X3. Y-2.8075 I1.0263 J0.
N9580 G1 Y-3.0888
N9590 G3 X4.3075 Y-1.7813 I0. J1.3075
N9600 X3. Y-.4738 I-1.3075 J0.
N9610 X1.6925 Y-1.7813 I0. J-1.3075
N9620 X3. Y-3.0888 I1.3075 J0.
N9630 G0 Z.25
N9640 X3.0275 Y-2.9877
N9650 Z-.3533
N9660 G1 X3.0138 Y-2.9885 Z-.354
N9670 X3. Y-2.9887 Z-.3547
N9680 X2.9633 Y-2.9869 Z-.3566
N9690 X2.9269 Y-2.9815 Z-.3586
N9700 X2.8912 Y-2.9726 Z-.3605
N9710 X2.8565 Y-2.9602 Z-.3624
N9720 X2.8233 Y-2.9444 Z-.3644
N9730 X2.7917 Y-2.9255 Z-.3663
N9740 X2.7622 Y-2.9036 Z-.3682
N9750 X2.7349 Y-2.8789 Z-.3701
N9760 X2.7102 Y-2.8516 Z-.3721
N9770 X2.6883 Y-2.8221 Z-.374
N9780 X2.6694 Y-2.7905 Z-.3759
N9790 X2.6536 Y-2.7573 Z-.3779
N9800 X2.6412 Y-2.7226 Z-.3798
N9810 X2.6323 Y-2.6869 Z-.3817
N9820 X2.6269 Y-2.6505 Z-.3837
N9830 X2.6251 Y-2.6138 Z-.3856
N9840 X2.6269 Y-2.5771 Z-.3875
N9850 X2.6323 Y-2.5407 Z-.3895
N9860 X2.6412 Y-2.505 Z-.3914
N9870 X2.6536 Y-2.4703 Z-.3933
N9880 X2.6694 Y-2.4371 Z-.3953
N9890 X2.6883 Y-2.4055 Z-.3972
N9900 X2.7102 Y-2.376 Z-.3991
N9910 X2.7349 Y-2.3487 Z-.4011
N9920 X2.7622 Y-2.324 Z-.403
N9930 X2.7917 Y-2.3021 Z-.4049
N9940 X2.8233 Y-2.2832 Z-.4068
N9950 X2.8565 Y-2.2674 Z-.4088
N9960 X2.8912 Y-2.255 Z-.4107
N9970 X2.9269 Y-2.2461 Z-.4126
N9980 X2.9633 Y-2.2407 Z-.4146
N9990 X3. Y-2.2389 Z-.4165
N100 X3.0367 Y-2.2407 Z-.4184
N110 X3.0731 Y-2.2461 Z-.4204
N120 X3.1088 Y-2.255 Z-.4223
N130 X3.1435 Y-2.2674 Z-.4242
N140 X3.1767 Y-2.2832 Z-.4262
N150 X3.2083 Y-2.3021 Z-.4281
N160 X3.2378 Y-2.324 Z-.43
N170 X3.2651 Y-2.3487 Z-.432
N180 X3.2898 Y-2.376 Z-.4339
N190 X3.3117 Y-2.4055 Z-.4358
N200 X3.3306 Y-2.4371 Z-.4377
N210 X3.3464 Y-2.4703 Z-.4397
N220 X3.3588 Y-2.505 Z-.4416
N230 X3.3677 Y-2.5407 Z-.4435
N240 X3.3731 Y-2.5771 Z-.4455
N250 X3.3749 Y-2.6138 Z-.4474
N260 X3.3733 Y-2.6488 Z-.4492
N270 X3.3684 Y-2.6836 Z-.4511
N280 X3.3602 Y-2.7177 Z-.4529
N290 X3.3489 Y-2.7509 Z-.4547
N300 X3.3346 Y-2.7829 Z-.4566
N310 X3.3173 Y-2.8134 Z-.4584
N320 X3.2973 Y-2.8422 Z-.4603
N330 X3.2747 Y-2.869 Z-.4621
N340 X3.2496 Y-2.8935 Z-.4639
N350 X3.2224 Y-2.9156 Z-.4658
N360 X3.1932 Y-2.9351 Z-.4676
N370 X3.1623 Y-2.9518 Z-.4695
N380 X3.13 Y-2.9654 Z-.4713
N390 X3.0966 Y-2.9761 Z-.4731
N400 X3.0623 Y-2.9835 Z-.475
N410 X3.0275 Y-2.9877 Z-.4768
N420 X3.0138 Y-2.9885 Z-.4775
N430 X3. Y-2.9887 Z-.4782
N440 X2.9633 Y-2.9869 Z-.4801
N450 X2.9269 Y-2.9815 Z-.4821
N460 X2.8912 Y-2.9726 Z-.484
N470 X2.8565 Y-2.9602 Z-.4859
N480 X2.8233 Y-2.9444 Z-.4879
N490 X2.7917 Y-2.9255 Z-.4898
N500 X2.7622 Y-2.9036 Z-.4917
N510 X2.7349 Y-2.8789 Z-.4937
N520 X2.7102 Y-2.8516 Z-.4956
N530 X2.6883 Y-2.8221 Z-.4975
N540 X2.6694 Y-2.7905 Z-.4994
N550 X2.6536 Y-2.7573 Z-.5014
N560 X2.6412 Y-2.7226 Z-.5033
N570 X2.6323 Y-2.6869 Z-.5052
N580 X2.6269 Y-2.6505 Z-.5072
N590 X2.6251 Y-2.6138 Z-.5091
N600 X2.6269 Y-2.5771 Z-.511
N610 X2.6323 Y-2.5407 Z-.513
N620 X2.6412 Y-2.505 Z-.5149
N630 X2.6536 Y-2.4703 Z-.5168
N640 X2.6694 Y-2.4371 Z-.5188
N650 X2.6883 Y-2.4055 Z-.5207
N660 X2.7102 Y-2.376 Z-.5226
N670 X2.7349 Y-2.3487 Z-.5246
N680 X2.7622 Y-2.324 Z-.5265
N690 X2.7917 Y-2.3021 Z-.5284
N700 X2.8233 Y-2.2832 Z-.5303
N710 X2.8565 Y-2.2674 Z-.5323
N720 X2.8912 Y-2.255 Z-.5342
N730 X2.9269 Y-2.2461 Z-.5361
N740 X2.9633 Y-2.2407 Z-.5381
N750 X3. Y-2.2389 Z-.54
N760 Y-1.8231
N770 G3 X3.0418 Y-1.7813 I0. J.0418
N780 X3. Y-1.7394 I-.0418 J0.
N790 X2.9581 Y-1.7813 I0. J-.0419
N800 X3. Y-1.8231 I.0419 J0.
N810 G1 Y-1.9638
N820 G3 X3.1825 Y-1.7813 I0. J.1825
N830 X3. Y-1.5987 I-.1825 J0.
N840 X2.8174 Y-1.7813 I0. J-.1826
N850 X3. Y-1.9638 I.1826 J0.
N860 G1 Y-2.245
N870 G3 X3.4637 Y-1.7813 I0. J.4637
N880 X3. Y-1.3175 I-.4637 J0.
N890 X2.5362 Y-1.7813 I0. J-.4638
N900 X3. Y-2.245 I.4638 J0.
N910 G1 Y-2.5263
N920 G3 X3.745 Y-1.7813 I0. J.745
N930 X3. Y-1.0362 I-.745 J0.
N940 X2.2549 Y-1.7813 I0. J-.7451
N950 X3. Y-2.5263 I.7451 J0.
N960 G1 Y-2.8075
N970 G3 X4.0262 Y-1.7813 I0. J1.0262
N980 X3. Y-.755 I-1.0262 J0.
N990 X1.9737 Y-1.7813 I0. J-1.0263
N1000 X3. Y-2.8075 I1.0263 J0.
N1010 G1 Y-3.0888
N1020 G3 X4.3075 Y-1.7813 I0. J1.3075
N1030 X3. Y-.4738 I-1.3075 J0.
N1040 X1.6925 Y-1.7813 I0. J-1.3075
N1050 X3. Y-3.0888 I1.3075 J0.
N1060 G0 Z.25
N1070 X4.0925 Y-1.8938
N1080 Z-.43
N1090 G1 Z-.54 F6.
N1100 X4.205 F20.
N1110 G3 X4.3175 Y-1.7813 I0. J.1125
N1120 X3. Y-.4637 I-1.3175 J0.
N1130 G1 X2.9287 Y-.4656
N1140 X2.8575 Y-.4714
N1150 X2.7868 Y-.4811
N1160 X2.7168 Y-.4945
N1170 X2.6475 Y-.5117
N1180 X2.5793 Y-.5327
N1190 X2.5123 Y-.5573
N1200 X2.4468 Y-.5855
N1210 X2.3828 Y-.6172
N1220 X2.3207 Y-.6523
N1230 X2.2606 Y-.6907
N1240 X2.2026 Y-.7324
N1250 X2.147 Y-.7771
N1260 X2.0939 Y-.8247
N1270 X2.0434 Y-.8752
N1280 X1.9958 Y-.9283
N1290 X1.9511 Y-.9839
N1300 X1.9094 Y-1.0419
N1310 X1.871 Y-1.102
N1320 X1.8359 Y-1.1641
N1330 X1.8042 Y-1.2281
N1340 X1.776 Y-1.2936
N1350 X1.7514 Y-1.3606
N1360 X1.7304 Y-1.4288
N1370 X1.7132 Y-1.4981
N1380 X1.6998 Y-1.5681
N1390 X1.6901 Y-1.6388
N1400 X1.6843 Y-1.71
N1410 X1.6824 Y-1.7813
N1420 X1.6843 Y-1.8526
N1430 X1.6901 Y-1.9238
N1440 X1.6998 Y-1.9945
N1450 X1.7132 Y-2.0645
N1460 X1.7304 Y-2.1338
N1470 X1.7514 Y-2.202
N1480 X1.776 Y-2.269
N1490 X1.8042 Y-2.3345
N1500 X1.8359 Y-2.3985
N1510 X1.871 Y-2.4606
N1520 X1.9094 Y-2.5207
N1530 X1.9511 Y-2.5787
N1540 X1.9958 Y-2.6343
N1550 X2.0434 Y-2.6874
N1560 X2.0939 Y-2.7379
N1570 X2.147 Y-2.7855
N1580 X2.2026 Y-2.8302
N1590 X2.2606 Y-2.8719
N1600 X2.3207 Y-2.9103
N1610 X2.3828 Y-2.9454
N1620 X2.4468 Y-2.9771
N1630 X2.5123 Y-3.0053
N1640 X2.5793 Y-3.0299
N1650 X2.6475 Y-3.0509
N1660 X2.7168 Y-3.0681
N1670 X2.7868 Y-3.0815
N1680 X2.8575 Y-3.0912
N1690 X2.9287 Y-3.097
N1700 X3. Y-3.0987
N1710 G3 X4.3175 Y-1.7813 I0. J1.3174
N1720 X4.205 Y-1.6687 I-.1125 J0.
N1730 G1 X4.0925
N1740 G0 Z.25
N1750 M5
N1760 G91 G28 Z0. M9
N1770 G28 X0. Y0.
N1780 M30
%
