%
O0
(BASE_BOTTOM_OP_2_V4)
(DATE=DD-MM-YY - 28-04-23 TIME=HH:MM - 16:44)
(MCAM FILE - C:\USERS\PPAK\DOWNLOADS\BASE_BOTTOM_V4.EMCAM)
(NC FILE - C:\USERS\PPAK\DOCUMENTS\MY MASTERCAM 2020\MASTERCAM\MILL\NC\BASE_BOT)
(MATERIAL - ALUMINUM INCH - 6061)
(T5|0.375 ROUNDOVER TOOL|H5|D5|TOOL DIA. - .375)
(T4| 3/8 FLAT ENDMILL|H4|D4|TOOL DIA. - .375)
N100 G20
N110 G0 G17 G40 G49 G80 G90
N120 T5 M6
N130 G187 P3 E.001
N140 G0 G90 G54 X6.535 Y-2.8875 S12224 M3
N150 G43 H5 Z.25
N160 M8
N170 Z.1
N180 G1 Z-.0575 F11.7
N190 X6.31 F23.5
N200 G3 X6.1975 Y-3. I0. J-.1125
N210 G1 Y-5.875
N220 G2 X5.875 Y-6.1975 I-.3225 J0.
N230 G1 X.125
N240 G2 X-.1975 Y-5.875 I0. J.3225
N250 G1 Y-.125
N260 G2 X.125 Y.1975 I.3225 J0.
N270 G1 X5.875
N280 G2 X6.1975 Y-.125 I0. J-.3225
N290 G1 Y-3.
N300 G3 X6.31 Y-3.1125 I.1125 J0.
N310 G1 X6.535
N320 G0 Z.25
N330 Y-2.8875
N340 Z.0425
N350 G1 Z-.115 F11.7
N360 X6.31 F23.5
N370 G3 X6.1975 Y-3. I0. J-.1125
N380 G1 Y-5.875
N390 G2 X5.875 Y-6.1975 I-.3225 J0.
N400 G1 X.125
N410 G2 X-.1975 Y-5.875 I0. J.3225
N420 G1 Y-.125
N430 G2 X.125 Y.1975 I.3225 J0.
N440 G1 X5.875
N450 G2 X6.1975 Y-.125 I0. J-.3225
N460 G1 Y-3.
N470 G3 X6.31 Y-3.1125 I.1125 J0.
N480 G1 X6.535
N490 G0 Z.25
N500 Y-2.8875
N510 Z-.015
N520 G1 Z-.125 F11.7
N530 X6.31 F23.5
N540 G3 X6.1975 Y-3. I0. J-.1125
N550 G1 Y-5.875
N560 G2 X5.875 Y-6.1975 I-.3225 J0.
N570 G1 X.125
N580 G2 X-.1975 Y-5.875 I0. J.3225
N590 G1 Y-.125
N600 G2 X.125 Y.1975 I.3225 J0.
N610 G1 X5.875
N620 G2 X6.1975 Y-.125 I0. J-.3225
N630 G1 Y-3.
N640 G3 X6.31 Y-3.1125 I.1125 J0.
N650 G1 X6.535
N660 G0 Z.25
N670 X6.525 Y-2.8875
N680 Z-.015
N690 G1 Z-.125 F11.7
N700 X6.3 F23.5
N710 G3 X6.1875 Y-3. I0. J-.1125
N720 G1 Y-5.875
N730 G2 X5.875 Y-6.1875 I-.3125 J0.
N740 G1 X.125
N750 G2 X-.1875 Y-5.875 I0. J.3125
N760 G1 Y-.125
N770 G2 X.125 Y.1875 I.3125 J0.
N780 G1 X5.875
N790 G2 X6.1875 Y-.125 I0. J-.3125
N800 G1 Y-3.
N810 G3 X6.3 Y-3.1125 I.1125 J0.
N820 G1 X6.525
N830 G0 Z.25
N840 M5
N850 G91 G28 Z0. M9
N860 M01
N870 T4 M6
N880 G187 P3 E.001
N890 G0 G90 G17 G54 X6.535 Y-3.1125 S4074 M3
N900 G43 H4 Z.25
N910 M8
N920 Z.1
N930 G1 Z-.098 F12.1
N940 X6.31 F100.
N950 G2 X6.1975 Y-3. I0. J.1125
N960 G1 Y-.125
N970 G3 X5.875 Y.1975 I-.3225 J0.
N980 G1 X.125
N990 G3 X-.1975 Y-.125 I0. J-.3225
N1000 G1 Y-5.875
N1010 G3 X.125 Y-6.1975 I.3225 J0.
N1020 G1 X5.875
N1030 G3 X6.1975 Y-5.875 I0. J.3225
N1040 G1 Y-3.
N1050 G2 X6.31 Y-2.8875 I.1125 J0.
N1060 G1 X6.535
N1070 G0 Z.25
N1080 Y-3.1125
N1090 Z.002
N1100 G1 Z-.196 F12.1
N1110 X6.31 F100.
N1120 G2 X6.1975 Y-3. I0. J.1125
N1130 G1 Y-.125
N1140 G3 X5.875 Y.1975 I-.3225 J0.
N1150 G1 X.125
N1160 G3 X-.1975 Y-.125 I0. J-.3225
N1170 G1 Y-5.875
N1180 G3 X.125 Y-6.1975 I.3225 J0.
N1190 G1 X5.875
N1200 G3 X6.1975 Y-5.875 I0. J.3225
N1210 G1 Y-3.
N1220 G2 X6.31 Y-2.8875 I.1125 J0.
N1230 G1 X6.535
N1240 G0 Z.25
N1250 Y-3.1125
N1260 Z-.096
N1270 G1 Z-.294 F12.1
N1280 X6.31 F100.
N1290 G2 X6.1975 Y-3. I0. J.1125
N1300 G1 Y-.125
N1310 G3 X5.875 Y.1975 I-.3225 J0.
N1320 G1 X.125
N1330 G3 X-.1975 Y-.125 I0. J-.3225
N1340 G1 Y-5.875
N1350 G3 X.125 Y-6.1975 I.3225 J0.
N1360 G1 X5.875
N1370 G3 X6.1975 Y-5.875 I0. J.3225
N1380 G1 Y-3.
N1390 G2 X6.31 Y-2.8875 I.1125 J0.
N1400 G1 X6.535
N1410 G0 Z.25
N1420 Y-3.1125
N1430 Z-.194
N1440 G1 Z-.392 F12.1
N1450 X6.31 F100.
N1460 G2 X6.1975 Y-3. I0. J.1125
N1470 G1 Y-.125
N1480 G3 X5.875 Y.1975 I-.3225 J0.
N1490 G1 X.125
N1500 G3 X-.1975 Y-.125 I0. J-.3225
N1510 G1 Y-5.875
N1520 G3 X.125 Y-6.1975 I.3225 J0.
N1530 G1 X5.875
N1540 G3 X6.1975 Y-5.875 I0. J.3225
N1550 G1 Y-3.
N1560 G2 X6.31 Y-2.8875 I.1125 J0.
N1570 G1 X6.535
N1580 G0 Z.25
N1590 Y-3.1125
N1600 Z-.292
N1610 G1 Z-.49 F12.1
N1620 X6.31 F100.
N1630 G2 X6.1975 Y-3. I0. J.1125
N1640 G1 Y-.125
N1650 G3 X5.875 Y.1975 I-.3225 J0.
N1660 G1 X.125
N1670 G3 X-.1975 Y-.125 I0. J-.3225
N1680 G1 Y-5.875
N1690 G3 X.125 Y-6.1975 I.3225 J0.
N1700 G1 X5.875
N1710 G3 X6.1975 Y-5.875 I0. J.3225
N1720 G1 Y-3.
N1730 G2 X6.31 Y-2.8875 I.1125 J0.
N1740 G1 X6.535
N1750 G0 Z.25
N1760 Y-3.1125
N1770 Z-.39
N1780 G1 Z-.5 F12.1
N1790 X6.31 F100.
N1800 G2 X6.1975 Y-3. I0. J.1125
N1810 G1 Y-.125
N1820 G3 X5.875 Y.1975 I-.3225 J0.
N1830 G1 X.125
N1840 G3 X-.1975 Y-.125 I0. J-.3225
N1850 G1 Y-5.875
N1860 G3 X.125 Y-6.1975 I.3225 J0.
N1870 G1 X5.875
N1880 G3 X6.1975 Y-5.875 I0. J.3225
N1890 G1 Y-3.
N1900 G2 X6.31 Y-2.8875 I.1125 J0.
N1910 G1 X6.535
N1920 G0 Z.25
N1930 X6.525 Y-3.1125
N1940 Z-.39
N1950 G1 Z-.5 F12.1
N1960 X6.3 F100.
N1970 G2 X6.1875 Y-3. I0. J.1125
N1980 G1 Y-.125
N1990 G3 X5.875 Y.1875 I-.3125 J0.
N2000 G1 X.125
N2010 G3 X-.1875 Y-.125 I0. J-.3125
N2020 G1 Y-5.875
N2030 G3 X.125 Y-6.1875 I.3125 J0.
N2040 G1 X5.875
N2050 G3 X6.1875 Y-5.875 I0. J.3125
N2060 G1 Y-3.
N2070 G2 X6.3 Y-2.8875 I.1125 J0.
N2080 G1 X6.525
N2090 G0 Z.25
N2100 M5
N2110 G91 G28 Z0. M9
N2120 G28 X0. Y0.
N2130 M30
%
