%
O0
(BASE_BOTTOM_OP_2_V1)
(DATE=DD-MM-YY - 28-04-23 TIME=HH:MM - 14:33)
(MCAM FILE - C:\USERS\PPAK\DOWNLOADS\BASE (BOTTOM) - OP 2 V3.EMCAM)
(NC FILE - C:\USERS\PPAK\DOCUMENTS\MY MASTERCAM 2020\MASTERCAM\MILL\NC\BASE_BOT)
(MATERIAL - ALUMINUM INCH - 6061)
(T6| 1/8 FLAT ENDMILL|H6|D6|TOOL DIA. - .125)
N100 G20
N110 G0 G17 G40 G49 G80 G90
N120 T6 M6
N130 G187 P3 E.001
N140 G0 G90 G54 X1. Y-3.9289 S2500 M3
N150 G43 H6 Z.25
N160 M8
N170 Z.1
N180 G1 Z-.0619 F4.
N190 G3 X.9914 Y-3.9375 I0. J-.0086 F15.
N200 X1. Y-3.9461 I.0086 J0.
N210 X1.0086 Y-3.9375 I0. J.0086
N220 X1. Y-3.9289 I-.0086 J0.
N230 G1 Y-3.882
N240 G3 X.9445 Y-3.9375 I0. J-.0555
N250 X1. Y-3.993 I.0555 J0.
N260 X1.0555 Y-3.9375 I0. J.0555
N270 X1. Y-3.882 I-.0555 J0.
N280 G0 Z.25
N290 Y-3.9289
N300 Z.0381
N310 G1 Z-.1239 F4.
N320 G3 X.9914 Y-3.9375 I0. J-.0086 F15.
N330 X1. Y-3.9461 I.0086 J0.
N340 X1.0086 Y-3.9375 I0. J.0086
N350 X1. Y-3.9289 I-.0086 J0.
N360 G1 Y-3.882
N370 G3 X.9445 Y-3.9375 I0. J-.0555
N380 X1. Y-3.993 I.0555 J0.
N390 X1.0555 Y-3.9375 I0. J.0555
N400 X1. Y-3.882 I-.0555 J0.
N410 G0 Z.25
N420 Y-3.9289
N430 Z-.0239
N440 G1 Z-.1339 F4.
N450 G3 X.9914 Y-3.9375 I0. J-.0086 F15.
N460 X1. Y-3.9461 I.0086 J0.
N470 X1.0086 Y-3.9375 I0. J.0086
N480 X1. Y-3.9289 I-.0086 J0.
N490 G1 Y-3.882
N500 G3 X.9445 Y-3.9375 I0. J-.0555
N510 X1. Y-3.993 I.0555 J0.
N520 X1.0555 Y-3.9375 I0. J.0555
N530 X1. Y-3.882 I-.0555 J0.
N540 G0 Z.25
N550 X1.0095 Y-3.9
N560 Z-.0239
N570 G1 Z-.1339 F4.
N580 X.972 F15.
N590 G3 X.9345 Y-3.9375 I0. J-.0375
N600 X1. Y-4.003 I.0655 J0.
N610 X1.0655 Y-3.9375 I0. J.0655
N620 X1. Y-3.872 I-.0655 J0.
N630 X.9345 Y-3.9375 I0. J-.0655
N640 X.972 Y-3.975 I.0375 J0.
N650 G1 X1.0095
N660 G0 Z.25
N670 X5. Y-3.9289
N680 Z.1
N690 G1 Z-.0619 F4.
N700 G3 X4.9914 Y-3.9375 I0. J-.0086 F15.
N710 X5. Y-3.9461 I.0086 J0.
N720 X5.0086 Y-3.9375 I0. J.0086
N730 X5. Y-3.9289 I-.0086 J0.
N740 G1 Y-3.882
N750 G3 X4.9445 Y-3.9375 I0. J-.0555
N760 X5. Y-3.993 I.0555 J0.
N770 X5.0555 Y-3.9375 I0. J.0555
N780 X5. Y-3.882 I-.0555 J0.
N790 G0 Z.25
N800 Y-3.9289
N810 Z.0381
N820 G1 Z-.1239 F4.
N830 G3 X4.9914 Y-3.9375 I0. J-.0086 F15.
N840 X5. Y-3.9461 I.0086 J0.
N850 X5.0086 Y-3.9375 I0. J.0086
N860 X5. Y-3.9289 I-.0086 J0.
N870 G1 Y-3.882
N880 G3 X4.9445 Y-3.9375 I0. J-.0555
N890 X5. Y-3.993 I.0555 J0.
N900 X5.0555 Y-3.9375 I0. J.0555
N910 X5. Y-3.882 I-.0555 J0.
N920 G0 Z.25
N930 Y-3.9289
N940 Z-.0239
N950 G1 Z-.1339 F4.
N960 G3 X4.9914 Y-3.9375 I0. J-.0086 F15.
N970 X5. Y-3.9461 I.0086 J0.
N980 X5.0086 Y-3.9375 I0. J.0086
N990 X5. Y-3.9289 I-.0086 J0.
N1000 G1 Y-3.882
N1010 G3 X4.9445 Y-3.9375 I0. J-.0555
N1020 X5. Y-3.993 I.0555 J0.
N1030 X5.0555 Y-3.9375 I0. J.0555
N1040 X5. Y-3.882 I-.0555 J0.
N1050 G0 Z.25
N1060 X5.0095 Y-3.9
N1070 Z-.0239
N1080 G1 Z-.1339 F4.
N1090 X4.972 F15.
N1100 G3 X4.9345 Y-3.9375 I0. J-.0375
N1110 X5. Y-4.003 I.0655 J0.
N1120 X5.0655 Y-3.9375 I0. J.0655
N1130 X5. Y-3.872 I-.0655 J0.
N1140 X4.9345 Y-3.9375 I0. J-.0655
N1150 X4.972 Y-3.975 I.0375 J0.
N1160 G1 X5.0095
N1170 G0 Z.25
N1180 X3. Y-1.7717
N1190 Z.1
N1200 G1 Z-.0619 F4.
N1210 G3 X2.9904 Y-1.7813 I0. J-.0096 F15.
N1220 X3. Y-1.7908 I.0096 J0.
N1230 X3.0095 Y-1.7813 I0. J.0095
N1240 X3. Y-1.7717 I-.0095 J0.
N1250 G1 Y-1.7248
N1260 G3 X2.9435 Y-1.7813 I0. J-.0565
N1270 X3. Y-1.8377 I.0565 J0.
N1280 X3.0564 Y-1.7813 I0. J.0564
N1290 X3. Y-1.7248 I-.0564 J0.
N1300 G0 Z.25
N1310 Y-1.7717
N1320 Z.0381
N1330 G1 Z-.1239 F4.
N1340 G3 X2.9904 Y-1.7813 I0. J-.0096 F15.
N1350 X3. Y-1.7908 I.0096 J0.
N1360 X3.0095 Y-1.7813 I0. J.0095
N1370 X3. Y-1.7717 I-.0095 J0.
N1380 G1 Y-1.7248
N1390 G3 X2.9435 Y-1.7813 I0. J-.0565
N1400 X3. Y-1.8377 I.0565 J0.
N1410 X3.0564 Y-1.7813 I0. J.0564
N1420 X3. Y-1.7248 I-.0564 J0.
N1430 G0 Z.25
N1440 Y-1.7717
N1450 Z-.0239
N1460 G1 Z-.1339 F4.
N1470 G3 X2.9904 Y-1.7813 I0. J-.0096 F15.
N1480 X3. Y-1.7908 I.0096 J0.
N1490 X3.0095 Y-1.7813 I0. J.0095
N1500 X3. Y-1.7717 I-.0095 J0.
N1510 G1 Y-1.7248
N1520 G3 X2.9435 Y-1.7813 I0. J-.0565
N1530 X3. Y-1.8377 I.0565 J0.
N1540 X3.0564 Y-1.7813 I0. J.0564
N1550 X3. Y-1.7248 I-.0564 J0.
N1560 G0 Z.25
N1570 X3.0086 Y-1.7437
N1580 Z-.0239
N1590 G1 Z-.1339 F4.
N1600 X2.9711 F15.
N1610 G3 X2.9336 Y-1.7813 I0. J-.0376
N1620 X3. Y-1.8477 I.0664 J0.
N1630 X3.0664 Y-1.7813 I0. J.0664
N1640 X3. Y-1.7148 I-.0664 J0.
N1650 X2.9336 Y-1.7813 I0. J-.0665
N1660 X2.9711 Y-1.8188 I.0375 J0.
N1670 G1 X3.0086
N1680 G0 Z.25
N1690 G187 P3 E.001
N1700 X.4478 Y-5.5513
N1710 Z.1
N1720 G1 X.4381 Y-5.5398 Z.0992
N1730 X.431 Y-5.5267 Z.0985
N1740 X.4265 Y-5.5124 Z.0977
N1750 X.425 Y-5.4975 Z.0969
N1760 X.4265 Y-5.4829 Z.0961
N1770 X.4307 Y-5.4688 Z.0954
N1780 X.4377 Y-5.4559 Z.0946
N1790 X.447 Y-5.4445 Z.0938
N1800 X.4584 Y-5.4352 Z.093
N1810 X.4713 Y-5.4282 Z.0922
N1820 X.4854 Y-5.424 Z.0915
N1830 X.5 Y-5.4225 Z.0907
N1840 X.5146 Y-5.424 Z.0899
N1850 X.5287 Y-5.4282 Z.0892
N1860 X.5416 Y-5.4352 Z.0884
N1870 X.553 Y-5.4445 Z.0876
N1880 X.5623 Y-5.4559 Z.0868
N1890 X.5693 Y-5.4688 Z.0861
N1900 X.5735 Y-5.4829 Z.0853
N1910 X.575 Y-5.4975 Z.0845
N1920 X.5735 Y-5.5121 Z.0837
N1930 X.5693 Y-5.5262 Z.0829
N1940 X.5623 Y-5.5391 Z.0822
N1950 X.553 Y-5.5505 Z.0814
N1960 X.5416 Y-5.5598 Z.0806
N1970 X.5287 Y-5.5668 Z.0799
N1980 X.5146 Y-5.571 Z.0791
N1990 X.5 Y-5.5725 Z.0783
N2000 X.4857 Y-5.5711 Z.0775
N2010 X.4718 Y-5.567 Z.0768
N2020 X.4591 Y-5.5603 Z.0761
N2030 X.4478 Y-5.5513 Z.0753
N2040 X.4381 Y-5.5398 Z.0745
N2050 X.431 Y-5.5267 Z.0738
N2060 X.4265 Y-5.5124 Z.073
N2070 X.425 Y-5.4975 Z.0722
N2080 X.4265 Y-5.4829 Z.0714
N2090 X.4307 Y-5.4688 Z.0707
N2100 X.4377 Y-5.4559 Z.0699
N2110 X.447 Y-5.4445 Z.0691
N2120 X.4584 Y-5.4352 Z.0683
N2130 X.4713 Y-5.4282 Z.0675
N2140 X.4854 Y-5.424 Z.0668
N2150 X.5 Y-5.4225 Z.066
N2160 X.5146 Y-5.424 Z.0652
N2170 X.5287 Y-5.4282 Z.0645
N2180 X.5416 Y-5.4352 Z.0637
N2190 X.553 Y-5.4445 Z.0629
N2200 X.5623 Y-5.4559 Z.0621
N2210 X.5693 Y-5.4688 Z.0614
N2220 X.5735 Y-5.4829 Z.0606
N2230 X.575 Y-5.4975 Z.0598
N2240 X.5735 Y-5.5121 Z.059
N2250 X.5693 Y-5.5262 Z.0582
N2260 X.5623 Y-5.5391 Z.0575
N2270 X.553 Y-5.5505 Z.0567
N2280 X.5416 Y-5.5598 Z.0559
N2290 X.5287 Y-5.5668 Z.0552
N2300 X.5146 Y-5.571 Z.0544
N2310 X.5 Y-5.5725 Z.0536
N2320 X.4857 Y-5.5711 Z.0529
N2330 X.4718 Y-5.567 Z.0521
N2340 X.4591 Y-5.5603 Z.0513
N2350 X.4478 Y-5.5513 Z.0506
N2360 X.4381 Y-5.5398 Z.0498
N2370 X.431 Y-5.5267 Z.049
N2380 X.4265 Y-5.5124 Z.0483
N2390 X.425 Y-5.4975 Z.0475
N2400 X.4265 Y-5.4829 Z.0467
N2410 X.4307 Y-5.4688 Z.046
N2420 X.4377 Y-5.4559 Z.0452
N2430 X.447 Y-5.4445 Z.0444
N2440 X.4584 Y-5.4352 Z.0436
N2450 X.4713 Y-5.4282 Z.0428
N2460 X.4854 Y-5.424 Z.0421
N2470 X.5 Y-5.4225 Z.0413
N2480 X.5146 Y-5.424 Z.0405
N2490 X.5287 Y-5.4282 Z.0398
N2500 X.5416 Y-5.4352 Z.039
N2510 X.553 Y-5.4445 Z.0382
N2520 X.5623 Y-5.4559 Z.0374
N2530 X.5693 Y-5.4688 Z.0367
N2540 X.5735 Y-5.4829 Z.0359
N2550 X.575 Y-5.4975 Z.0351
N2560 X.5735 Y-5.5121 Z.0343
N2570 X.5693 Y-5.5262 Z.0335
N2580 X.5623 Y-5.5391 Z.0328
N2590 X.553 Y-5.5505 Z.032
N2600 X.5416 Y-5.5598 Z.0312
N2610 X.5287 Y-5.5668 Z.0304
N2620 X.5146 Y-5.571 Z.0297
N2630 X.5 Y-5.5725 Z.0289
N2640 X.4857 Y-5.5711 Z.0281
N2650 X.4718 Y-5.567 Z.0274
N2660 X.4591 Y-5.5603 Z.0267
N2670 X.4478 Y-5.5513 Z.0259
N2680 X.4381 Y-5.5398 Z.0251
N2690 X.431 Y-5.5267 Z.0244
N2700 X.4265 Y-5.5124 Z.0236
N2710 X.425 Y-5.4975 Z.0228
N2720 X.4265 Y-5.4829 Z.022
N2730 X.4307 Y-5.4688 Z.0213
N2740 X.4377 Y-5.4559 Z.0205
N2750 X.447 Y-5.4445 Z.0197
N2760 X.4584 Y-5.4352 Z.0189
N2770 X.4713 Y-5.4282 Z.0181
N2780 X.4854 Y-5.424 Z.0174
N2790 X.5 Y-5.4225 Z.0166
N2800 X.5146 Y-5.424 Z.0158
N2810 X.5287 Y-5.4282 Z.0151
N2820 X.5416 Y-5.4352 Z.0143
N2830 X.553 Y-5.4445 Z.0135
N2840 X.5623 Y-5.4559 Z.0127
N2850 X.5693 Y-5.4688 Z.0119
N2860 X.5735 Y-5.4829 Z.0112
N2870 X.575 Y-5.4975 Z.0104
N2880 X.5735 Y-5.5121 Z.0096
N2890 X.5693 Y-5.5262 Z.0089
N2900 X.5623 Y-5.5391 Z.0081
N2910 X.553 Y-5.5505 Z.0073
N2920 X.5416 Y-5.5598 Z.0065
N2930 X.5287 Y-5.5668 Z.0057
N2940 X.5146 Y-5.571 Z.005
N2950 X.5 Y-5.5725 Z.0042
N2960 X.4857 Y-5.5711 Z.0034
N2970 X.4718 Y-5.567 Z.0027
N2980 X.4591 Y-5.5603 Z.0019
N2990 X.4478 Y-5.5513 Z.0012
N3000 X.4381 Y-5.5398 Z.0004
N3010 X.431 Y-5.5267 Z-.0004
N3020 X.4265 Y-5.5124 Z-.0011
N3030 X.425 Y-5.4975 Z-.0019
N3040 X.4265 Y-5.4829 Z-.0027
N3050 X.4307 Y-5.4688 Z-.0034
N3060 X.4377 Y-5.4559 Z-.0042
N3070 X.447 Y-5.4445 Z-.005
N3080 X.4584 Y-5.4352 Z-.0058
N3090 X.4713 Y-5.4282 Z-.0065
N3100 X.4854 Y-5.424 Z-.0073
N3110 X.5 Y-5.4225 Z-.0081
N3120 X.5146 Y-5.424 Z-.0089
N3130 X.5287 Y-5.4282 Z-.0096
N3140 X.5416 Y-5.4352 Z-.0104
N3150 X.553 Y-5.4445 Z-.0112
N3160 X.5623 Y-5.4559 Z-.012
N3170 X.5693 Y-5.4688 Z-.0128
N3180 X.5735 Y-5.4829 Z-.0135
N3190 X.575 Y-5.4975 Z-.0143
N3200 X.5735 Y-5.5121 Z-.0151
N3210 X.5693 Y-5.5262 Z-.0158
N3220 X.5623 Y-5.5391 Z-.0166
N3230 X.553 Y-5.5505 Z-.0174
N3240 X.5416 Y-5.5598 Z-.0182
N3250 X.5287 Y-5.5668 Z-.019
N3260 X.5146 Y-5.571 Z-.0197
N3270 X.5 Y-5.5725 Z-.0205
N3280 X.4857 Y-5.5711 Z-.0213
N3290 X.4718 Y-5.567 Z-.022
N3300 X.4591 Y-5.5603 Z-.0227
N3310 X.4478 Y-5.5513 Z-.0235
N3320 X.4381 Y-5.5398 Z-.0243
N3330 X.431 Y-5.5267 Z-.025
N3340 X.4265 Y-5.5124 Z-.0258
N3350 X.425 Y-5.4975 Z-.0266
N3360 X.4265 Y-5.4829 Z-.0274
N3370 X.4307 Y-5.4688 Z-.0282
N3380 X.4377 Y-5.4559 Z-.0289
N3390 X.447 Y-5.4445 Z-.0297
N3400 X.4584 Y-5.4352 Z-.0305
N3410 X.4713 Y-5.4282 Z-.0313
N3420 X.4854 Y-5.424 Z-.032
N3430 X.5 Y-5.4225 Z-.0328
N3440 X.5146 Y-5.424 Z-.0336
N3450 X.5287 Y-5.4282 Z-.0344
N3460 X.5416 Y-5.4352 Z-.0351
N3470 X.553 Y-5.4445 Z-.0359
N3480 X.5623 Y-5.4559 Z-.0367
N3490 X.5693 Y-5.4688 Z-.0374
N3500 X.5735 Y-5.4829 Z-.0382
N3510 X.575 Y-5.4975 Z-.039
N3520 X.5735 Y-5.5121 Z-.0398
N3530 X.5693 Y-5.5262 Z-.0406
N3540 X.5623 Y-5.5391 Z-.0413
N3550 X.553 Y-5.5505 Z-.0421
N3560 X.5416 Y-5.5598 Z-.0429
N3570 X.5287 Y-5.5668 Z-.0436
N3580 X.5146 Y-5.571 Z-.0444
N3590 X.5 Y-5.5725 Z-.0452
N3600 X.4857 Y-5.5711 Z-.0459
N3610 X.4718 Y-5.567 Z-.0467
N3620 X.4591 Y-5.5603 Z-.0474
N3630 X.4478 Y-5.5513 Z-.0482
N3640 X.4381 Y-5.5398 Z-.049
N3650 X.431 Y-5.5267 Z-.0498
N3660 X.4265 Y-5.5124 Z-.0505
N3670 X.425 Y-5.4975 Z-.0513
N3680 X.4265 Y-5.4829 Z-.0521
N3690 X.4307 Y-5.4688 Z-.0529
N3700 X.4377 Y-5.4559 Z-.0536
N3710 X.447 Y-5.4445 Z-.0544
N3720 X.4584 Y-5.4352 Z-.0552
N3730 X.4713 Y-5.4282 Z-.0559
N3740 X.4854 Y-5.424 Z-.0567
N3750 X.5 Y-5.4225 Z-.0575
N3760 Y-5.4631
N3770 G3 X.4631 Y-5.5 I0. J-.0369
N3780 X.5 Y-5.5369 I.0369 J0.
N3790 X.5369 Y-5.5 I0. J.0369
N3800 X.5 Y-5.4631 I-.0369 J0.
N3810 G1 Y-5.4162
N3820 G3 X.4162 Y-5.5 I0. J-.0838
N3830 X.5 Y-5.5838 I.0838 J0.
N3840 X.5838 Y-5.5 I0. J.0838
N3850 X.5 Y-5.4162 I-.0838 J0.
N3860 G1 Y-5.3225
N3870 G3 X.3225 Y-5.5 I0. J-.1775
N3880 X.5 Y-5.6775 I.1775 J0.
N3890 X.6775 Y-5.5 I0. J.1775
N3900 X.5 Y-5.3225 I-.1775 J0.
N3910 G0 Z.25
N3920 X.4478 Y-5.5513
N3930 Z.0425
N3940 G1 X.4381 Y-5.5398 Z.0417
N3950 X.431 Y-5.5267 Z.041
N3960 X.4265 Y-5.5124 Z.0402
N3970 X.425 Y-5.4975 Z.0394
N3980 X.4265 Y-5.4829 Z.0386
N3990 X.4307 Y-5.4688 Z.0378
N4000 X.4377 Y-5.4559 Z.0371
N4010 X.447 Y-5.4445 Z.0363
N4020 X.4584 Y-5.4352 Z.0355
N4030 X.4713 Y-5.4282 Z.0348
N4040 X.4854 Y-5.424 Z.034
N4050 X.5 Y-5.4225 Z.0332
N4060 X.5146 Y-5.424 Z.0324
N4070 X.5287 Y-5.4282 Z.0316
N4080 X.5416 Y-5.4352 Z.0309
N4090 X.553 Y-5.4445 Z.0301
N4100 X.5623 Y-5.4559 Z.0293
N4110 X.5693 Y-5.4688 Z.0285
N4120 X.5735 Y-5.4829 Z.0278
N4130 X.575 Y-5.4975 Z.027
N4140 X.5735 Y-5.5121 Z.0262
N4150 X.5693 Y-5.5262 Z.0255
N4160 X.5623 Y-5.5391 Z.0247
N4170 X.553 Y-5.5505 Z.0239
N4180 X.5416 Y-5.5598 Z.0231
N4190 X.5287 Y-5.5668 Z.0223
N4200 X.5146 Y-5.571 Z.0216
N4210 X.5 Y-5.5725 Z.0208
N4220 X.4857 Y-5.5711 Z.02
N4230 X.4718 Y-5.567 Z.0193
N4240 X.4591 Y-5.5603 Z.0186
N4250 X.4478 Y-5.5513 Z.0178
N4260 X.4381 Y-5.5398 Z.017
N4270 X.431 Y-5.5267 Z.0163
N4280 X.4265 Y-5.5124 Z.0155
N4290 X.425 Y-5.4975 Z.0147
N4300 X.4265 Y-5.4829 Z.0139
N4310 X.4307 Y-5.4688 Z.0132
N4320 X.4377 Y-5.4559 Z.0124
N4330 X.447 Y-5.4445 Z.0116
N4340 X.4584 Y-5.4352 Z.0108
N4350 X.4713 Y-5.4282 Z.01
N4360 X.4854 Y-5.424 Z.0093
N4370 X.5 Y-5.4225 Z.0085
N4380 X.5146 Y-5.424 Z.0077
N4390 X.5287 Y-5.4282 Z.007
N4400 X.5416 Y-5.4352 Z.0062
N4410 X.553 Y-5.4445 Z.0054
N4420 X.5623 Y-5.4559 Z.0046
N4430 X.5693 Y-5.4688 Z.0039
N4440 X.5735 Y-5.4829 Z.0031
N4450 X.575 Y-5.4975 Z.0023
N4460 X.5735 Y-5.5121 Z.0015
N4470 X.5693 Y-5.5262 Z.0008
N4480 X.5623 Y-5.5391 Z0.
N4490 X.553 Y-5.5505 Z-.0008
N4500 X.5416 Y-5.5598 Z-.0016
N4510 X.5287 Y-5.5668 Z-.0023
N4520 X.5146 Y-5.571 Z-.0031
N4530 X.5 Y-5.5725 Z-.0039
N4540 X.4857 Y-5.5711 Z-.0046
N4550 X.4718 Y-5.567 Z-.0054
N4560 X.4591 Y-5.5603 Z-.0062
N4570 X.4478 Y-5.5513 Z-.0069
N4580 X.4381 Y-5.5398 Z-.0077
N4590 X.431 Y-5.5267 Z-.0084
N4600 X.4265 Y-5.5124 Z-.0092
N4610 X.425 Y-5.4975 Z-.01
N4620 X.4265 Y-5.4829 Z-.0108
N4630 X.4307 Y-5.4688 Z-.0115
N4640 X.4377 Y-5.4559 Z-.0123
N4650 X.447 Y-5.4445 Z-.0131
N4660 X.4584 Y-5.4352 Z-.0139
N4670 X.4713 Y-5.4282 Z-.0146
N4680 X.4854 Y-5.424 Z-.0154
N4690 X.5 Y-5.4225 Z-.0162
N4700 X.5146 Y-5.424 Z-.017
N4710 X.5287 Y-5.4282 Z-.0177
N4720 X.5416 Y-5.4352 Z-.0185
N4730 X.553 Y-5.4445 Z-.0193
N4740 X.5623 Y-5.4559 Z-.0201
N4750 X.5693 Y-5.4688 Z-.0209
N4760 X.5735 Y-5.4829 Z-.0216
N4770 X.575 Y-5.4975 Z-.0224
N4780 X.5735 Y-5.5121 Z-.0232
N4790 X.5693 Y-5.5262 Z-.0239
N4800 X.5623 Y-5.5391 Z-.0247
N4810 X.553 Y-5.5505 Z-.0255
N4820 X.5416 Y-5.5598 Z-.0263
N4830 X.5287 Y-5.5668 Z-.0271
N4840 X.5146 Y-5.571 Z-.0278
N4850 X.5 Y-5.5725 Z-.0286
N4860 X.4857 Y-5.5711 Z-.0294
N4870 X.4718 Y-5.567 Z-.0301
N4880 X.4591 Y-5.5603 Z-.0309
N4890 X.4478 Y-5.5513 Z-.0316
N4900 X.4381 Y-5.5398 Z-.0324
N4910 X.431 Y-5.5267 Z-.0331
N4920 X.4265 Y-5.5124 Z-.0339
N4930 X.425 Y-5.4975 Z-.0347
N4940 X.4265 Y-5.4829 Z-.0355
N4950 X.4307 Y-5.4688 Z-.0363
N4960 X.4377 Y-5.4559 Z-.037
N4970 X.447 Y-5.4445 Z-.0378
N4980 X.4584 Y-5.4352 Z-.0386
N4990 X.4713 Y-5.4282 Z-.0393
N5000 X.4854 Y-5.424 Z-.0401
N5010 X.5 Y-5.4225 Z-.0409
N5020 X.5146 Y-5.424 Z-.0417
N5030 X.5287 Y-5.4282 Z-.0425
N5040 X.5416 Y-5.4352 Z-.0432
N5050 X.553 Y-5.4445 Z-.044
N5060 X.5623 Y-5.4559 Z-.0448
N5070 X.5693 Y-5.4688 Z-.0456
N5080 X.5735 Y-5.4829 Z-.0463
N5090 X.575 Y-5.4975 Z-.0471
N5100 X.5735 Y-5.5121 Z-.0479
N5110 X.5693 Y-5.5262 Z-.0486
N5120 X.5623 Y-5.5391 Z-.0494
N5130 X.553 Y-5.5505 Z-.0502
N5140 X.5416 Y-5.5598 Z-.051
N5150 X.5287 Y-5.5668 Z-.0518
N5160 X.5146 Y-5.571 Z-.0525
N5170 X.5 Y-5.5725 Z-.0533
N5180 X.4857 Y-5.5711 Z-.0541
N5190 X.4718 Y-5.567 Z-.0548
N5200 X.4591 Y-5.5603 Z-.0556
N5210 X.4478 Y-5.5513 Z-.0563
N5220 X.4381 Y-5.5398 Z-.0571
N5230 X.431 Y-5.5267 Z-.0578
N5240 X.4265 Y-5.5124 Z-.0586
N5250 X.425 Y-5.4975 Z-.0594
N5260 X.4265 Y-5.4829 Z-.0602
N5270 X.4307 Y-5.4688 Z-.061
N5280 X.4377 Y-5.4559 Z-.0617
N5290 X.447 Y-5.4445 Z-.0625
N5300 X.4584 Y-5.4352 Z-.0633
N5310 X.4713 Y-5.4282 Z-.0641
N5320 X.4854 Y-5.424 Z-.0648
N5330 X.5 Y-5.4225 Z-.0656
N5340 X.5146 Y-5.424 Z-.0664
N5350 X.5287 Y-5.4282 Z-.0672
N5360 X.5416 Y-5.4352 Z-.0679
N5370 X.553 Y-5.4445 Z-.0687
N5380 X.5623 Y-5.4559 Z-.0695
N5390 X.5693 Y-5.4688 Z-.0703
N5400 X.5735 Y-5.4829 Z-.071
N5410 X.575 Y-5.4975 Z-.0718
N5420 X.5735 Y-5.5121 Z-.0726
N5430 X.5693 Y-5.5262 Z-.0733
N5440 X.5623 Y-5.5391 Z-.0741
N5450 X.553 Y-5.5505 Z-.0749
N5460 X.5416 Y-5.5598 Z-.0757
N5470 X.5287 Y-5.5668 Z-.0765
N5480 X.5146 Y-5.571 Z-.0772
N5490 X.5 Y-5.5725 Z-.078
N5500 X.4857 Y-5.5711 Z-.0788
N5510 X.4718 Y-5.567 Z-.0795
N5520 X.4591 Y-5.5603 Z-.0803
N5530 X.4478 Y-5.5513 Z-.081
N5540 X.4381 Y-5.5398 Z-.0818
N5550 X.431 Y-5.5267 Z-.0825
N5560 X.4265 Y-5.5124 Z-.0833
N5570 X.425 Y-5.4975 Z-.0841
N5580 X.4265 Y-5.4829 Z-.0849
N5590 X.4307 Y-5.4688 Z-.0857
N5600 X.4377 Y-5.4559 Z-.0864
N5610 X.447 Y-5.4445 Z-.0872
N5620 X.4584 Y-5.4352 Z-.088
N5630 X.4713 Y-5.4282 Z-.0887
N5640 X.4854 Y-5.424 Z-.0895
N5650 X.5 Y-5.4225 Z-.0903
N5660 X.5146 Y-5.424 Z-.0911
N5670 X.5287 Y-5.4282 Z-.0919
N5680 X.5416 Y-5.4352 Z-.0926
N5690 X.553 Y-5.4445 Z-.0934
N5700 X.5623 Y-5.4559 Z-.0942
N5710 X.5693 Y-5.4688 Z-.095
N5720 X.5735 Y-5.4829 Z-.0957
N5730 X.575 Y-5.4975 Z-.0965
N5740 X.5735 Y-5.5121 Z-.0973
N5750 X.5693 Y-5.5262 Z-.098
N5760 X.5623 Y-5.5391 Z-.0988
N5770 X.553 Y-5.5505 Z-.0996
N5780 X.5416 Y-5.5598 Z-.1004
N5790 X.5287 Y-5.5668 Z-.1012
N5800 X.5146 Y-5.571 Z-.1019
N5810 X.5 Y-5.5725 Z-.1027
N5820 X.4857 Y-5.5711 Z-.1035
N5830 X.4718 Y-5.567 Z-.1042
N5840 X.4591 Y-5.5603 Z-.105
N5850 X.4478 Y-5.5513 Z-.1057
N5860 X.4381 Y-5.5398 Z-.1065
N5870 X.431 Y-5.5267 Z-.1072
N5880 X.4265 Y-5.5124 Z-.108
N5890 X.425 Y-5.4975 Z-.1088
N5900 X.4265 Y-5.4829 Z-.1096
N5910 X.4307 Y-5.4688 Z-.1104
N5920 X.4377 Y-5.4559 Z-.1111
N5930 X.447 Y-5.4445 Z-.1119
N5940 X.4584 Y-5.4352 Z-.1127
N5950 X.4713 Y-5.4282 Z-.1134
N5960 X.4854 Y-5.424 Z-.1142
N5970 X.5 Y-5.4225 Z-.115
N5980 Y-5.4631
N5990 G3 X.4631 Y-5.5 I0. J-.0369
N6000 X.5 Y-5.5369 I.0369 J0.
N6010 X.5369 Y-5.5 I0. J.0369
N6020 X.5 Y-5.4631 I-.0369 J0.
N6030 G1 Y-5.4162
N6040 G3 X.4162 Y-5.5 I0. J-.0838
N6050 X.5 Y-5.5838 I.0838 J0.
N6060 X.5838 Y-5.5 I0. J.0838
N6070 X.5 Y-5.4162 I-.0838 J0.
N6080 G1 Y-5.3225
N6090 G3 X.3225 Y-5.5 I0. J-.1775
N6100 X.5 Y-5.6775 I.1775 J0.
N6110 X.6775 Y-5.5 I0. J.1775
N6120 X.5 Y-5.3225 I-.1775 J0.
N6130 G0 Z.25
N6140 X.4478 Y-5.5513
N6150 Z.0325
N6160 G1 X.4381 Y-5.5398 Z.0317
N6170 X.431 Y-5.5267 Z.0309
N6180 X.4265 Y-5.5124 Z.0302
N6190 X.425 Y-5.4975 Z.0294
N6200 X.4265 Y-5.4829 Z.0286
N6210 X.4307 Y-5.4688 Z.0278
N6220 X.4377 Y-5.4559 Z.0271
N6230 X.447 Y-5.4445 Z.0263
N6240 X.4584 Y-5.4352 Z.0255
N6250 X.4713 Y-5.4282 Z.0247
N6260 X.4854 Y-5.424 Z.024
N6270 X.5 Y-5.4225 Z.0232
N6280 X.5146 Y-5.424 Z.0224
N6290 X.5287 Y-5.4282 Z.0216
N6300 X.5416 Y-5.4352 Z.0209
N6310 X.553 Y-5.4445 Z.0201
N6320 X.5623 Y-5.4559 Z.0193
N6330 X.5693 Y-5.4688 Z.0186
N6340 X.5735 Y-5.4829 Z.0178
N6350 X.575 Y-5.4975 Z.017
N6360 X.5735 Y-5.5121 Z.0162
N6370 X.5693 Y-5.5262 Z.0155
N6380 X.5623 Y-5.5391 Z.0147
N6390 X.553 Y-5.5505 Z.0139
N6400 X.5416 Y-5.5598 Z.0131
N6410 X.5287 Y-5.5668 Z.0123
N6420 X.5146 Y-5.571 Z.0116
N6430 X.5 Y-5.5725 Z.0108
N6440 X.4857 Y-5.5711 Z.01
N6450 X.4718 Y-5.567 Z.0093
N6460 X.4591 Y-5.5603 Z.0086
N6470 X.4478 Y-5.5513 Z.0078
N6480 X.4381 Y-5.5398 Z.007
N6490 X.431 Y-5.5267 Z.0063
N6500 X.4265 Y-5.5124 Z.0055
N6510 X.425 Y-5.4975 Z.0047
N6520 X.4265 Y-5.4829 Z.0039
N6530 X.4307 Y-5.4688 Z.0032
N6540 X.4377 Y-5.4559 Z.0024
N6550 X.447 Y-5.4445 Z.0016
N6560 X.4584 Y-5.4352 Z.0008
N6570 X.4713 Y-5.4282 Z0.
N6580 X.4854 Y-5.424 Z-.0007
N6590 X.5 Y-5.4225 Z-.0015
N6600 X.5146 Y-5.424 Z-.0023
N6610 X.5287 Y-5.4282 Z-.0031
N6620 X.5416 Y-5.4352 Z-.0038
N6630 X.553 Y-5.4445 Z-.0046
N6640 X.5623 Y-5.4559 Z-.0054
N6650 X.5693 Y-5.4688 Z-.0062
N6660 X.5735 Y-5.4829 Z-.0069
N6670 X.575 Y-5.4975 Z-.0077
N6680 X.5735 Y-5.5121 Z-.0085
N6690 X.5693 Y-5.5262 Z-.0092
N6700 X.5623 Y-5.5391 Z-.01
N6710 X.553 Y-5.5505 Z-.0108
N6720 X.5416 Y-5.5598 Z-.0116
N6730 X.5287 Y-5.5668 Z-.0123
N6740 X.5146 Y-5.571 Z-.0131
N6750 X.5 Y-5.5725 Z-.0139
N6760 X.4857 Y-5.5711 Z-.0146
N6770 X.4718 Y-5.567 Z-.0154
N6780 X.4591 Y-5.5603 Z-.0161
N6790 X.4478 Y-5.5513 Z-.0169
N6800 X.4381 Y-5.5398 Z-.0177
N6810 X.431 Y-5.5267 Z-.0185
N6820 X.4265 Y-5.5124 Z-.0192
N6830 X.425 Y-5.4975 Z-.02
N6840 X.4265 Y-5.4829 Z-.0208
N6850 X.4307 Y-5.4688 Z-.0215
N6860 X.4377 Y-5.4559 Z-.0223
N6870 X.447 Y-5.4445 Z-.0231
N6880 X.4584 Y-5.4352 Z-.0239
N6890 X.4713 Y-5.4282 Z-.0247
N6900 X.4854 Y-5.424 Z-.0254
N6910 X.5 Y-5.4225 Z-.0262
N6920 X.5146 Y-5.424 Z-.027
N6930 X.5287 Y-5.4282 Z-.0278
N6940 X.5416 Y-5.4352 Z-.0285
N6950 X.553 Y-5.4445 Z-.0293
N6960 X.5623 Y-5.4559 Z-.0301
N6970 X.5693 Y-5.4688 Z-.0308
N6980 X.5735 Y-5.4829 Z-.0316
N6990 X.575 Y-5.4975 Z-.0324
N7000 X.5735 Y-5.5121 Z-.0332
N7010 X.5693 Y-5.5262 Z-.034
N7020 X.5623 Y-5.5391 Z-.0347
N7030 X.553 Y-5.5505 Z-.0355
N7040 X.5416 Y-5.5598 Z-.0363
N7050 X.5287 Y-5.5668 Z-.037
N7060 X.5146 Y-5.571 Z-.0378
N7070 X.5 Y-5.5725 Z-.0386
N7080 X.4857 Y-5.5711 Z-.0394
N7090 X.4718 Y-5.567 Z-.0401
N7100 X.4591 Y-5.5603 Z-.0408
N7110 X.4478 Y-5.5513 Z-.0416
N7120 X.4381 Y-5.5398 Z-.0424
N7130 X.431 Y-5.5267 Z-.0431
N7140 X.4265 Y-5.5124 Z-.0439
N7150 X.425 Y-5.4975 Z-.0447
N7160 X.4265 Y-5.4829 Z-.0455
N7170 X.4307 Y-5.4688 Z-.0462
N7180 X.4377 Y-5.4559 Z-.047
N7190 X.447 Y-5.4445 Z-.0478
N7200 X.4584 Y-5.4352 Z-.0486
N7210 X.4713 Y-5.4282 Z-.0493
N7220 X.4854 Y-5.424 Z-.0501
N7230 X.5 Y-5.4225 Z-.0509
N7240 X.5146 Y-5.424 Z-.0517
N7250 X.5287 Y-5.4282 Z-.0524
N7260 X.5416 Y-5.4352 Z-.0532
N7270 X.553 Y-5.4445 Z-.054
N7280 X.5623 Y-5.4559 Z-.0548
N7290 X.5693 Y-5.4688 Z-.0556
N7300 X.5735 Y-5.4829 Z-.0563
N7310 X.575 Y-5.4975 Z-.0571
N7320 X.5735 Y-5.5121 Z-.0579
N7330 X.5693 Y-5.5262 Z-.0586
N7340 X.5623 Y-5.5391 Z-.0594
N7350 X.553 Y-5.5505 Z-.0602
N7360 X.5416 Y-5.5598 Z-.061
N7370 X.5287 Y-5.5668 Z-.0617
N7380 X.5146 Y-5.571 Z-.0625
N7390 X.5 Y-5.5725 Z-.0633
N7400 X.4857 Y-5.5711 Z-.064
N7410 X.4718 Y-5.567 Z-.0648
N7420 X.4591 Y-5.5603 Z-.0655
N7430 X.4478 Y-5.5513 Z-.0663
N7440 X.4381 Y-5.5398 Z-.0671
N7450 X.431 Y-5.5267 Z-.0678
N7460 X.4265 Y-5.5124 Z-.0686
N7470 X.425 Y-5.4975 Z-.0694
N7480 X.4265 Y-5.4829 Z-.0702
N7490 X.4307 Y-5.4688 Z-.0709
N7500 X.4377 Y-5.4559 Z-.0717
N7510 X.447 Y-5.4445 Z-.0725
N7520 X.4584 Y-5.4352 Z-.0733
N7530 X.4713 Y-5.4282 Z-.0741
N7540 X.4854 Y-5.424 Z-.0748
N7550 X.5 Y-5.4225 Z-.0756
N7560 X.5146 Y-5.424 Z-.0764
N7570 X.5287 Y-5.4282 Z-.0771
N7580 X.5416 Y-5.4352 Z-.0779
N7590 X.553 Y-5.4445 Z-.0787
N7600 X.5623 Y-5.4559 Z-.0795
N7610 X.5693 Y-5.4688 Z-.0803
N7620 X.5735 Y-5.4829 Z-.081
N7630 X.575 Y-5.4975 Z-.0818
N7640 X.5735 Y-5.5121 Z-.0826
N7650 X.5693 Y-5.5262 Z-.0833
N7660 X.5623 Y-5.5391 Z-.0841
N7670 X.553 Y-5.5505 Z-.0849
N7680 X.5416 Y-5.5598 Z-.0857
N7690 X.5287 Y-5.5668 Z-.0864
N7700 X.5146 Y-5.571 Z-.0872
N7710 X.5 Y-5.5725 Z-.088
N7720 X.4857 Y-5.5711 Z-.0887
N7730 X.4718 Y-5.567 Z-.0895
N7740 X.4591 Y-5.5603 Z-.0902
N7750 X.4478 Y-5.5513 Z-.091
N7760 X.4381 Y-5.5398 Z-.0918
N7770 X.431 Y-5.5267 Z-.0925
N7780 X.4265 Y-5.5124 Z-.0933
N7790 X.425 Y-5.4975 Z-.0941
N7800 X.4265 Y-5.4829 Z-.0949
N7810 X.4307 Y-5.4688 Z-.0956
N7820 X.4377 Y-5.4559 Z-.0964
N7830 X.447 Y-5.4445 Z-.0972
N7840 X.4584 Y-5.4352 Z-.098
N7850 X.4713 Y-5.4282 Z-.0988
N7860 X.4854 Y-5.424 Z-.0995
N7870 X.5 Y-5.4225 Z-.1003
N7880 X.5146 Y-5.424 Z-.1011
N7890 X.5287 Y-5.4282 Z-.1018
N7900 X.5416 Y-5.4352 Z-.1026
N7910 X.553 Y-5.4445 Z-.1034
N7920 X.5623 Y-5.4559 Z-.1042
N7930 X.5693 Y-5.4688 Z-.105
N7940 X.5735 Y-5.4829 Z-.1057
N7950 X.575 Y-5.4975 Z-.1065
N7960 X.5735 Y-5.5121 Z-.1073
N7970 X.5693 Y-5.5262 Z-.108
N7980 X.5623 Y-5.5391 Z-.1088
N7990 X.553 Y-5.5505 Z-.1096
N8000 X.5416 Y-5.5598 Z-.1104
N8010 X.5287 Y-5.5668 Z-.1111
N8020 X.5146 Y-5.571 Z-.1119
N8030 X.5 Y-5.5725 Z-.1127
N8040 X.4857 Y-5.5711 Z-.1134
N8050 X.4718 Y-5.567 Z-.1142
N8060 X.4591 Y-5.5603 Z-.1149
N8070 X.4478 Y-5.5513 Z-.1157
N8080 X.4381 Y-5.5398 Z-.1165
N8090 X.431 Y-5.5267 Z-.1172
N8100 X.4265 Y-5.5124 Z-.118
N8110 X.425 Y-5.4975 Z-.1188
N8120 X.4265 Y-5.4829 Z-.1196
N8130 X.4307 Y-5.4688 Z-.1203
N8140 X.4377 Y-5.4559 Z-.1211
N8150 X.447 Y-5.4445 Z-.1219
N8160 X.4584 Y-5.4352 Z-.1227
N8170 X.4713 Y-5.4282 Z-.1235
N8180 X.4854 Y-5.424 Z-.1242
N8190 X.5 Y-5.4225 Z-.125
N8200 Y-5.4631
N8210 G3 X.4631 Y-5.5 I0. J-.0369
N8220 X.5 Y-5.5369 I.0369 J0.
N8230 X.5369 Y-5.5 I0. J.0369
N8240 X.5 Y-5.4631 I-.0369 J0.
N8250 G1 Y-5.4162
N8260 G3 X.4162 Y-5.5 I0. J-.0838
N8270 X.5 Y-5.5838 I.0838 J0.
N8280 X.5838 Y-5.5 I0. J.0838
N8290 X.5 Y-5.4162 I-.0838 J0.
N8300 G1 Y-5.3225
N8310 G3 X.3225 Y-5.5 I0. J-.1775
N8320 X.5 Y-5.6775 I.1775 J0.
N8330 X.6775 Y-5.5 I0. J.1775
N8340 X.5 Y-5.3225 I-.1775 J0.
N8350 G0 Z.25
N8360 X.3875 Y-5.4625
N8370 Z-.015
N8380 G1 Z-.125 F4.
N8390 X.35 F15.
N8400 G3 X.3125 Y-5.5 I0. J-.0375
N8410 X.5 Y-5.6875 I.1875 J0.
N8420 X.6875 Y-5.5 I0. J.1875
N8430 X.5 Y-5.3125 I-.1875 J0.
N8440 X.3125 Y-5.5 I0. J-.1875
N8450 X.35 Y-5.5375 I.0375 J0.
N8460 G1 X.3875
N8470 G0 Z.25
N8480 X5.4478 Y-5.5513
N8490 Z.1
N8500 G1 X5.4381 Y-5.5398 Z.0992
N8510 X5.431 Y-5.5267 Z.0985
N8520 X5.4265 Y-5.5124 Z.0977
N8530 X5.425 Y-5.4975 Z.0969
N8540 X5.4265 Y-5.4829 Z.0961
N8550 X5.4307 Y-5.4688 Z.0954
N8560 X5.4377 Y-5.4559 Z.0946
N8570 X5.447 Y-5.4445 Z.0938
N8580 X5.4584 Y-5.4352 Z.093
N8590 X5.4713 Y-5.4282 Z.0922
N8600 X5.4854 Y-5.424 Z.0915
N8610 X5.5 Y-5.4225 Z.0907
N8620 X5.5146 Y-5.424 Z.0899
N8630 X5.5287 Y-5.4282 Z.0892
N8640 X5.5416 Y-5.4352 Z.0884
N8650 X5.553 Y-5.4445 Z.0876
N8660 X5.5623 Y-5.4559 Z.0868
N8670 X5.5693 Y-5.4688 Z.0861
N8680 X5.5735 Y-5.4829 Z.0853
N8690 X5.575 Y-5.4975 Z.0845
N8700 X5.5735 Y-5.5121 Z.0837
N8710 X5.5693 Y-5.5262 Z.0829
N8720 X5.5623 Y-5.5391 Z.0822
N8730 X5.553 Y-5.5505 Z.0814
N8740 X5.5416 Y-5.5598 Z.0806
N8750 X5.5287 Y-5.5668 Z.0799
N8760 X5.5146 Y-5.571 Z.0791
N8770 X5.5 Y-5.5725 Z.0783
N8780 X5.4857 Y-5.5711 Z.0775
N8790 X5.4718 Y-5.567 Z.0768
N8800 X5.4591 Y-5.5603 Z.0761
N8810 X5.4478 Y-5.5513 Z.0753
N8820 X5.4381 Y-5.5398 Z.0745
N8830 X5.431 Y-5.5267 Z.0738
N8840 X5.4265 Y-5.5124 Z.073
N8850 X5.425 Y-5.4975 Z.0722
N8860 X5.4265 Y-5.4829 Z.0714
N8870 X5.4307 Y-5.4688 Z.0707
N8880 X5.4377 Y-5.4559 Z.0699
N8890 X5.447 Y-5.4445 Z.0691
N8900 X5.4584 Y-5.4352 Z.0683
N8910 X5.4713 Y-5.4282 Z.0675
N8920 X5.4854 Y-5.424 Z.0668
N8930 X5.5 Y-5.4225 Z.066
N8940 X5.5146 Y-5.424 Z.0652
N8950 X5.5287 Y-5.4282 Z.0645
N8960 X5.5416 Y-5.4352 Z.0637
N8970 X5.553 Y-5.4445 Z.0629
N8980 X5.5623 Y-5.4559 Z.0621
N8990 X5.5693 Y-5.4688 Z.0614
N9000 X5.5735 Y-5.4829 Z.0606
N9010 X5.575 Y-5.4975 Z.0598
N9020 X5.5735 Y-5.5121 Z.059
N9030 X5.5693 Y-5.5262 Z.0582
N9040 X5.5623 Y-5.5391 Z.0575
N9050 X5.553 Y-5.5505 Z.0567
N9060 X5.5416 Y-5.5598 Z.0559
N9070 X5.5287 Y-5.5668 Z.0552
N9080 X5.5146 Y-5.571 Z.0544
N9090 X5.5 Y-5.5725 Z.0536
N9100 X5.4857 Y-5.5711 Z.0529
N9110 X5.4718 Y-5.567 Z.0521
N9120 X5.4591 Y-5.5603 Z.0513
N9130 X5.4478 Y-5.5513 Z.0506
N9140 X5.4381 Y-5.5398 Z.0498
N9150 X5.431 Y-5.5267 Z.049
N9160 X5.4265 Y-5.5124 Z.0483
N9170 X5.425 Y-5.4975 Z.0475
N9180 X5.4265 Y-5.4829 Z.0467
N9190 X5.4307 Y-5.4688 Z.046
N9200 X5.4377 Y-5.4559 Z.0452
N9210 X5.447 Y-5.4445 Z.0444
N9220 X5.4584 Y-5.4352 Z.0436
N9230 X5.4713 Y-5.4282 Z.0428
N9240 X5.4854 Y-5.424 Z.0421
N9250 X5.5 Y-5.4225 Z.0413
N9260 X5.5146 Y-5.424 Z.0405
N9270 X5.5287 Y-5.4282 Z.0398
N9280 X5.5416 Y-5.4352 Z.039
N9290 X5.553 Y-5.4445 Z.0382
N9300 X5.5623 Y-5.4559 Z.0374
N9310 X5.5693 Y-5.4688 Z.0367
N9320 X5.5735 Y-5.4829 Z.0359
N9330 X5.575 Y-5.4975 Z.0351
N9340 X5.5735 Y-5.5121 Z.0343
N9350 X5.5693 Y-5.5262 Z.0335
N9360 X5.5623 Y-5.5391 Z.0328
N9370 X5.553 Y-5.5505 Z.032
N9380 X5.5416 Y-5.5598 Z.0312
N9390 X5.5287 Y-5.5668 Z.0304
N9400 X5.5146 Y-5.571 Z.0297
N9410 X5.5 Y-5.5725 Z.0289
N9420 X5.4857 Y-5.5711 Z.0281
N9430 X5.4718 Y-5.567 Z.0274
N9440 X5.4591 Y-5.5603 Z.0267
N9450 X5.4478 Y-5.5513 Z.0259
N9460 X5.4381 Y-5.5398 Z.0251
N9470 X5.431 Y-5.5267 Z.0244
N9480 X5.4265 Y-5.5124 Z.0236
N9490 X5.425 Y-5.4975 Z.0228
N9500 X5.4265 Y-5.4829 Z.022
N9510 X5.4307 Y-5.4688 Z.0213
N9520 X5.4377 Y-5.4559 Z.0205
N9530 X5.447 Y-5.4445 Z.0197
N9540 X5.4584 Y-5.4352 Z.0189
N9550 X5.4713 Y-5.4282 Z.0181
N9560 X5.4854 Y-5.424 Z.0174
N9570 X5.5 Y-5.4225 Z.0166
N9580 X5.5146 Y-5.424 Z.0158
N9590 X5.5287 Y-5.4282 Z.0151
N9600 X5.5416 Y-5.4352 Z.0143
N9610 X5.553 Y-5.4445 Z.0135
N9620 X5.5623 Y-5.4559 Z.0127
N9630 X5.5693 Y-5.4688 Z.0119
N9640 X5.5735 Y-5.4829 Z.0112
N9650 X5.575 Y-5.4975 Z.0104
N9660 X5.5735 Y-5.5121 Z.0096
N9670 X5.5693 Y-5.5262 Z.0089
N9680 X5.5623 Y-5.5391 Z.0081
N9690 X5.553 Y-5.5505 Z.0073
N9700 X5.5416 Y-5.5598 Z.0065
N9710 X5.5287 Y-5.5668 Z.0057
N9720 X5.5146 Y-5.571 Z.005
N9730 X5.5 Y-5.5725 Z.0042
N9740 X5.4857 Y-5.5711 Z.0034
N9750 X5.4718 Y-5.567 Z.0027
N9760 X5.4591 Y-5.5603 Z.0019
N9770 X5.4478 Y-5.5513 Z.0012
N9780 X5.4381 Y-5.5398 Z.0004
N9790 X5.431 Y-5.5267 Z-.0004
N9800 X5.4265 Y-5.5124 Z-.0011
N9810 X5.425 Y-5.4975 Z-.0019
N9820 X5.4265 Y-5.4829 Z-.0027
N9830 X5.4307 Y-5.4688 Z-.0034
N9840 X5.4377 Y-5.4559 Z-.0042
N9850 X5.447 Y-5.4445 Z-.005
N9860 X5.4584 Y-5.4352 Z-.0058
N9870 X5.4713 Y-5.4282 Z-.0065
N9880 X5.4854 Y-5.424 Z-.0073
N9890 X5.5 Y-5.4225 Z-.0081
N9900 X5.5146 Y-5.424 Z-.0089
N9910 X5.5287 Y-5.4282 Z-.0096
N9920 X5.5416 Y-5.4352 Z-.0104
N9930 X5.553 Y-5.4445 Z-.0112
N9940 X5.5623 Y-5.4559 Z-.012
N9950 X5.5693 Y-5.4688 Z-.0128
N9960 X5.5735 Y-5.4829 Z-.0135
N9970 X5.575 Y-5.4975 Z-.0143
N9980 X5.5735 Y-5.5121 Z-.0151
N9990 X5.5693 Y-5.5262 Z-.0158
N100 X5.5623 Y-5.5391 Z-.0166
N110 X5.553 Y-5.5505 Z-.0174
N120 X5.5416 Y-5.5598 Z-.0182
N130 X5.5287 Y-5.5668 Z-.019
N140 X5.5146 Y-5.571 Z-.0197
N150 X5.5 Y-5.5725 Z-.0205
N160 X5.4857 Y-5.5711 Z-.0213
N170 X5.4718 Y-5.567 Z-.022
N180 X5.4591 Y-5.5603 Z-.0227
N190 X5.4478 Y-5.5513 Z-.0235
N200 X5.4381 Y-5.5398 Z-.0243
N210 X5.431 Y-5.5267 Z-.025
N220 X5.4265 Y-5.5124 Z-.0258
N230 X5.425 Y-5.4975 Z-.0266
N240 X5.4265 Y-5.4829 Z-.0274
N250 X5.4307 Y-5.4688 Z-.0282
N260 X5.4377 Y-5.4559 Z-.0289
N270 X5.447 Y-5.4445 Z-.0297
N280 X5.4584 Y-5.4352 Z-.0305
N290 X5.4713 Y-5.4282 Z-.0313
N300 X5.4854 Y-5.424 Z-.032
N310 X5.5 Y-5.4225 Z-.0328
N320 X5.5146 Y-5.424 Z-.0336
N330 X5.5287 Y-5.4282 Z-.0344
N340 X5.5416 Y-5.4352 Z-.0351
N350 X5.553 Y-5.4445 Z-.0359
N360 X5.5623 Y-5.4559 Z-.0367
N370 X5.5693 Y-5.4688 Z-.0374
N380 X5.5735 Y-5.4829 Z-.0382
N390 X5.575 Y-5.4975 Z-.039
N400 X5.5735 Y-5.5121 Z-.0398
N410 X5.5693 Y-5.5262 Z-.0406
N420 X5.5623 Y-5.5391 Z-.0413
N430 X5.553 Y-5.5505 Z-.0421
N440 X5.5416 Y-5.5598 Z-.0429
N450 X5.5287 Y-5.5668 Z-.0436
N460 X5.5146 Y-5.571 Z-.0444
N470 X5.5 Y-5.5725 Z-.0452
N480 X5.4857 Y-5.5711 Z-.0459
N490 X5.4718 Y-5.567 Z-.0467
N500 X5.4591 Y-5.5603 Z-.0474
N510 X5.4478 Y-5.5513 Z-.0482
N520 X5.4381 Y-5.5398 Z-.049
N530 X5.431 Y-5.5267 Z-.0498
N540 X5.4265 Y-5.5124 Z-.0505
N550 X5.425 Y-5.4975 Z-.0513
N560 X5.4265 Y-5.4829 Z-.0521
N570 X5.4307 Y-5.4688 Z-.0529
N580 X5.4377 Y-5.4559 Z-.0536
N590 X5.447 Y-5.4445 Z-.0544
N600 X5.4584 Y-5.4352 Z-.0552
N610 X5.4713 Y-5.4282 Z-.0559
N620 X5.4854 Y-5.424 Z-.0567
N630 X5.5 Y-5.4225 Z-.0575
N640 Y-5.4631
N650 G3 X5.4631 Y-5.5 I0. J-.0369
N660 X5.5 Y-5.5369 I.0369 J0.
N670 X5.5369 Y-5.5 I0. J.0369
N680 X5.5 Y-5.4631 I-.0369 J0.
N690 G1 Y-5.4162
N700 G3 X5.4162 Y-5.5 I0. J-.0838
N710 X5.5 Y-5.5838 I.0838 J0.
N720 X5.5838 Y-5.5 I0. J.0838
N730 X5.5 Y-5.4162 I-.0838 J0.
N740 G1 Y-5.3225
N750 G3 X5.3225 Y-5.5 I0. J-.1775
N760 X5.5 Y-5.6775 I.1775 J0.
N770 X5.6775 Y-5.5 I0. J.1775
N780 X5.5 Y-5.3225 I-.1775 J0.
N790 G0 Z.25
N800 X5.4478 Y-5.5513
N810 Z.0425
N820 G1 X5.4381 Y-5.5398 Z.0417
N830 X5.431 Y-5.5267 Z.041
N840 X5.4265 Y-5.5124 Z.0402
N850 X5.425 Y-5.4975 Z.0394
N860 X5.4265 Y-5.4829 Z.0386
N870 X5.4307 Y-5.4688 Z.0378
N880 X5.4377 Y-5.4559 Z.0371
N890 X5.447 Y-5.4445 Z.0363
N900 X5.4584 Y-5.4352 Z.0355
N910 X5.4713 Y-5.4282 Z.0348
N920 X5.4854 Y-5.424 Z.034
N930 X5.5 Y-5.4225 Z.0332
N940 X5.5146 Y-5.424 Z.0324
N950 X5.5287 Y-5.4282 Z.0316
N960 X5.5416 Y-5.4352 Z.0309
N970 X5.553 Y-5.4445 Z.0301
N980 X5.5623 Y-5.4559 Z.0293
N990 X5.5693 Y-5.4688 Z.0285
N1000 X5.5735 Y-5.4829 Z.0278
N1010 X5.575 Y-5.4975 Z.027
N1020 X5.5735 Y-5.5121 Z.0262
N1030 X5.5693 Y-5.5262 Z.0255
N1040 X5.5623 Y-5.5391 Z.0247
N1050 X5.553 Y-5.5505 Z.0239
N1060 X5.5416 Y-5.5598 Z.0231
N1070 X5.5287 Y-5.5668 Z.0223
N1080 X5.5146 Y-5.571 Z.0216
N1090 X5.5 Y-5.5725 Z.0208
N1100 X5.4857 Y-5.5711 Z.02
N1110 X5.4718 Y-5.567 Z.0193
N1120 X5.4591 Y-5.5603 Z.0186
N1130 X5.4478 Y-5.5513 Z.0178
N1140 X5.4381 Y-5.5398 Z.017
N1150 X5.431 Y-5.5267 Z.0163
N1160 X5.4265 Y-5.5124 Z.0155
N1170 X5.425 Y-5.4975 Z.0147
N1180 X5.4265 Y-5.4829 Z.0139
N1190 X5.4307 Y-5.4688 Z.0132
N1200 X5.4377 Y-5.4559 Z.0124
N1210 X5.447 Y-5.4445 Z.0116
N1220 X5.4584 Y-5.4352 Z.0108
N1230 X5.4713 Y-5.4282 Z.01
N1240 X5.4854 Y-5.424 Z.0093
N1250 X5.5 Y-5.4225 Z.0085
N1260 X5.5146 Y-5.424 Z.0077
N1270 X5.5287 Y-5.4282 Z.007
N1280 X5.5416 Y-5.4352 Z.0062
N1290 X5.553 Y-5.4445 Z.0054
N1300 X5.5623 Y-5.4559 Z.0046
N1310 X5.5693 Y-5.4688 Z.0039
N1320 X5.5735 Y-5.4829 Z.0031
N1330 X5.575 Y-5.4975 Z.0023
N1340 X5.5735 Y-5.5121 Z.0015
N1350 X5.5693 Y-5.5262 Z.0008
N1360 X5.5623 Y-5.5391 Z0.
N1370 X5.553 Y-5.5505 Z-.0008
N1380 X5.5416 Y-5.5598 Z-.0016
N1390 X5.5287 Y-5.5668 Z-.0023
N1400 X5.5146 Y-5.571 Z-.0031
N1410 X5.5 Y-5.5725 Z-.0039
N1420 X5.4857 Y-5.5711 Z-.0046
N1430 X5.4718 Y-5.567 Z-.0054
N1440 X5.4591 Y-5.5603 Z-.0062
N1450 X5.4478 Y-5.5513 Z-.0069
N1460 X5.4381 Y-5.5398 Z-.0077
N1470 X5.431 Y-5.5267 Z-.0084
N1480 X5.4265 Y-5.5124 Z-.0092
N1490 X5.425 Y-5.4975 Z-.01
N1500 X5.4265 Y-5.4829 Z-.0108
N1510 X5.4307 Y-5.4688 Z-.0115
N1520 X5.4377 Y-5.4559 Z-.0123
N1530 X5.447 Y-5.4445 Z-.0131
N1540 X5.4584 Y-5.4352 Z-.0139
N1550 X5.4713 Y-5.4282 Z-.0146
N1560 X5.4854 Y-5.424 Z-.0154
N1570 X5.5 Y-5.4225 Z-.0162
N1580 X5.5146 Y-5.424 Z-.017
N1590 X5.5287 Y-5.4282 Z-.0177
N1600 X5.5416 Y-5.4352 Z-.0185
N1610 X5.553 Y-5.4445 Z-.0193
N1620 X5.5623 Y-5.4559 Z-.0201
N1630 X5.5693 Y-5.4688 Z-.0209
N1640 X5.5735 Y-5.4829 Z-.0216
N1650 X5.575 Y-5.4975 Z-.0224
N1660 X5.5735 Y-5.5121 Z-.0232
N1670 X5.5693 Y-5.5262 Z-.0239
N1680 X5.5623 Y-5.5391 Z-.0247
N1690 X5.553 Y-5.5505 Z-.0255
N1700 X5.5416 Y-5.5598 Z-.0263
N1710 X5.5287 Y-5.5668 Z-.0271
N1720 X5.5146 Y-5.571 Z-.0278
N1730 X5.5 Y-5.5725 Z-.0286
N1740 X5.4857 Y-5.5711 Z-.0294
N1750 X5.4718 Y-5.567 Z-.0301
N1760 X5.4591 Y-5.5603 Z-.0309
N1770 X5.4478 Y-5.5513 Z-.0316
N1780 X5.4381 Y-5.5398 Z-.0324
N1790 X5.431 Y-5.5267 Z-.0331
N1800 X5.4265 Y-5.5124 Z-.0339
N1810 X5.425 Y-5.4975 Z-.0347
N1820 X5.4265 Y-5.4829 Z-.0355
N1830 X5.4307 Y-5.4688 Z-.0363
N1840 X5.4377 Y-5.4559 Z-.037
N1850 X5.447 Y-5.4445 Z-.0378
N1860 X5.4584 Y-5.4352 Z-.0386
N1870 X5.4713 Y-5.4282 Z-.0393
N1880 X5.4854 Y-5.424 Z-.0401
N1890 X5.5 Y-5.4225 Z-.0409
N1900 X5.5146 Y-5.424 Z-.0417
N1910 X5.5287 Y-5.4282 Z-.0425
N1920 X5.5416 Y-5.4352 Z-.0432
N1930 X5.553 Y-5.4445 Z-.044
N1940 X5.5623 Y-5.4559 Z-.0448
N1950 X5.5693 Y-5.4688 Z-.0456
N1960 X5.5735 Y-5.4829 Z-.0463
N1970 X5.575 Y-5.4975 Z-.0471
N1980 X5.5735 Y-5.5121 Z-.0479
N1990 X5.5693 Y-5.5262 Z-.0486
N2000 X5.5623 Y-5.5391 Z-.0494
N2010 X5.553 Y-5.5505 Z-.0502
N2020 X5.5416 Y-5.5598 Z-.051
N2030 X5.5287 Y-5.5668 Z-.0518
N2040 X5.5146 Y-5.571 Z-.0525
N2050 X5.5 Y-5.5725 Z-.0533
N2060 X5.4857 Y-5.5711 Z-.0541
N2070 X5.4718 Y-5.567 Z-.0548
N2080 X5.4591 Y-5.5603 Z-.0556
N2090 X5.4478 Y-5.5513 Z-.0563
N2100 X5.4381 Y-5.5398 Z-.0571
N2110 X5.431 Y-5.5267 Z-.0578
N2120 X5.4265 Y-5.5124 Z-.0586
N2130 X5.425 Y-5.4975 Z-.0594
N2140 X5.4265 Y-5.4829 Z-.0602
N2150 X5.4307 Y-5.4688 Z-.061
N2160 X5.4377 Y-5.4559 Z-.0617
N2170 X5.447 Y-5.4445 Z-.0625
N2180 X5.4584 Y-5.4352 Z-.0633
N2190 X5.4713 Y-5.4282 Z-.0641
N2200 X5.4854 Y-5.424 Z-.0648
N2210 X5.5 Y-5.4225 Z-.0656
N2220 X5.5146 Y-5.424 Z-.0664
N2230 X5.5287 Y-5.4282 Z-.0672
N2240 X5.5416 Y-5.4352 Z-.0679
N2250 X5.553 Y-5.4445 Z-.0687
N2260 X5.5623 Y-5.4559 Z-.0695
N2270 X5.5693 Y-5.4688 Z-.0703
N2280 X5.5735 Y-5.4829 Z-.071
N2290 X5.575 Y-5.4975 Z-.0718
N2300 X5.5735 Y-5.5121 Z-.0726
N2310 X5.5693 Y-5.5262 Z-.0733
N2320 X5.5623 Y-5.5391 Z-.0741
N2330 X5.553 Y-5.5505 Z-.0749
N2340 X5.5416 Y-5.5598 Z-.0757
N2350 X5.5287 Y-5.5668 Z-.0765
N2360 X5.5146 Y-5.571 Z-.0772
N2370 X5.5 Y-5.5725 Z-.078
N2380 X5.4857 Y-5.5711 Z-.0788
N2390 X5.4718 Y-5.567 Z-.0795
N2400 X5.4591 Y-5.5603 Z-.0803
N2410 X5.4478 Y-5.5513 Z-.081
N2420 X5.4381 Y-5.5398 Z-.0818
N2430 X5.431 Y-5.5267 Z-.0825
N2440 X5.4265 Y-5.5124 Z-.0833
N2450 X5.425 Y-5.4975 Z-.0841
N2460 X5.4265 Y-5.4829 Z-.0849
N2470 X5.4307 Y-5.4688 Z-.0857
N2480 X5.4377 Y-5.4559 Z-.0864
N2490 X5.447 Y-5.4445 Z-.0872
N2500 X5.4584 Y-5.4352 Z-.088
N2510 X5.4713 Y-5.4282 Z-.0887
N2520 X5.4854 Y-5.424 Z-.0895
N2530 X5.5 Y-5.4225 Z-.0903
N2540 X5.5146 Y-5.424 Z-.0911
N2550 X5.5287 Y-5.4282 Z-.0919
N2560 X5.5416 Y-5.4352 Z-.0926
N2570 X5.553 Y-5.4445 Z-.0934
N2580 X5.5623 Y-5.4559 Z-.0942
N2590 X5.5693 Y-5.4688 Z-.095
N2600 X5.5735 Y-5.4829 Z-.0957
N2610 X5.575 Y-5.4975 Z-.0965
N2620 X5.5735 Y-5.5121 Z-.0973
N2630 X5.5693 Y-5.5262 Z-.098
N2640 X5.5623 Y-5.5391 Z-.0988
N2650 X5.553 Y-5.5505 Z-.0996
N2660 X5.5416 Y-5.5598 Z-.1004
N2670 X5.5287 Y-5.5668 Z-.1012
N2680 X5.5146 Y-5.571 Z-.1019
N2690 X5.5 Y-5.5725 Z-.1027
N2700 X5.4857 Y-5.5711 Z-.1035
N2710 X5.4718 Y-5.567 Z-.1042
N2720 X5.4591 Y-5.5603 Z-.105
N2730 X5.4478 Y-5.5513 Z-.1057
N2740 X5.4381 Y-5.5398 Z-.1065
N2750 X5.431 Y-5.5267 Z-.1072
N2760 X5.4265 Y-5.5124 Z-.108
N2770 X5.425 Y-5.4975 Z-.1088
N2780 X5.4265 Y-5.4829 Z-.1096
N2790 X5.4307 Y-5.4688 Z-.1104
N2800 X5.4377 Y-5.4559 Z-.1111
N2810 X5.447 Y-5.4445 Z-.1119
N2820 X5.4584 Y-5.4352 Z-.1127
N2830 X5.4713 Y-5.4282 Z-.1134
N2840 X5.4854 Y-5.424 Z-.1142
N2850 X5.5 Y-5.4225 Z-.115
N2860 Y-5.4631
N2870 G3 X5.4631 Y-5.5 I0. J-.0369
N2880 X5.5 Y-5.5369 I.0369 J0.
N2890 X5.5369 Y-5.5 I0. J.0369
N2900 X5.5 Y-5.4631 I-.0369 J0.
N2910 G1 Y-5.4162
N2920 G3 X5.4162 Y-5.5 I0. J-.0838
N2930 X5.5 Y-5.5838 I.0838 J0.
N2940 X5.5838 Y-5.5 I0. J.0838
N2950 X5.5 Y-5.4162 I-.0838 J0.
N2960 G1 Y-5.3225
N2970 G3 X5.3225 Y-5.5 I0. J-.1775
N2980 X5.5 Y-5.6775 I.1775 J0.
N2990 X5.6775 Y-5.5 I0. J.1775
N3000 X5.5 Y-5.3225 I-.1775 J0.
N3010 G0 Z.25
N3020 X5.4478 Y-5.5513
N3030 Z.0325
N3040 G1 X5.4381 Y-5.5398 Z.0317
N3050 X5.431 Y-5.5267 Z.0309
N3060 X5.4265 Y-5.5124 Z.0302
N3070 X5.425 Y-5.4975 Z.0294
N3080 X5.4265 Y-5.4829 Z.0286
N3090 X5.4307 Y-5.4688 Z.0278
N3100 X5.4377 Y-5.4559 Z.0271
N3110 X5.447 Y-5.4445 Z.0263
N3120 X5.4584 Y-5.4352 Z.0255
N3130 X5.4713 Y-5.4282 Z.0247
N3140 X5.4854 Y-5.424 Z.024
N3150 X5.5 Y-5.4225 Z.0232
N3160 X5.5146 Y-5.424 Z.0224
N3170 X5.5287 Y-5.4282 Z.0216
N3180 X5.5416 Y-5.4352 Z.0209
N3190 X5.553 Y-5.4445 Z.0201
N3200 X5.5623 Y-5.4559 Z.0193
N3210 X5.5693 Y-5.4688 Z.0186
N3220 X5.5735 Y-5.4829 Z.0178
N3230 X5.575 Y-5.4975 Z.017
N3240 X5.5735 Y-5.5121 Z.0162
N3250 X5.5693 Y-5.5262 Z.0155
N3260 X5.5623 Y-5.5391 Z.0147
N3270 X5.553 Y-5.5505 Z.0139
N3280 X5.5416 Y-5.5598 Z.0131
N3290 X5.5287 Y-5.5668 Z.0123
N3300 X5.5146 Y-5.571 Z.0116
N3310 X5.5 Y-5.5725 Z.0108
N3320 X5.4857 Y-5.5711 Z.01
N3330 X5.4718 Y-5.567 Z.0093
N3340 X5.4591 Y-5.5603 Z.0086
N3350 X5.4478 Y-5.5513 Z.0078
N3360 X5.4381 Y-5.5398 Z.007
N3370 X5.431 Y-5.5267 Z.0063
N3380 X5.4265 Y-5.5124 Z.0055
N3390 X5.425 Y-5.4975 Z.0047
N3400 X5.4265 Y-5.4829 Z.0039
N3410 X5.4307 Y-5.4688 Z.0032
N3420 X5.4377 Y-5.4559 Z.0024
N3430 X5.447 Y-5.4445 Z.0016
N3440 X5.4584 Y-5.4352 Z.0008
N3450 X5.4713 Y-5.4282 Z0.
N3460 X5.4854 Y-5.424 Z-.0007
N3470 X5.5 Y-5.4225 Z-.0015
N3480 X5.5146 Y-5.424 Z-.0023
N3490 X5.5287 Y-5.4282 Z-.0031
N3500 X5.5416 Y-5.4352 Z-.0038
N3510 X5.553 Y-5.4445 Z-.0046
N3520 X5.5623 Y-5.4559 Z-.0054
N3530 X5.5693 Y-5.4688 Z-.0062
N3540 X5.5735 Y-5.4829 Z-.0069
N3550 X5.575 Y-5.4975 Z-.0077
N3560 X5.5735 Y-5.5121 Z-.0085
N3570 X5.5693 Y-5.5262 Z-.0092
N3580 X5.5623 Y-5.5391 Z-.01
N3590 X5.553 Y-5.5505 Z-.0108
N3600 X5.5416 Y-5.5598 Z-.0116
N3610 X5.5287 Y-5.5668 Z-.0123
N3620 X5.5146 Y-5.571 Z-.0131
N3630 X5.5 Y-5.5725 Z-.0139
N3640 X5.4857 Y-5.5711 Z-.0146
N3650 X5.4718 Y-5.567 Z-.0154
N3660 X5.4591 Y-5.5603 Z-.0161
N3670 X5.4478 Y-5.5513 Z-.0169
N3680 X5.4381 Y-5.5398 Z-.0177
N3690 X5.431 Y-5.5267 Z-.0185
N3700 X5.4265 Y-5.5124 Z-.0192
N3710 X5.425 Y-5.4975 Z-.02
N3720 X5.4265 Y-5.4829 Z-.0208
N3730 X5.4307 Y-5.4688 Z-.0215
N3740 X5.4377 Y-5.4559 Z-.0223
N3750 X5.447 Y-5.4445 Z-.0231
N3760 X5.4584 Y-5.4352 Z-.0239
N3770 X5.4713 Y-5.4282 Z-.0247
N3780 X5.4854 Y-5.424 Z-.0254
N3790 X5.5 Y-5.4225 Z-.0262
N3800 X5.5146 Y-5.424 Z-.027
N3810 X5.5287 Y-5.4282 Z-.0278
N3820 X5.5416 Y-5.4352 Z-.0285
N3830 X5.553 Y-5.4445 Z-.0293
N3840 X5.5623 Y-5.4559 Z-.0301
N3850 X5.5693 Y-5.4688 Z-.0308
N3860 X5.5735 Y-5.4829 Z-.0316
N3870 X5.575 Y-5.4975 Z-.0324
N3880 X5.5735 Y-5.5121 Z-.0332
N3890 X5.5693 Y-5.5262 Z-.034
N3900 X5.5623 Y-5.5391 Z-.0347
N3910 X5.553 Y-5.5505 Z-.0355
N3920 X5.5416 Y-5.5598 Z-.0363
N3930 X5.5287 Y-5.5668 Z-.037
N3940 X5.5146 Y-5.571 Z-.0378
N3950 X5.5 Y-5.5725 Z-.0386
N3960 X5.4857 Y-5.5711 Z-.0394
N3970 X5.4718 Y-5.567 Z-.0401
N3980 X5.4591 Y-5.5603 Z-.0408
N3990 X5.4478 Y-5.5513 Z-.0416
N4000 X5.4381 Y-5.5398 Z-.0424
N4010 X5.431 Y-5.5267 Z-.0431
N4020 X5.4265 Y-5.5124 Z-.0439
N4030 X5.425 Y-5.4975 Z-.0447
N4040 X5.4265 Y-5.4829 Z-.0455
N4050 X5.4307 Y-5.4688 Z-.0462
N4060 X5.4377 Y-5.4559 Z-.047
N4070 X5.447 Y-5.4445 Z-.0478
N4080 X5.4584 Y-5.4352 Z-.0486
N4090 X5.4713 Y-5.4282 Z-.0493
N4100 X5.4854 Y-5.424 Z-.0501
N4110 X5.5 Y-5.4225 Z-.0509
N4120 X5.5146 Y-5.424 Z-.0517
N4130 X5.5287 Y-5.4282 Z-.0524
N4140 X5.5416 Y-5.4352 Z-.0532
N4150 X5.553 Y-5.4445 Z-.054
N4160 X5.5623 Y-5.4559 Z-.0548
N4170 X5.5693 Y-5.4688 Z-.0556
N4180 X5.5735 Y-5.4829 Z-.0563
N4190 X5.575 Y-5.4975 Z-.0571
N4200 X5.5735 Y-5.5121 Z-.0579
N4210 X5.5693 Y-5.5262 Z-.0586
N4220 X5.5623 Y-5.5391 Z-.0594
N4230 X5.553 Y-5.5505 Z-.0602
N4240 X5.5416 Y-5.5598 Z-.061
N4250 X5.5287 Y-5.5668 Z-.0617
N4260 X5.5146 Y-5.571 Z-.0625
N4270 X5.5 Y-5.5725 Z-.0633
N4280 X5.4857 Y-5.5711 Z-.064
N4290 X5.4718 Y-5.567 Z-.0648
N4300 X5.4591 Y-5.5603 Z-.0655
N4310 X5.4478 Y-5.5513 Z-.0663
N4320 X5.4381 Y-5.5398 Z-.0671
N4330 X5.431 Y-5.5267 Z-.0678
N4340 X5.4265 Y-5.5124 Z-.0686
N4350 X5.425 Y-5.4975 Z-.0694
N4360 X5.4265 Y-5.4829 Z-.0702
N4370 X5.4307 Y-5.4688 Z-.0709
N4380 X5.4377 Y-5.4559 Z-.0717
N4390 X5.447 Y-5.4445 Z-.0725
N4400 X5.4584 Y-5.4352 Z-.0733
N4410 X5.4713 Y-5.4282 Z-.0741
N4420 X5.4854 Y-5.424 Z-.0748
N4430 X5.5 Y-5.4225 Z-.0756
N4440 X5.5146 Y-5.424 Z-.0764
N4450 X5.5287 Y-5.4282 Z-.0771
N4460 X5.5416 Y-5.4352 Z-.0779
N4470 X5.553 Y-5.4445 Z-.0787
N4480 X5.5623 Y-5.4559 Z-.0795
N4490 X5.5693 Y-5.4688 Z-.0803
N4500 X5.5735 Y-5.4829 Z-.081
N4510 X5.575 Y-5.4975 Z-.0818
N4520 X5.5735 Y-5.5121 Z-.0826
N4530 X5.5693 Y-5.5262 Z-.0833
N4540 X5.5623 Y-5.5391 Z-.0841
N4550 X5.553 Y-5.5505 Z-.0849
N4560 X5.5416 Y-5.5598 Z-.0857
N4570 X5.5287 Y-5.5668 Z-.0864
N4580 X5.5146 Y-5.571 Z-.0872
N4590 X5.5 Y-5.5725 Z-.088
N4600 X5.4857 Y-5.5711 Z-.0887
N4610 X5.4718 Y-5.567 Z-.0895
N4620 X5.4591 Y-5.5603 Z-.0902
N4630 X5.4478 Y-5.5513 Z-.091
N4640 X5.4381 Y-5.5398 Z-.0918
N4650 X5.431 Y-5.5267 Z-.0925
N4660 X5.4265 Y-5.5124 Z-.0933
N4670 X5.425 Y-5.4975 Z-.0941
N4680 X5.4265 Y-5.4829 Z-.0949
N4690 X5.4307 Y-5.4688 Z-.0956
N4700 X5.4377 Y-5.4559 Z-.0964
N4710 X5.447 Y-5.4445 Z-.0972
N4720 X5.4584 Y-5.4352 Z-.098
N4730 X5.4713 Y-5.4282 Z-.0988
N4740 X5.4854 Y-5.424 Z-.0995
N4750 X5.5 Y-5.4225 Z-.1003
N4760 X5.5146 Y-5.424 Z-.1011
N4770 X5.5287 Y-5.4282 Z-.1018
N4780 X5.5416 Y-5.4352 Z-.1026
N4790 X5.553 Y-5.4445 Z-.1034
N4800 X5.5623 Y-5.4559 Z-.1042
N4810 X5.5693 Y-5.4688 Z-.105
N4820 X5.5735 Y-5.4829 Z-.1057
N4830 X5.575 Y-5.4975 Z-.1065
N4840 X5.5735 Y-5.5121 Z-.1073
N4850 X5.5693 Y-5.5262 Z-.108
N4860 X5.5623 Y-5.5391 Z-.1088
N4870 X5.553 Y-5.5505 Z-.1096
N4880 X5.5416 Y-5.5598 Z-.1104
N4890 X5.5287 Y-5.5668 Z-.1111
N4900 X5.5146 Y-5.571 Z-.1119
N4910 X5.5 Y-5.5725 Z-.1127
N4920 X5.4857 Y-5.5711 Z-.1134
N4930 X5.4718 Y-5.567 Z-.1142
N4940 X5.4591 Y-5.5603 Z-.1149
N4950 X5.4478 Y-5.5513 Z-.1157
N4960 X5.4381 Y-5.5398 Z-.1165
N4970 X5.431 Y-5.5267 Z-.1172
N4980 X5.4265 Y-5.5124 Z-.118
N4990 X5.425 Y-5.4975 Z-.1188
N5000 X5.4265 Y-5.4829 Z-.1196
N5010 X5.4307 Y-5.4688 Z-.1203
N5020 X5.4377 Y-5.4559 Z-.1211
N5030 X5.447 Y-5.4445 Z-.1219
N5040 X5.4584 Y-5.4352 Z-.1227
N5050 X5.4713 Y-5.4282 Z-.1235
N5060 X5.4854 Y-5.424 Z-.1242
N5070 X5.5 Y-5.4225 Z-.125
N5080 Y-5.4631
N5090 G3 X5.4631 Y-5.5 I0. J-.0369
N5100 X5.5 Y-5.5369 I.0369 J0.
N5110 X5.5369 Y-5.5 I0. J.0369
N5120 X5.5 Y-5.4631 I-.0369 J0.
N5130 G1 Y-5.4162
N5140 G3 X5.4162 Y-5.5 I0. J-.0838
N5150 X5.5 Y-5.5838 I.0838 J0.
N5160 X5.5838 Y-5.5 I0. J.0838
N5170 X5.5 Y-5.4162 I-.0838 J0.
N5180 G1 Y-5.3225
N5190 G3 X5.3225 Y-5.5 I0. J-.1775
N5200 X5.5 Y-5.6775 I.1775 J0.
N5210 X5.6775 Y-5.5 I0. J.1775
N5220 X5.5 Y-5.3225 I-.1775 J0.
N5230 G0 Z.25
N5240 X5.3875 Y-5.4625
N5250 Z-.015
N5260 G1 Z-.125 F4.
N5270 X5.35 F15.
N5280 G3 X5.3125 Y-5.5 I0. J-.0375
N5290 X5.5 Y-5.6875 I.1875 J0.
N5300 X5.6875 Y-5.5 I0. J.1875
N5310 X5.5 Y-5.3125 I-.1875 J0.
N5320 X5.3125 Y-5.5 I0. J-.1875
N5330 X5.35 Y-5.5375 I.0375 J0.
N5340 G1 X5.3875
N5350 G0 Z.25
N5360 X.4478 Y-.5513
N5370 Z.1
N5380 G1 X.4381 Y-.5398 Z.0992
N5390 X.431 Y-.5267 Z.0985
N5400 X.4265 Y-.5124 Z.0977
N5410 X.425 Y-.4975 Z.0969
N5420 X.4265 Y-.4829 Z.0961
N5430 X.4307 Y-.4688 Z.0954
N5440 X.4377 Y-.4559 Z.0946
N5450 X.447 Y-.4445 Z.0938
N5460 X.4584 Y-.4352 Z.093
N5470 X.4713 Y-.4282 Z.0922
N5480 X.4854 Y-.424 Z.0915
N5490 X.5 Y-.4225 Z.0907
N5500 X.5146 Y-.424 Z.0899
N5510 X.5287 Y-.4282 Z.0892
N5520 X.5416 Y-.4352 Z.0884
N5530 X.553 Y-.4445 Z.0876
N5540 X.5623 Y-.4559 Z.0868
N5550 X.5693 Y-.4688 Z.0861
N5560 X.5735 Y-.4829 Z.0853
N5570 X.575 Y-.4975 Z.0845
N5580 X.5735 Y-.5121 Z.0837
N5590 X.5693 Y-.5262 Z.0829
N5600 X.5623 Y-.5391 Z.0822
N5610 X.553 Y-.5505 Z.0814
N5620 X.5416 Y-.5598 Z.0806
N5630 X.5287 Y-.5668 Z.0799
N5640 X.5146 Y-.571 Z.0791
N5650 X.5 Y-.5725 Z.0783
N5660 X.4857 Y-.5711 Z.0775
N5670 X.4718 Y-.567 Z.0768
N5680 X.4591 Y-.5603 Z.0761
N5690 X.4478 Y-.5513 Z.0753
N5700 X.4381 Y-.5398 Z.0745
N5710 X.431 Y-.5267 Z.0738
N5720 X.4265 Y-.5124 Z.073
N5730 X.425 Y-.4975 Z.0722
N5740 X.4265 Y-.4829 Z.0714
N5750 X.4307 Y-.4688 Z.0707
N5760 X.4377 Y-.4559 Z.0699
N5770 X.447 Y-.4445 Z.0691
N5780 X.4584 Y-.4352 Z.0683
N5790 X.4713 Y-.4282 Z.0675
N5800 X.4854 Y-.424 Z.0668
N5810 X.5 Y-.4225 Z.066
N5820 X.5146 Y-.424 Z.0652
N5830 X.5287 Y-.4282 Z.0645
N5840 X.5416 Y-.4352 Z.0637
N5850 X.553 Y-.4445 Z.0629
N5860 X.5623 Y-.4559 Z.0621
N5870 X.5693 Y-.4688 Z.0614
N5880 X.5735 Y-.4829 Z.0606
N5890 X.575 Y-.4975 Z.0598
N5900 X.5735 Y-.5121 Z.059
N5910 X.5693 Y-.5262 Z.0582
N5920 X.5623 Y-.5391 Z.0575
N5930 X.553 Y-.5505 Z.0567
N5940 X.5416 Y-.5598 Z.0559
N5950 X.5287 Y-.5668 Z.0552
N5960 X.5146 Y-.571 Z.0544
N5970 X.5 Y-.5725 Z.0536
N5980 X.4857 Y-.5711 Z.0529
N5990 X.4718 Y-.567 Z.0521
N6000 X.4591 Y-.5603 Z.0513
N6010 X.4478 Y-.5513 Z.0506
N6020 X.4381 Y-.5398 Z.0498
N6030 X.431 Y-.5267 Z.049
N6040 X.4265 Y-.5124 Z.0483
N6050 X.425 Y-.4975 Z.0475
N6060 X.4265 Y-.4829 Z.0467
N6070 X.4307 Y-.4688 Z.046
N6080 X.4377 Y-.4559 Z.0452
N6090 X.447 Y-.4445 Z.0444
N6100 X.4584 Y-.4352 Z.0436
N6110 X.4713 Y-.4282 Z.0428
N6120 X.4854 Y-.424 Z.0421
N6130 X.5 Y-.4225 Z.0413
N6140 X.5146 Y-.424 Z.0405
N6150 X.5287 Y-.4282 Z.0398
N6160 X.5416 Y-.4352 Z.039
N6170 X.553 Y-.4445 Z.0382
N6180 X.5623 Y-.4559 Z.0374
N6190 X.5693 Y-.4688 Z.0367
N6200 X.5735 Y-.4829 Z.0359
N6210 X.575 Y-.4975 Z.0351
N6220 X.5735 Y-.5121 Z.0343
N6230 X.5693 Y-.5262 Z.0335
N6240 X.5623 Y-.5391 Z.0328
N6250 X.553 Y-.5505 Z.032
N6260 X.5416 Y-.5598 Z.0312
N6270 X.5287 Y-.5668 Z.0304
N6280 X.5146 Y-.571 Z.0297
N6290 X.5 Y-.5725 Z.0289
N6300 X.4857 Y-.5711 Z.0281
N6310 X.4718 Y-.567 Z.0274
N6320 X.4591 Y-.5603 Z.0267
N6330 X.4478 Y-.5513 Z.0259
N6340 X.4381 Y-.5398 Z.0251
N6350 X.431 Y-.5267 Z.0244
N6360 X.4265 Y-.5124 Z.0236
N6370 X.425 Y-.4975 Z.0228
N6380 X.4265 Y-.4829 Z.022
N6390 X.4307 Y-.4688 Z.0213
N6400 X.4377 Y-.4559 Z.0205
N6410 X.447 Y-.4445 Z.0197
N6420 X.4584 Y-.4352 Z.0189
N6430 X.4713 Y-.4282 Z.0181
N6440 X.4854 Y-.424 Z.0174
N6450 X.5 Y-.4225 Z.0166
N6460 X.5146 Y-.424 Z.0158
N6470 X.5287 Y-.4282 Z.0151
N6480 X.5416 Y-.4352 Z.0143
N6490 X.553 Y-.4445 Z.0135
N6500 X.5623 Y-.4559 Z.0127
N6510 X.5693 Y-.4688 Z.0119
N6520 X.5735 Y-.4829 Z.0112
N6530 X.575 Y-.4975 Z.0104
N6540 X.5735 Y-.5121 Z.0096
N6550 X.5693 Y-.5262 Z.0089
N6560 X.5623 Y-.5391 Z.0081
N6570 X.553 Y-.5505 Z.0073
N6580 X.5416 Y-.5598 Z.0065
N6590 X.5287 Y-.5668 Z.0057
N6600 X.5146 Y-.571 Z.005
N6610 X.5 Y-.5725 Z.0042
N6620 X.4857 Y-.5711 Z.0034
N6630 X.4718 Y-.567 Z.0027
N6640 X.4591 Y-.5603 Z.0019
N6650 X.4478 Y-.5513 Z.0012
N6660 X.4381 Y-.5398 Z.0004
N6670 X.431 Y-.5267 Z-.0004
N6680 X.4265 Y-.5124 Z-.0011
N6690 X.425 Y-.4975 Z-.0019
N6700 X.4265 Y-.4829 Z-.0027
N6710 X.4307 Y-.4688 Z-.0034
N6720 X.4377 Y-.4559 Z-.0042
N6730 X.447 Y-.4445 Z-.005
N6740 X.4584 Y-.4352 Z-.0058
N6750 X.4713 Y-.4282 Z-.0065
N6760 X.4854 Y-.424 Z-.0073
N6770 X.5 Y-.4225 Z-.0081
N6780 X.5146 Y-.424 Z-.0089
N6790 X.5287 Y-.4282 Z-.0096
N6800 X.5416 Y-.4352 Z-.0104
N6810 X.553 Y-.4445 Z-.0112
N6820 X.5623 Y-.4559 Z-.012
N6830 X.5693 Y-.4688 Z-.0128
N6840 X.5735 Y-.4829 Z-.0135
N6850 X.575 Y-.4975 Z-.0143
N6860 X.5735 Y-.5121 Z-.0151
N6870 X.5693 Y-.5262 Z-.0158
N6880 X.5623 Y-.5391 Z-.0166
N6890 X.553 Y-.5505 Z-.0174
N6900 X.5416 Y-.5598 Z-.0182
N6910 X.5287 Y-.5668 Z-.019
N6920 X.5146 Y-.571 Z-.0197
N6930 X.5 Y-.5725 Z-.0205
N6940 X.4857 Y-.5711 Z-.0213
N6950 X.4718 Y-.567 Z-.022
N6960 X.4591 Y-.5603 Z-.0227
N6970 X.4478 Y-.5513 Z-.0235
N6980 X.4381 Y-.5398 Z-.0243
N6990 X.431 Y-.5267 Z-.025
N7000 X.4265 Y-.5124 Z-.0258
N7010 X.425 Y-.4975 Z-.0266
N7020 X.4265 Y-.4829 Z-.0274
N7030 X.4307 Y-.4688 Z-.0282
N7040 X.4377 Y-.4559 Z-.0289
N7050 X.447 Y-.4445 Z-.0297
N7060 X.4584 Y-.4352 Z-.0305
N7070 X.4713 Y-.4282 Z-.0313
N7080 X.4854 Y-.424 Z-.032
N7090 X.5 Y-.4225 Z-.0328
N7100 X.5146 Y-.424 Z-.0336
N7110 X.5287 Y-.4282 Z-.0344
N7120 X.5416 Y-.4352 Z-.0351
N7130 X.553 Y-.4445 Z-.0359
N7140 X.5623 Y-.4559 Z-.0367
N7150 X.5693 Y-.4688 Z-.0374
N7160 X.5735 Y-.4829 Z-.0382
N7170 X.575 Y-.4975 Z-.039
N7180 X.5735 Y-.5121 Z-.0398
N7190 X.5693 Y-.5262 Z-.0406
N7200 X.5623 Y-.5391 Z-.0413
N7210 X.553 Y-.5505 Z-.0421
N7220 X.5416 Y-.5598 Z-.0429
N7230 X.5287 Y-.5668 Z-.0436
N7240 X.5146 Y-.571 Z-.0444
N7250 X.5 Y-.5725 Z-.0452
N7260 X.4857 Y-.5711 Z-.0459
N7270 X.4718 Y-.567 Z-.0467
N7280 X.4591 Y-.5603 Z-.0474
N7290 X.4478 Y-.5513 Z-.0482
N7300 X.4381 Y-.5398 Z-.049
N7310 X.431 Y-.5267 Z-.0498
N7320 X.4265 Y-.5124 Z-.0505
N7330 X.425 Y-.4975 Z-.0513
N7340 X.4265 Y-.4829 Z-.0521
N7350 X.4307 Y-.4688 Z-.0529
N7360 X.4377 Y-.4559 Z-.0536
N7370 X.447 Y-.4445 Z-.0544
N7380 X.4584 Y-.4352 Z-.0552
N7390 X.4713 Y-.4282 Z-.0559
N7400 X.4854 Y-.424 Z-.0567
N7410 X.5 Y-.4225 Z-.0575
N7420 Y-.4631
N7430 G3 X.4631 Y-.5 I0. J-.0369
N7440 X.5 Y-.5369 I.0369 J0.
N7450 X.5369 Y-.5 I0. J.0369
N7460 X.5 Y-.4631 I-.0369 J0.
N7470 G1 Y-.4163
N7480 G3 X.4163 Y-.5 I0. J-.0837
N7490 X.5 Y-.5837 I.0837 J0.
N7500 X.5837 Y-.5 I0. J.0837
N7510 X.5 Y-.4163 I-.0837 J0.
N7520 G1 Y-.3225
N7530 G3 X.3225 Y-.5 I0. J-.1775
N7540 X.5 Y-.6775 I.1775 J0.
N7550 X.6775 Y-.5 I0. J.1775
N7560 X.5 Y-.3225 I-.1775 J0.
N7570 G0 Z.25
N7580 X.4478 Y-.5513
N7590 Z.0425
N7600 G1 X.4381 Y-.5398 Z.0417
N7610 X.431 Y-.5267 Z.041
N7620 X.4265 Y-.5124 Z.0402
N7630 X.425 Y-.4975 Z.0394
N7640 X.4265 Y-.4829 Z.0386
N7650 X.4307 Y-.4688 Z.0378
N7660 X.4377 Y-.4559 Z.0371
N7670 X.447 Y-.4445 Z.0363
N7680 X.4584 Y-.4352 Z.0355
N7690 X.4713 Y-.4282 Z.0348
N7700 X.4854 Y-.424 Z.034
N7710 X.5 Y-.4225 Z.0332
N7720 X.5146 Y-.424 Z.0324
N7730 X.5287 Y-.4282 Z.0316
N7740 X.5416 Y-.4352 Z.0309
N7750 X.553 Y-.4445 Z.0301
N7760 X.5623 Y-.4559 Z.0293
N7770 X.5693 Y-.4688 Z.0285
N7780 X.5735 Y-.4829 Z.0278
N7790 X.575 Y-.4975 Z.027
N7800 X.5735 Y-.5121 Z.0262
N7810 X.5693 Y-.5262 Z.0255
N7820 X.5623 Y-.5391 Z.0247
N7830 X.553 Y-.5505 Z.0239
N7840 X.5416 Y-.5598 Z.0231
N7850 X.5287 Y-.5668 Z.0223
N7860 X.5146 Y-.571 Z.0216
N7870 X.5 Y-.5725 Z.0208
N7880 X.4857 Y-.5711 Z.02
N7890 X.4718 Y-.567 Z.0193
N7900 X.4591 Y-.5603 Z.0186
N7910 X.4478 Y-.5513 Z.0178
N7920 X.4381 Y-.5398 Z.017
N7930 X.431 Y-.5267 Z.0163
N7940 X.4265 Y-.5124 Z.0155
N7950 X.425 Y-.4975 Z.0147
N7960 X.4265 Y-.4829 Z.0139
N7970 X.4307 Y-.4688 Z.0132
N7980 X.4377 Y-.4559 Z.0124
N7990 X.447 Y-.4445 Z.0116
N8000 X.4584 Y-.4352 Z.0108
N8010 X.4713 Y-.4282 Z.01
N8020 X.4854 Y-.424 Z.0093
N8030 X.5 Y-.4225 Z.0085
N8040 X.5146 Y-.424 Z.0077
N8050 X.5287 Y-.4282 Z.007
N8060 X.5416 Y-.4352 Z.0062
N8070 X.553 Y-.4445 Z.0054
N8080 X.5623 Y-.4559 Z.0046
N8090 X.5693 Y-.4688 Z.0039
N8100 X.5735 Y-.4829 Z.0031
N8110 X.575 Y-.4975 Z.0023
N8120 X.5735 Y-.5121 Z.0015
N8130 X.5693 Y-.5262 Z.0008
N8140 X.5623 Y-.5391 Z0.
N8150 X.553 Y-.5505 Z-.0008
N8160 X.5416 Y-.5598 Z-.0016
N8170 X.5287 Y-.5668 Z-.0023
N8180 X.5146 Y-.571 Z-.0031
N8190 X.5 Y-.5725 Z-.0039
N8200 X.4857 Y-.5711 Z-.0046
N8210 X.4718 Y-.567 Z-.0054
N8220 X.4591 Y-.5603 Z-.0062
N8230 X.4478 Y-.5513 Z-.0069
N8240 X.4381 Y-.5398 Z-.0077
N8250 X.431 Y-.5267 Z-.0084
N8260 X.4265 Y-.5124 Z-.0092
N8270 X.425 Y-.4975 Z-.01
N8280 X.4265 Y-.4829 Z-.0108
N8290 X.4307 Y-.4688 Z-.0115
N8300 X.4377 Y-.4559 Z-.0123
N8310 X.447 Y-.4445 Z-.0131
N8320 X.4584 Y-.4352 Z-.0139
N8330 X.4713 Y-.4282 Z-.0146
N8340 X.4854 Y-.424 Z-.0154
N8350 X.5 Y-.4225 Z-.0162
N8360 X.5146 Y-.424 Z-.017
N8370 X.5287 Y-.4282 Z-.0177
N8380 X.5416 Y-.4352 Z-.0185
N8390 X.553 Y-.4445 Z-.0193
N8400 X.5623 Y-.4559 Z-.0201
N8410 X.5693 Y-.4688 Z-.0209
N8420 X.5735 Y-.4829 Z-.0216
N8430 X.575 Y-.4975 Z-.0224
N8440 X.5735 Y-.5121 Z-.0232
N8450 X.5693 Y-.5262 Z-.0239
N8460 X.5623 Y-.5391 Z-.0247
N8470 X.553 Y-.5505 Z-.0255
N8480 X.5416 Y-.5598 Z-.0263
N8490 X.5287 Y-.5668 Z-.0271
N8500 X.5146 Y-.571 Z-.0278
N8510 X.5 Y-.5725 Z-.0286
N8520 X.4857 Y-.5711 Z-.0294
N8530 X.4718 Y-.567 Z-.0301
N8540 X.4591 Y-.5603 Z-.0309
N8550 X.4478 Y-.5513 Z-.0316
N8560 X.4381 Y-.5398 Z-.0324
N8570 X.431 Y-.5267 Z-.0331
N8580 X.4265 Y-.5124 Z-.0339
N8590 X.425 Y-.4975 Z-.0347
N8600 X.4265 Y-.4829 Z-.0355
N8610 X.4307 Y-.4688 Z-.0363
N8620 X.4377 Y-.4559 Z-.037
N8630 X.447 Y-.4445 Z-.0378
N8640 X.4584 Y-.4352 Z-.0386
N8650 X.4713 Y-.4282 Z-.0393
N8660 X.4854 Y-.424 Z-.0401
N8670 X.5 Y-.4225 Z-.0409
N8680 X.5146 Y-.424 Z-.0417
N8690 X.5287 Y-.4282 Z-.0425
N8700 X.5416 Y-.4352 Z-.0432
N8710 X.553 Y-.4445 Z-.044
N8720 X.5623 Y-.4559 Z-.0448
N8730 X.5693 Y-.4688 Z-.0456
N8740 X.5735 Y-.4829 Z-.0463
N8750 X.575 Y-.4975 Z-.0471
N8760 X.5735 Y-.5121 Z-.0479
N8770 X.5693 Y-.5262 Z-.0486
N8780 X.5623 Y-.5391 Z-.0494
N8790 X.553 Y-.5505 Z-.0502
N8800 X.5416 Y-.5598 Z-.051
N8810 X.5287 Y-.5668 Z-.0518
N8820 X.5146 Y-.571 Z-.0525
N8830 X.5 Y-.5725 Z-.0533
N8840 X.4857 Y-.5711 Z-.0541
N8850 X.4718 Y-.567 Z-.0548
N8860 X.4591 Y-.5603 Z-.0556
N8870 X.4478 Y-.5513 Z-.0563
N8880 X.4381 Y-.5398 Z-.0571
N8890 X.431 Y-.5267 Z-.0578
N8900 X.4265 Y-.5124 Z-.0586
N8910 X.425 Y-.4975 Z-.0594
N8920 X.4265 Y-.4829 Z-.0602
N8930 X.4307 Y-.4688 Z-.061
N8940 X.4377 Y-.4559 Z-.0617
N8950 X.447 Y-.4445 Z-.0625
N8960 X.4584 Y-.4352 Z-.0633
N8970 X.4713 Y-.4282 Z-.0641
N8980 X.4854 Y-.424 Z-.0648
N8990 X.5 Y-.4225 Z-.0656
N9000 X.5146 Y-.424 Z-.0664
N9010 X.5287 Y-.4282 Z-.0672
N9020 X.5416 Y-.4352 Z-.0679
N9030 X.553 Y-.4445 Z-.0687
N9040 X.5623 Y-.4559 Z-.0695
N9050 X.5693 Y-.4688 Z-.0703
N9060 X.5735 Y-.4829 Z-.071
N9070 X.575 Y-.4975 Z-.0718
N9080 X.5735 Y-.5121 Z-.0726
N9090 X.5693 Y-.5262 Z-.0733
N9100 X.5623 Y-.5391 Z-.0741
N9110 X.553 Y-.5505 Z-.0749
N9120 X.5416 Y-.5598 Z-.0757
N9130 X.5287 Y-.5668 Z-.0765
N9140 X.5146 Y-.571 Z-.0772
N9150 X.5 Y-.5725 Z-.078
N9160 X.4857 Y-.5711 Z-.0788
N9170 X.4718 Y-.567 Z-.0795
N9180 X.4591 Y-.5603 Z-.0803
N9190 X.4478 Y-.5513 Z-.081
N9200 X.4381 Y-.5398 Z-.0818
N9210 X.431 Y-.5267 Z-.0825
N9220 X.4265 Y-.5124 Z-.0833
N9230 X.425 Y-.4975 Z-.0841
N9240 X.4265 Y-.4829 Z-.0849
N9250 X.4307 Y-.4688 Z-.0857
N9260 X.4377 Y-.4559 Z-.0864
N9270 X.447 Y-.4445 Z-.0872
N9280 X.4584 Y-.4352 Z-.088
N9290 X.4713 Y-.4282 Z-.0887
N9300 X.4854 Y-.424 Z-.0895
N9310 X.5 Y-.4225 Z-.0903
N9320 X.5146 Y-.424 Z-.0911
N9330 X.5287 Y-.4282 Z-.0919
N9340 X.5416 Y-.4352 Z-.0926
N9350 X.553 Y-.4445 Z-.0934
N9360 X.5623 Y-.4559 Z-.0942
N9370 X.5693 Y-.4688 Z-.095
N9380 X.5735 Y-.4829 Z-.0957
N9390 X.575 Y-.4975 Z-.0965
N9400 X.5735 Y-.5121 Z-.0973
N9410 X.5693 Y-.5262 Z-.098
N9420 X.5623 Y-.5391 Z-.0988
N9430 X.553 Y-.5505 Z-.0996
N9440 X.5416 Y-.5598 Z-.1004
N9450 X.5287 Y-.5668 Z-.1012
N9460 X.5146 Y-.571 Z-.1019
N9470 X.5 Y-.5725 Z-.1027
N9480 X.4857 Y-.5711 Z-.1035
N9490 X.4718 Y-.567 Z-.1042
N9500 X.4591 Y-.5603 Z-.105
N9510 X.4478 Y-.5513 Z-.1057
N9520 X.4381 Y-.5398 Z-.1065
N9530 X.431 Y-.5267 Z-.1072
N9540 X.4265 Y-.5124 Z-.108
N9550 X.425 Y-.4975 Z-.1088
N9560 X.4265 Y-.4829 Z-.1096
N9570 X.4307 Y-.4688 Z-.1104
N9580 X.4377 Y-.4559 Z-.1111
N9590 X.447 Y-.4445 Z-.1119
N9600 X.4584 Y-.4352 Z-.1127
N9610 X.4713 Y-.4282 Z-.1134
N9620 X.4854 Y-.424 Z-.1142
N9630 X.5 Y-.4225 Z-.115
N9640 Y-.4631
N9650 G3 X.4631 Y-.5 I0. J-.0369
N9660 X.5 Y-.5369 I.0369 J0.
N9670 X.5369 Y-.5 I0. J.0369
N9680 X.5 Y-.4631 I-.0369 J0.
N9690 G1 Y-.4163
N9700 G3 X.4163 Y-.5 I0. J-.0837
N9710 X.5 Y-.5837 I.0837 J0.
N9720 X.5837 Y-.5 I0. J.0837
N9730 X.5 Y-.4163 I-.0837 J0.
N9740 G1 Y-.3225
N9750 G3 X.3225 Y-.5 I0. J-.1775
N9760 X.5 Y-.6775 I.1775 J0.
N9770 X.6775 Y-.5 I0. J.1775
N9780 X.5 Y-.3225 I-.1775 J0.
N9790 G0 Z.25
N9800 X.4478 Y-.5513
N9810 Z.0325
N9820 G1 X.4381 Y-.5398 Z.0317
N9830 X.431 Y-.5267 Z.0309
N9840 X.4265 Y-.5124 Z.0302
N9850 X.425 Y-.4975 Z.0294
N9860 X.4265 Y-.4829 Z.0286
N9870 X.4307 Y-.4688 Z.0278
N9880 X.4377 Y-.4559 Z.0271
N9890 X.447 Y-.4445 Z.0263
N9900 X.4584 Y-.4352 Z.0255
N9910 X.4713 Y-.4282 Z.0247
N9920 X.4854 Y-.424 Z.024
N9930 X.5 Y-.4225 Z.0232
N9940 X.5146 Y-.424 Z.0224
N9950 X.5287 Y-.4282 Z.0216
N9960 X.5416 Y-.4352 Z.0209
N9970 X.553 Y-.4445 Z.0201
N9980 X.5623 Y-.4559 Z.0193
N9990 X.5693 Y-.4688 Z.0186
N100 X.5735 Y-.4829 Z.0178
N110 X.575 Y-.4975 Z.017
N120 X.5735 Y-.5121 Z.0162
N130 X.5693 Y-.5262 Z.0155
N140 X.5623 Y-.5391 Z.0147
N150 X.553 Y-.5505 Z.0139
N160 X.5416 Y-.5598 Z.0131
N170 X.5287 Y-.5668 Z.0123
N180 X.5146 Y-.571 Z.0116
N190 X.5 Y-.5725 Z.0108
N200 X.4857 Y-.5711 Z.01
N210 X.4718 Y-.567 Z.0093
N220 X.4591 Y-.5603 Z.0086
N230 X.4478 Y-.5513 Z.0078
N240 X.4381 Y-.5398 Z.007
N250 X.431 Y-.5267 Z.0063
N260 X.4265 Y-.5124 Z.0055
N270 X.425 Y-.4975 Z.0047
N280 X.4265 Y-.4829 Z.0039
N290 X.4307 Y-.4688 Z.0032
N300 X.4377 Y-.4559 Z.0024
N310 X.447 Y-.4445 Z.0016
N320 X.4584 Y-.4352 Z.0008
N330 X.4713 Y-.4282 Z0.
N340 X.4854 Y-.424 Z-.0007
N350 X.5 Y-.4225 Z-.0015
N360 X.5146 Y-.424 Z-.0023
N370 X.5287 Y-.4282 Z-.0031
N380 X.5416 Y-.4352 Z-.0038
N390 X.553 Y-.4445 Z-.0046
N400 X.5623 Y-.4559 Z-.0054
N410 X.5693 Y-.4688 Z-.0062
N420 X.5735 Y-.4829 Z-.0069
N430 X.575 Y-.4975 Z-.0077
N440 X.5735 Y-.5121 Z-.0085
N450 X.5693 Y-.5262 Z-.0092
N460 X.5623 Y-.5391 Z-.01
N470 X.553 Y-.5505 Z-.0108
N480 X.5416 Y-.5598 Z-.0116
N490 X.5287 Y-.5668 Z-.0123
N500 X.5146 Y-.571 Z-.0131
N510 X.5 Y-.5725 Z-.0139
N520 X.4857 Y-.5711 Z-.0146
N530 X.4718 Y-.567 Z-.0154
N540 X.4591 Y-.5603 Z-.0161
N550 X.4478 Y-.5513 Z-.0169
N560 X.4381 Y-.5398 Z-.0177
N570 X.431 Y-.5267 Z-.0185
N580 X.4265 Y-.5124 Z-.0192
N590 X.425 Y-.4975 Z-.02
N600 X.4265 Y-.4829 Z-.0208
N610 X.4307 Y-.4688 Z-.0215
N620 X.4377 Y-.4559 Z-.0223
N630 X.447 Y-.4445 Z-.0231
N640 X.4584 Y-.4352 Z-.0239
N650 X.4713 Y-.4282 Z-.0247
N660 X.4854 Y-.424 Z-.0254
N670 X.5 Y-.4225 Z-.0262
N680 X.5146 Y-.424 Z-.027
N690 X.5287 Y-.4282 Z-.0278
N700 X.5416 Y-.4352 Z-.0285
N710 X.553 Y-.4445 Z-.0293
N720 X.5623 Y-.4559 Z-.0301
N730 X.5693 Y-.4688 Z-.0308
N740 X.5735 Y-.4829 Z-.0316
N750 X.575 Y-.4975 Z-.0324
N760 X.5735 Y-.5121 Z-.0332
N770 X.5693 Y-.5262 Z-.034
N780 X.5623 Y-.5391 Z-.0347
N790 X.553 Y-.5505 Z-.0355
N800 X.5416 Y-.5598 Z-.0363
N810 X.5287 Y-.5668 Z-.037
N820 X.5146 Y-.571 Z-.0378
N830 X.5 Y-.5725 Z-.0386
N840 X.4857 Y-.5711 Z-.0394
N850 X.4718 Y-.567 Z-.0401
N860 X.4591 Y-.5603 Z-.0408
N870 X.4478 Y-.5513 Z-.0416
N880 X.4381 Y-.5398 Z-.0424
N890 X.431 Y-.5267 Z-.0431
N900 X.4265 Y-.5124 Z-.0439
N910 X.425 Y-.4975 Z-.0447
N920 X.4265 Y-.4829 Z-.0455
N930 X.4307 Y-.4688 Z-.0462
N940 X.4377 Y-.4559 Z-.047
N950 X.447 Y-.4445 Z-.0478
N960 X.4584 Y-.4352 Z-.0486
N970 X.4713 Y-.4282 Z-.0493
N980 X.4854 Y-.424 Z-.0501
N990 X.5 Y-.4225 Z-.0509
N1000 X.5146 Y-.424 Z-.0517
N1010 X.5287 Y-.4282 Z-.0524
N1020 X.5416 Y-.4352 Z-.0532
N1030 X.553 Y-.4445 Z-.054
N1040 X.5623 Y-.4559 Z-.0548
N1050 X.5693 Y-.4688 Z-.0556
N1060 X.5735 Y-.4829 Z-.0563
N1070 X.575 Y-.4975 Z-.0571
N1080 X.5735 Y-.5121 Z-.0579
N1090 X.5693 Y-.5262 Z-.0586
N1100 X.5623 Y-.5391 Z-.0594
N1110 X.553 Y-.5505 Z-.0602
N1120 X.5416 Y-.5598 Z-.061
N1130 X.5287 Y-.5668 Z-.0617
N1140 X.5146 Y-.571 Z-.0625
N1150 X.5 Y-.5725 Z-.0633
N1160 X.4857 Y-.5711 Z-.064
N1170 X.4718 Y-.567 Z-.0648
N1180 X.4591 Y-.5603 Z-.0655
N1190 X.4478 Y-.5513 Z-.0663
N1200 X.4381 Y-.5398 Z-.0671
N1210 X.431 Y-.5267 Z-.0678
N1220 X.4265 Y-.5124 Z-.0686
N1230 X.425 Y-.4975 Z-.0694
N1240 X.4265 Y-.4829 Z-.0702
N1250 X.4307 Y-.4688 Z-.0709
N1260 X.4377 Y-.4559 Z-.0717
N1270 X.447 Y-.4445 Z-.0725
N1280 X.4584 Y-.4352 Z-.0733
N1290 X.4713 Y-.4282 Z-.0741
N1300 X.4854 Y-.424 Z-.0748
N1310 X.5 Y-.4225 Z-.0756
N1320 X.5146 Y-.424 Z-.0764
N1330 X.5287 Y-.4282 Z-.0771
N1340 X.5416 Y-.4352 Z-.0779
N1350 X.553 Y-.4445 Z-.0787
N1360 X.5623 Y-.4559 Z-.0795
N1370 X.5693 Y-.4688 Z-.0803
N1380 X.5735 Y-.4829 Z-.081
N1390 X.575 Y-.4975 Z-.0818
N1400 X.5735 Y-.5121 Z-.0826
N1410 X.5693 Y-.5262 Z-.0833
N1420 X.5623 Y-.5391 Z-.0841
N1430 X.553 Y-.5505 Z-.0849
N1440 X.5416 Y-.5598 Z-.0857
N1450 X.5287 Y-.5668 Z-.0864
N1460 X.5146 Y-.571 Z-.0872
N1470 X.5 Y-.5725 Z-.088
N1480 X.4857 Y-.5711 Z-.0887
N1490 X.4718 Y-.567 Z-.0895
N1500 X.4591 Y-.5603 Z-.0902
N1510 X.4478 Y-.5513 Z-.091
N1520 X.4381 Y-.5398 Z-.0918
N1530 X.431 Y-.5267 Z-.0925
N1540 X.4265 Y-.5124 Z-.0933
N1550 X.425 Y-.4975 Z-.0941
N1560 X.4265 Y-.4829 Z-.0949
N1570 X.4307 Y-.4688 Z-.0956
N1580 X.4377 Y-.4559 Z-.0964
N1590 X.447 Y-.4445 Z-.0972
N1600 X.4584 Y-.4352 Z-.098
N1610 X.4713 Y-.4282 Z-.0988
N1620 X.4854 Y-.424 Z-.0995
N1630 X.5 Y-.4225 Z-.1003
N1640 X.5146 Y-.424 Z-.1011
N1650 X.5287 Y-.4282 Z-.1018
N1660 X.5416 Y-.4352 Z-.1026
N1670 X.553 Y-.4445 Z-.1034
N1680 X.5623 Y-.4559 Z-.1042
N1690 X.5693 Y-.4688 Z-.105
N1700 X.5735 Y-.4829 Z-.1057
N1710 X.575 Y-.4975 Z-.1065
N1720 X.5735 Y-.5121 Z-.1073
N1730 X.5693 Y-.5262 Z-.108
N1740 X.5623 Y-.5391 Z-.1088
N1750 X.553 Y-.5505 Z-.1096
N1760 X.5416 Y-.5598 Z-.1104
N1770 X.5287 Y-.5668 Z-.1111
N1780 X.5146 Y-.571 Z-.1119
N1790 X.5 Y-.5725 Z-.1127
N1800 X.4857 Y-.5711 Z-.1134
N1810 X.4718 Y-.567 Z-.1142
N1820 X.4591 Y-.5603 Z-.1149
N1830 X.4478 Y-.5513 Z-.1157
N1840 X.4381 Y-.5398 Z-.1165
N1850 X.431 Y-.5267 Z-.1172
N1860 X.4265 Y-.5124 Z-.118
N1870 X.425 Y-.4975 Z-.1188
N1880 X.4265 Y-.4829 Z-.1196
N1890 X.4307 Y-.4688 Z-.1203
N1900 X.4377 Y-.4559 Z-.1211
N1910 X.447 Y-.4445 Z-.1219
N1920 X.4584 Y-.4352 Z-.1227
N1930 X.4713 Y-.4282 Z-.1235
N1940 X.4854 Y-.424 Z-.1242
N1950 X.5 Y-.4225 Z-.125
N1960 Y-.4631
N1970 G3 X.4631 Y-.5 I0. J-.0369
N1980 X.5 Y-.5369 I.0369 J0.
N1990 X.5369 Y-.5 I0. J.0369
N2000 X.5 Y-.4631 I-.0369 J0.
N2010 G1 Y-.4163
N2020 G3 X.4163 Y-.5 I0. J-.0837
N2030 X.5 Y-.5837 I.0837 J0.
N2040 X.5837 Y-.5 I0. J.0837
N2050 X.5 Y-.4163 I-.0837 J0.
N2060 G1 Y-.3225
N2070 G3 X.3225 Y-.5 I0. J-.1775
N2080 X.5 Y-.6775 I.1775 J0.
N2090 X.6775 Y-.5 I0. J.1775
N2100 X.5 Y-.3225 I-.1775 J0.
N2110 G0 Z.25
N2120 X.3875 Y-.4625
N2130 Z-.015
N2140 G1 Z-.125 F4.
N2150 X.35 F15.
N2160 G3 X.3125 Y-.5 I0. J-.0375
N2170 X.5 Y-.6875 I.1875 J0.
N2180 X.6875 Y-.5 I0. J.1875
N2190 X.5 Y-.3125 I-.1875 J0.
N2200 X.3125 Y-.5 I0. J-.1875
N2210 X.35 Y-.5375 I.0375 J0.
N2220 G1 X.3875
N2230 G0 Z.25
N2240 X5.4478 Y-.5513
N2250 Z.1
N2260 G1 X5.4381 Y-.5398 Z.0992
N2270 X5.431 Y-.5267 Z.0985
N2280 X5.4265 Y-.5124 Z.0977
N2290 X5.425 Y-.4975 Z.0969
N2300 X5.4265 Y-.4829 Z.0961
N2310 X5.4307 Y-.4688 Z.0954
N2320 X5.4377 Y-.4559 Z.0946
N2330 X5.447 Y-.4445 Z.0938
N2340 X5.4584 Y-.4352 Z.093
N2350 X5.4713 Y-.4282 Z.0922
N2360 X5.4854 Y-.424 Z.0915
N2370 X5.5 Y-.4225 Z.0907
N2380 X5.5146 Y-.424 Z.0899
N2390 X5.5287 Y-.4282 Z.0892
N2400 X5.5416 Y-.4352 Z.0884
N2410 X5.553 Y-.4445 Z.0876
N2420 X5.5623 Y-.4559 Z.0868
N2430 X5.5693 Y-.4688 Z.0861
N2440 X5.5735 Y-.4829 Z.0853
N2450 X5.575 Y-.4975 Z.0845
N2460 X5.5735 Y-.5121 Z.0837
N2470 X5.5693 Y-.5262 Z.0829
N2480 X5.5623 Y-.5391 Z.0822
N2490 X5.553 Y-.5505 Z.0814
N2500 X5.5416 Y-.5598 Z.0806
N2510 X5.5287 Y-.5668 Z.0799
N2520 X5.5146 Y-.571 Z.0791
N2530 X5.5 Y-.5725 Z.0783
N2540 X5.4857 Y-.5711 Z.0775
N2550 X5.4718 Y-.567 Z.0768
N2560 X5.4591 Y-.5603 Z.0761
N2570 X5.4478 Y-.5513 Z.0753
N2580 X5.4381 Y-.5398 Z.0745
N2590 X5.431 Y-.5267 Z.0738
N2600 X5.4265 Y-.5124 Z.073
N2610 X5.425 Y-.4975 Z.0722
N2620 X5.4265 Y-.4829 Z.0714
N2630 X5.4307 Y-.4688 Z.0707
N2640 X5.4377 Y-.4559 Z.0699
N2650 X5.447 Y-.4445 Z.0691
N2660 X5.4584 Y-.4352 Z.0683
N2670 X5.4713 Y-.4282 Z.0675
N2680 X5.4854 Y-.424 Z.0668
N2690 X5.5 Y-.4225 Z.066
N2700 X5.5146 Y-.424 Z.0652
N2710 X5.5287 Y-.4282 Z.0645
N2720 X5.5416 Y-.4352 Z.0637
N2730 X5.553 Y-.4445 Z.0629
N2740 X5.5623 Y-.4559 Z.0621
N2750 X5.5693 Y-.4688 Z.0614
N2760 X5.5735 Y-.4829 Z.0606
N2770 X5.575 Y-.4975 Z.0598
N2780 X5.5735 Y-.5121 Z.059
N2790 X5.5693 Y-.5262 Z.0582
N2800 X5.5623 Y-.5391 Z.0575
N2810 X5.553 Y-.5505 Z.0567
N2820 X5.5416 Y-.5598 Z.0559
N2830 X5.5287 Y-.5668 Z.0552
N2840 X5.5146 Y-.571 Z.0544
N2850 X5.5 Y-.5725 Z.0536
N2860 X5.4857 Y-.5711 Z.0529
N2870 X5.4718 Y-.567 Z.0521
N2880 X5.4591 Y-.5603 Z.0513
N2890 X5.4478 Y-.5513 Z.0506
N2900 X5.4381 Y-.5398 Z.0498
N2910 X5.431 Y-.5267 Z.049
N2920 X5.4265 Y-.5124 Z.0483
N2930 X5.425 Y-.4975 Z.0475
N2940 X5.4265 Y-.4829 Z.0467
N2950 X5.4307 Y-.4688 Z.046
N2960 X5.4377 Y-.4559 Z.0452
N2970 X5.447 Y-.4445 Z.0444
N2980 X5.4584 Y-.4352 Z.0436
N2990 X5.4713 Y-.4282 Z.0428
N3000 X5.4854 Y-.424 Z.0421
N3010 X5.5 Y-.4225 Z.0413
N3020 X5.5146 Y-.424 Z.0405
N3030 X5.5287 Y-.4282 Z.0398
N3040 X5.5416 Y-.4352 Z.039
N3050 X5.553 Y-.4445 Z.0382
N3060 X5.5623 Y-.4559 Z.0374
N3070 X5.5693 Y-.4688 Z.0367
N3080 X5.5735 Y-.4829 Z.0359
N3090 X5.575 Y-.4975 Z.0351
N3100 X5.5735 Y-.5121 Z.0343
N3110 X5.5693 Y-.5262 Z.0335
N3120 X5.5623 Y-.5391 Z.0328
N3130 X5.553 Y-.5505 Z.032
N3140 X5.5416 Y-.5598 Z.0312
N3150 X5.5287 Y-.5668 Z.0304
N3160 X5.5146 Y-.571 Z.0297
N3170 X5.5 Y-.5725 Z.0289
N3180 X5.4857 Y-.5711 Z.0281
N3190 X5.4718 Y-.567 Z.0274
N3200 X5.4591 Y-.5603 Z.0267
N3210 X5.4478 Y-.5513 Z.0259
N3220 X5.4381 Y-.5398 Z.0251
N3230 X5.431 Y-.5267 Z.0244
N3240 X5.4265 Y-.5124 Z.0236
N3250 X5.425 Y-.4975 Z.0228
N3260 X5.4265 Y-.4829 Z.022
N3270 X5.4307 Y-.4688 Z.0213
N3280 X5.4377 Y-.4559 Z.0205
N3290 X5.447 Y-.4445 Z.0197
N3300 X5.4584 Y-.4352 Z.0189
N3310 X5.4713 Y-.4282 Z.0181
N3320 X5.4854 Y-.424 Z.0174
N3330 X5.5 Y-.4225 Z.0166
N3340 X5.5146 Y-.424 Z.0158
N3350 X5.5287 Y-.4282 Z.0151
N3360 X5.5416 Y-.4352 Z.0143
N3370 X5.553 Y-.4445 Z.0135
N3380 X5.5623 Y-.4559 Z.0127
N3390 X5.5693 Y-.4688 Z.0119
N3400 X5.5735 Y-.4829 Z.0112
N3410 X5.575 Y-.4975 Z.0104
N3420 X5.5735 Y-.5121 Z.0096
N3430 X5.5693 Y-.5262 Z.0089
N3440 X5.5623 Y-.5391 Z.0081
N3450 X5.553 Y-.5505 Z.0073
N3460 X5.5416 Y-.5598 Z.0065
N3470 X5.5287 Y-.5668 Z.0057
N3480 X5.5146 Y-.571 Z.005
N3490 X5.5 Y-.5725 Z.0042
N3500 X5.4857 Y-.5711 Z.0034
N3510 X5.4718 Y-.567 Z.0027
N3520 X5.4591 Y-.5603 Z.0019
N3530 X5.4478 Y-.5513 Z.0012
N3540 X5.4381 Y-.5398 Z.0004
N3550 X5.431 Y-.5267 Z-.0004
N3560 X5.4265 Y-.5124 Z-.0011
N3570 X5.425 Y-.4975 Z-.0019
N3580 X5.4265 Y-.4829 Z-.0027
N3590 X5.4307 Y-.4688 Z-.0034
N3600 X5.4377 Y-.4559 Z-.0042
N3610 X5.447 Y-.4445 Z-.005
N3620 X5.4584 Y-.4352 Z-.0058
N3630 X5.4713 Y-.4282 Z-.0065
N3640 X5.4854 Y-.424 Z-.0073
N3650 X5.5 Y-.4225 Z-.0081
N3660 X5.5146 Y-.424 Z-.0089
N3670 X5.5287 Y-.4282 Z-.0096
N3680 X5.5416 Y-.4352 Z-.0104
N3690 X5.553 Y-.4445 Z-.0112
N3700 X5.5623 Y-.4559 Z-.012
N3710 X5.5693 Y-.4688 Z-.0128
N3720 X5.5735 Y-.4829 Z-.0135
N3730 X5.575 Y-.4975 Z-.0143
N3740 X5.5735 Y-.5121 Z-.0151
N3750 X5.5693 Y-.5262 Z-.0158
N3760 X5.5623 Y-.5391 Z-.0166
N3770 X5.553 Y-.5505 Z-.0174
N3780 X5.5416 Y-.5598 Z-.0182
N3790 X5.5287 Y-.5668 Z-.019
N3800 X5.5146 Y-.571 Z-.0197
N3810 X5.5 Y-.5725 Z-.0205
N3820 X5.4857 Y-.5711 Z-.0213
N3830 X5.4718 Y-.567 Z-.022
N3840 X5.4591 Y-.5603 Z-.0227
N3850 X5.4478 Y-.5513 Z-.0235
N3860 X5.4381 Y-.5398 Z-.0243
N3870 X5.431 Y-.5267 Z-.025
N3880 X5.4265 Y-.5124 Z-.0258
N3890 X5.425 Y-.4975 Z-.0266
N3900 X5.4265 Y-.4829 Z-.0274
N3910 X5.4307 Y-.4688 Z-.0282
N3920 X5.4377 Y-.4559 Z-.0289
N3930 X5.447 Y-.4445 Z-.0297
N3940 X5.4584 Y-.4352 Z-.0305
N3950 X5.4713 Y-.4282 Z-.0313
N3960 X5.4854 Y-.424 Z-.032
N3970 X5.5 Y-.4225 Z-.0328
N3980 X5.5146 Y-.424 Z-.0336
N3990 X5.5287 Y-.4282 Z-.0344
N4000 X5.5416 Y-.4352 Z-.0351
N4010 X5.553 Y-.4445 Z-.0359
N4020 X5.5623 Y-.4559 Z-.0367
N4030 X5.5693 Y-.4688 Z-.0374
N4040 X5.5735 Y-.4829 Z-.0382
N4050 X5.575 Y-.4975 Z-.039
N4060 X5.5735 Y-.5121 Z-.0398
N4070 X5.5693 Y-.5262 Z-.0406
N4080 X5.5623 Y-.5391 Z-.0413
N4090 X5.553 Y-.5505 Z-.0421
N4100 X5.5416 Y-.5598 Z-.0429
N4110 X5.5287 Y-.5668 Z-.0436
N4120 X5.5146 Y-.571 Z-.0444
N4130 X5.5 Y-.5725 Z-.0452
N4140 X5.4857 Y-.5711 Z-.0459
N4150 X5.4718 Y-.567 Z-.0467
N4160 X5.4591 Y-.5603 Z-.0474
N4170 X5.4478 Y-.5513 Z-.0482
N4180 X5.4381 Y-.5398 Z-.049
N4190 X5.431 Y-.5267 Z-.0498
N4200 X5.4265 Y-.5124 Z-.0505
N4210 X5.425 Y-.4975 Z-.0513
N4220 X5.4265 Y-.4829 Z-.0521
N4230 X5.4307 Y-.4688 Z-.0529
N4240 X5.4377 Y-.4559 Z-.0536
N4250 X5.447 Y-.4445 Z-.0544
N4260 X5.4584 Y-.4352 Z-.0552
N4270 X5.4713 Y-.4282 Z-.0559
N4280 X5.4854 Y-.424 Z-.0567
N4290 X5.5 Y-.4225 Z-.0575
N4300 Y-.4631
N4310 G3 X5.4631 Y-.5 I0. J-.0369
N4320 X5.5 Y-.5369 I.0369 J0.
N4330 X5.5369 Y-.5 I0. J.0369
N4340 X5.5 Y-.4631 I-.0369 J0.
N4350 G1 Y-.4163
N4360 G3 X5.4163 Y-.5 I0. J-.0837
N4370 X5.5 Y-.5837 I.0837 J0.
N4380 X5.5837 Y-.5 I0. J.0837
N4390 X5.5 Y-.4163 I-.0837 J0.
N4400 G1 Y-.3225
N4410 G3 X5.3225 Y-.5 I0. J-.1775
N4420 X5.5 Y-.6775 I.1775 J0.
N4430 X5.6775 Y-.5 I0. J.1775
N4440 X5.5 Y-.3225 I-.1775 J0.
N4450 G0 Z.25
N4460 X5.4478 Y-.5513
N4470 Z.0425
N4480 G1 X5.4381 Y-.5398 Z.0417
N4490 X5.431 Y-.5267 Z.041
N4500 X5.4265 Y-.5124 Z.0402
N4510 X5.425 Y-.4975 Z.0394
N4520 X5.4265 Y-.4829 Z.0386
N4530 X5.4307 Y-.4688 Z.0378
N4540 X5.4377 Y-.4559 Z.0371
N4550 X5.447 Y-.4445 Z.0363
N4560 X5.4584 Y-.4352 Z.0355
N4570 X5.4713 Y-.4282 Z.0348
N4580 X5.4854 Y-.424 Z.034
N4590 X5.5 Y-.4225 Z.0332
N4600 X5.5146 Y-.424 Z.0324
N4610 X5.5287 Y-.4282 Z.0316
N4620 X5.5416 Y-.4352 Z.0309
N4630 X5.553 Y-.4445 Z.0301
N4640 X5.5623 Y-.4559 Z.0293
N4650 X5.5693 Y-.4688 Z.0285
N4660 X5.5735 Y-.4829 Z.0278
N4670 X5.575 Y-.4975 Z.027
N4680 X5.5735 Y-.5121 Z.0262
N4690 X5.5693 Y-.5262 Z.0255
N4700 X5.5623 Y-.5391 Z.0247
N4710 X5.553 Y-.5505 Z.0239
N4720 X5.5416 Y-.5598 Z.0231
N4730 X5.5287 Y-.5668 Z.0223
N4740 X5.5146 Y-.571 Z.0216
N4750 X5.5 Y-.5725 Z.0208
N4760 X5.4857 Y-.5711 Z.02
N4770 X5.4718 Y-.567 Z.0193
N4780 X5.4591 Y-.5603 Z.0186
N4790 X5.4478 Y-.5513 Z.0178
N4800 X5.4381 Y-.5398 Z.017
N4810 X5.431 Y-.5267 Z.0163
N4820 X5.4265 Y-.5124 Z.0155
N4830 X5.425 Y-.4975 Z.0147
N4840 X5.4265 Y-.4829 Z.0139
N4850 X5.4307 Y-.4688 Z.0132
N4860 X5.4377 Y-.4559 Z.0124
N4870 X5.447 Y-.4445 Z.0116
N4880 X5.4584 Y-.4352 Z.0108
N4890 X5.4713 Y-.4282 Z.01
N4900 X5.4854 Y-.424 Z.0093
N4910 X5.5 Y-.4225 Z.0085
N4920 X5.5146 Y-.424 Z.0077
N4930 X5.5287 Y-.4282 Z.007
N4940 X5.5416 Y-.4352 Z.0062
N4950 X5.553 Y-.4445 Z.0054
N4960 X5.5623 Y-.4559 Z.0046
N4970 X5.5693 Y-.4688 Z.0039
N4980 X5.5735 Y-.4829 Z.0031
N4990 X5.575 Y-.4975 Z.0023
N5000 X5.5735 Y-.5121 Z.0015
N5010 X5.5693 Y-.5262 Z.0008
N5020 X5.5623 Y-.5391 Z0.
N5030 X5.553 Y-.5505 Z-.0008
N5040 X5.5416 Y-.5598 Z-.0016
N5050 X5.5287 Y-.5668 Z-.0023
N5060 X5.5146 Y-.571 Z-.0031
N5070 X5.5 Y-.5725 Z-.0039
N5080 X5.4857 Y-.5711 Z-.0046
N5090 X5.4718 Y-.567 Z-.0054
N5100 X5.4591 Y-.5603 Z-.0062
N5110 X5.4478 Y-.5513 Z-.0069
N5120 X5.4381 Y-.5398 Z-.0077
N5130 X5.431 Y-.5267 Z-.0084
N5140 X5.4265 Y-.5124 Z-.0092
N5150 X5.425 Y-.4975 Z-.01
N5160 X5.4265 Y-.4829 Z-.0108
N5170 X5.4307 Y-.4688 Z-.0115
N5180 X5.4377 Y-.4559 Z-.0123
N5190 X5.447 Y-.4445 Z-.0131
N5200 X5.4584 Y-.4352 Z-.0139
N5210 X5.4713 Y-.4282 Z-.0146
N5220 X5.4854 Y-.424 Z-.0154
N5230 X5.5 Y-.4225 Z-.0162
N5240 X5.5146 Y-.424 Z-.017
N5250 X5.5287 Y-.4282 Z-.0177
N5260 X5.5416 Y-.4352 Z-.0185
N5270 X5.553 Y-.4445 Z-.0193
N5280 X5.5623 Y-.4559 Z-.0201
N5290 X5.5693 Y-.4688 Z-.0209
N5300 X5.5735 Y-.4829 Z-.0216
N5310 X5.575 Y-.4975 Z-.0224
N5320 X5.5735 Y-.5121 Z-.0232
N5330 X5.5693 Y-.5262 Z-.0239
N5340 X5.5623 Y-.5391 Z-.0247
N5350 X5.553 Y-.5505 Z-.0255
N5360 X5.5416 Y-.5598 Z-.0263
N5370 X5.5287 Y-.5668 Z-.0271
N5380 X5.5146 Y-.571 Z-.0278
N5390 X5.5 Y-.5725 Z-.0286
N5400 X5.4857 Y-.5711 Z-.0294
N5410 X5.4718 Y-.567 Z-.0301
N5420 X5.4591 Y-.5603 Z-.0309
N5430 X5.4478 Y-.5513 Z-.0316
N5440 X5.4381 Y-.5398 Z-.0324
N5450 X5.431 Y-.5267 Z-.0331
N5460 X5.4265 Y-.5124 Z-.0339
N5470 X5.425 Y-.4975 Z-.0347
N5480 X5.4265 Y-.4829 Z-.0355
N5490 X5.4307 Y-.4688 Z-.0363
N5500 X5.4377 Y-.4559 Z-.037
N5510 X5.447 Y-.4445 Z-.0378
N5520 X5.4584 Y-.4352 Z-.0386
N5530 X5.4713 Y-.4282 Z-.0393
N5540 X5.4854 Y-.424 Z-.0401
N5550 X5.5 Y-.4225 Z-.0409
N5560 X5.5146 Y-.424 Z-.0417
N5570 X5.5287 Y-.4282 Z-.0425
N5580 X5.5416 Y-.4352 Z-.0432
N5590 X5.553 Y-.4445 Z-.044
N5600 X5.5623 Y-.4559 Z-.0448
N5610 X5.5693 Y-.4688 Z-.0456
N5620 X5.5735 Y-.4829 Z-.0463
N5630 X5.575 Y-.4975 Z-.0471
N5640 X5.5735 Y-.5121 Z-.0479
N5650 X5.5693 Y-.5262 Z-.0486
N5660 X5.5623 Y-.5391 Z-.0494
N5670 X5.553 Y-.5505 Z-.0502
N5680 X5.5416 Y-.5598 Z-.051
N5690 X5.5287 Y-.5668 Z-.0518
N5700 X5.5146 Y-.571 Z-.0525
N5710 X5.5 Y-.5725 Z-.0533
N5720 X5.4857 Y-.5711 Z-.0541
N5730 X5.4718 Y-.567 Z-.0548
N5740 X5.4591 Y-.5603 Z-.0556
N5750 X5.4478 Y-.5513 Z-.0563
N5760 X5.4381 Y-.5398 Z-.0571
N5770 X5.431 Y-.5267 Z-.0578
N5780 X5.4265 Y-.5124 Z-.0586
N5790 X5.425 Y-.4975 Z-.0594
N5800 X5.4265 Y-.4829 Z-.0602
N5810 X5.4307 Y-.4688 Z-.061
N5820 X5.4377 Y-.4559 Z-.0617
N5830 X5.447 Y-.4445 Z-.0625
N5840 X5.4584 Y-.4352 Z-.0633
N5850 X5.4713 Y-.4282 Z-.0641
N5860 X5.4854 Y-.424 Z-.0648
N5870 X5.5 Y-.4225 Z-.0656
N5880 X5.5146 Y-.424 Z-.0664
N5890 X5.5287 Y-.4282 Z-.0672
N5900 X5.5416 Y-.4352 Z-.0679
N5910 X5.553 Y-.4445 Z-.0687
N5920 X5.5623 Y-.4559 Z-.0695
N5930 X5.5693 Y-.4688 Z-.0703
N5940 X5.5735 Y-.4829 Z-.071
N5950 X5.575 Y-.4975 Z-.0718
N5960 X5.5735 Y-.5121 Z-.0726
N5970 X5.5693 Y-.5262 Z-.0733
N5980 X5.5623 Y-.5391 Z-.0741
N5990 X5.553 Y-.5505 Z-.0749
N6000 X5.5416 Y-.5598 Z-.0757
N6010 X5.5287 Y-.5668 Z-.0765
N6020 X5.5146 Y-.571 Z-.0772
N6030 X5.5 Y-.5725 Z-.078
N6040 X5.4857 Y-.5711 Z-.0788
N6050 X5.4718 Y-.567 Z-.0795
N6060 X5.4591 Y-.5603 Z-.0803
N6070 X5.4478 Y-.5513 Z-.081
N6080 X5.4381 Y-.5398 Z-.0818
N6090 X5.431 Y-.5267 Z-.0825
N6100 X5.4265 Y-.5124 Z-.0833
N6110 X5.425 Y-.4975 Z-.0841
N6120 X5.4265 Y-.4829 Z-.0849
N6130 X5.4307 Y-.4688 Z-.0857
N6140 X5.4377 Y-.4559 Z-.0864
N6150 X5.447 Y-.4445 Z-.0872
N6160 X5.4584 Y-.4352 Z-.088
N6170 X5.4713 Y-.4282 Z-.0887
N6180 X5.4854 Y-.424 Z-.0895
N6190 X5.5 Y-.4225 Z-.0903
N6200 X5.5146 Y-.424 Z-.0911
N6210 X5.5287 Y-.4282 Z-.0919
N6220 X5.5416 Y-.4352 Z-.0926
N6230 X5.553 Y-.4445 Z-.0934
N6240 X5.5623 Y-.4559 Z-.0942
N6250 X5.5693 Y-.4688 Z-.095
N6260 X5.5735 Y-.4829 Z-.0957
N6270 X5.575 Y-.4975 Z-.0965
N6280 X5.5735 Y-.5121 Z-.0973
N6290 X5.5693 Y-.5262 Z-.098
N6300 X5.5623 Y-.5391 Z-.0988
N6310 X5.553 Y-.5505 Z-.0996
N6320 X5.5416 Y-.5598 Z-.1004
N6330 X5.5287 Y-.5668 Z-.1012
N6340 X5.5146 Y-.571 Z-.1019
N6350 X5.5 Y-.5725 Z-.1027
N6360 X5.4857 Y-.5711 Z-.1035
N6370 X5.4718 Y-.567 Z-.1042
N6380 X5.4591 Y-.5603 Z-.105
N6390 X5.4478 Y-.5513 Z-.1057
N6400 X5.4381 Y-.5398 Z-.1065
N6410 X5.431 Y-.5267 Z-.1072
N6420 X5.4265 Y-.5124 Z-.108
N6430 X5.425 Y-.4975 Z-.1088
N6440 X5.4265 Y-.4829 Z-.1096
N6450 X5.4307 Y-.4688 Z-.1104
N6460 X5.4377 Y-.4559 Z-.1111
N6470 X5.447 Y-.4445 Z-.1119
N6480 X5.4584 Y-.4352 Z-.1127
N6490 X5.4713 Y-.4282 Z-.1134
N6500 X5.4854 Y-.424 Z-.1142
N6510 X5.5 Y-.4225 Z-.115
N6520 Y-.4631
N6530 G3 X5.4631 Y-.5 I0. J-.0369
N6540 X5.5 Y-.5369 I.0369 J0.
N6550 X5.5369 Y-.5 I0. J.0369
N6560 X5.5 Y-.4631 I-.0369 J0.
N6570 G1 Y-.4163
N6580 G3 X5.4163 Y-.5 I0. J-.0837
N6590 X5.5 Y-.5837 I.0837 J0.
N6600 X5.5837 Y-.5 I0. J.0837
N6610 X5.5 Y-.4163 I-.0837 J0.
N6620 G1 Y-.3225
N6630 G3 X5.3225 Y-.5 I0. J-.1775
N6640 X5.5 Y-.6775 I.1775 J0.
N6650 X5.6775 Y-.5 I0. J.1775
N6660 X5.5 Y-.3225 I-.1775 J0.
N6670 G0 Z.25
N6680 X5.4478 Y-.5513
N6690 Z.0325
N6700 G1 X5.4381 Y-.5398 Z.0317
N6710 X5.431 Y-.5267 Z.0309
N6720 X5.4265 Y-.5124 Z.0302
N6730 X5.425 Y-.4975 Z.0294
N6740 X5.4265 Y-.4829 Z.0286
N6750 X5.4307 Y-.4688 Z.0278
N6760 X5.4377 Y-.4559 Z.0271
N6770 X5.447 Y-.4445 Z.0263
N6780 X5.4584 Y-.4352 Z.0255
N6790 X5.4713 Y-.4282 Z.0247
N6800 X5.4854 Y-.424 Z.024
N6810 X5.5 Y-.4225 Z.0232
N6820 X5.5146 Y-.424 Z.0224
N6830 X5.5287 Y-.4282 Z.0216
N6840 X5.5416 Y-.4352 Z.0209
N6850 X5.553 Y-.4445 Z.0201
N6860 X5.5623 Y-.4559 Z.0193
N6870 X5.5693 Y-.4688 Z.0186
N6880 X5.5735 Y-.4829 Z.0178
N6890 X5.575 Y-.4975 Z.017
N6900 X5.5735 Y-.5121 Z.0162
N6910 X5.5693 Y-.5262 Z.0155
N6920 X5.5623 Y-.5391 Z.0147
N6930 X5.553 Y-.5505 Z.0139
N6940 X5.5416 Y-.5598 Z.0131
N6950 X5.5287 Y-.5668 Z.0123
N6960 X5.5146 Y-.571 Z.0116
N6970 X5.5 Y-.5725 Z.0108
N6980 X5.4857 Y-.5711 Z.01
N6990 X5.4718 Y-.567 Z.0093
N7000 X5.4591 Y-.5603 Z.0086
N7010 X5.4478 Y-.5513 Z.0078
N7020 X5.4381 Y-.5398 Z.007
N7030 X5.431 Y-.5267 Z.0063
N7040 X5.4265 Y-.5124 Z.0055
N7050 X5.425 Y-.4975 Z.0047
N7060 X5.4265 Y-.4829 Z.0039
N7070 X5.4307 Y-.4688 Z.0032
N7080 X5.4377 Y-.4559 Z.0024
N7090 X5.447 Y-.4445 Z.0016
N7100 X5.4584 Y-.4352 Z.0008
N7110 X5.4713 Y-.4282 Z0.
N7120 X5.4854 Y-.424 Z-.0007
N7130 X5.5 Y-.4225 Z-.0015
N7140 X5.5146 Y-.424 Z-.0023
N7150 X5.5287 Y-.4282 Z-.0031
N7160 X5.5416 Y-.4352 Z-.0038
N7170 X5.553 Y-.4445 Z-.0046
N7180 X5.5623 Y-.4559 Z-.0054
N7190 X5.5693 Y-.4688 Z-.0062
N7200 X5.5735 Y-.4829 Z-.0069
N7210 X5.575 Y-.4975 Z-.0077
N7220 X5.5735 Y-.5121 Z-.0085
N7230 X5.5693 Y-.5262 Z-.0092
N7240 X5.5623 Y-.5391 Z-.01
N7250 X5.553 Y-.5505 Z-.0108
N7260 X5.5416 Y-.5598 Z-.0116
N7270 X5.5287 Y-.5668 Z-.0123
N7280 X5.5146 Y-.571 Z-.0131
N7290 X5.5 Y-.5725 Z-.0139
N7300 X5.4857 Y-.5711 Z-.0146
N7310 X5.4718 Y-.567 Z-.0154
N7320 X5.4591 Y-.5603 Z-.0161
N7330 X5.4478 Y-.5513 Z-.0169
N7340 X5.4381 Y-.5398 Z-.0177
N7350 X5.431 Y-.5267 Z-.0185
N7360 X5.4265 Y-.5124 Z-.0192
N7370 X5.425 Y-.4975 Z-.02
N7380 X5.4265 Y-.4829 Z-.0208
N7390 X5.4307 Y-.4688 Z-.0215
N7400 X5.4377 Y-.4559 Z-.0223
N7410 X5.447 Y-.4445 Z-.0231
N7420 X5.4584 Y-.4352 Z-.0239
N7430 X5.4713 Y-.4282 Z-.0247
N7440 X5.4854 Y-.424 Z-.0254
N7450 X5.5 Y-.4225 Z-.0262
N7460 X5.5146 Y-.424 Z-.027
N7470 X5.5287 Y-.4282 Z-.0278
N7480 X5.5416 Y-.4352 Z-.0285
N7490 X5.553 Y-.4445 Z-.0293
N7500 X5.5623 Y-.4559 Z-.0301
N7510 X5.5693 Y-.4688 Z-.0308
N7520 X5.5735 Y-.4829 Z-.0316
N7530 X5.575 Y-.4975 Z-.0324
N7540 X5.5735 Y-.5121 Z-.0332
N7550 X5.5693 Y-.5262 Z-.034
N7560 X5.5623 Y-.5391 Z-.0347
N7570 X5.553 Y-.5505 Z-.0355
N7580 X5.5416 Y-.5598 Z-.0363
N7590 X5.5287 Y-.5668 Z-.037
N7600 X5.5146 Y-.571 Z-.0378
N7610 X5.5 Y-.5725 Z-.0386
N7620 X5.4857 Y-.5711 Z-.0394
N7630 X5.4718 Y-.567 Z-.0401
N7640 X5.4591 Y-.5603 Z-.0408
N7650 X5.4478 Y-.5513 Z-.0416
N7660 X5.4381 Y-.5398 Z-.0424
N7670 X5.431 Y-.5267 Z-.0431
N7680 X5.4265 Y-.5124 Z-.0439
N7690 X5.425 Y-.4975 Z-.0447
N7700 X5.4265 Y-.4829 Z-.0455
N7710 X5.4307 Y-.4688 Z-.0462
N7720 X5.4377 Y-.4559 Z-.047
N7730 X5.447 Y-.4445 Z-.0478
N7740 X5.4584 Y-.4352 Z-.0486
N7750 X5.4713 Y-.4282 Z-.0493
N7760 X5.4854 Y-.424 Z-.0501
N7770 X5.5 Y-.4225 Z-.0509
N7780 X5.5146 Y-.424 Z-.0517
N7790 X5.5287 Y-.4282 Z-.0524
N7800 X5.5416 Y-.4352 Z-.0532
N7810 X5.553 Y-.4445 Z-.054
N7820 X5.5623 Y-.4559 Z-.0548
N7830 X5.5693 Y-.4688 Z-.0556
N7840 X5.5735 Y-.4829 Z-.0563
N7850 X5.575 Y-.4975 Z-.0571
N7860 X5.5735 Y-.5121 Z-.0579
N7870 X5.5693 Y-.5262 Z-.0586
N7880 X5.5623 Y-.5391 Z-.0594
N7890 X5.553 Y-.5505 Z-.0602
N7900 X5.5416 Y-.5598 Z-.061
N7910 X5.5287 Y-.5668 Z-.0617
N7920 X5.5146 Y-.571 Z-.0625
N7930 X5.5 Y-.5725 Z-.0633
N7940 X5.4857 Y-.5711 Z-.064
N7950 X5.4718 Y-.567 Z-.0648
N7960 X5.4591 Y-.5603 Z-.0655
N7970 X5.4478 Y-.5513 Z-.0663
N7980 X5.4381 Y-.5398 Z-.0671
N7990 X5.431 Y-.5267 Z-.0678
N8000 X5.4265 Y-.5124 Z-.0686
N8010 X5.425 Y-.4975 Z-.0694
N8020 X5.4265 Y-.4829 Z-.0702
N8030 X5.4307 Y-.4688 Z-.0709
N8040 X5.4377 Y-.4559 Z-.0717
N8050 X5.447 Y-.4445 Z-.0725
N8060 X5.4584 Y-.4352 Z-.0733
N8070 X5.4713 Y-.4282 Z-.0741
N8080 X5.4854 Y-.424 Z-.0748
N8090 X5.5 Y-.4225 Z-.0756
N8100 X5.5146 Y-.424 Z-.0764
N8110 X5.5287 Y-.4282 Z-.0771
N8120 X5.5416 Y-.4352 Z-.0779
N8130 X5.553 Y-.4445 Z-.0787
N8140 X5.5623 Y-.4559 Z-.0795
N8150 X5.5693 Y-.4688 Z-.0803
N8160 X5.5735 Y-.4829 Z-.081
N8170 X5.575 Y-.4975 Z-.0818
N8180 X5.5735 Y-.5121 Z-.0826
N8190 X5.5693 Y-.5262 Z-.0833
N8200 X5.5623 Y-.5391 Z-.0841
N8210 X5.553 Y-.5505 Z-.0849
N8220 X5.5416 Y-.5598 Z-.0857
N8230 X5.5287 Y-.5668 Z-.0864
N8240 X5.5146 Y-.571 Z-.0872
N8250 X5.5 Y-.5725 Z-.088
N8260 X5.4857 Y-.5711 Z-.0887
N8270 X5.4718 Y-.567 Z-.0895
N8280 X5.4591 Y-.5603 Z-.0902
N8290 X5.4478 Y-.5513 Z-.091
N8300 X5.4381 Y-.5398 Z-.0918
N8310 X5.431 Y-.5267 Z-.0925
N8320 X5.4265 Y-.5124 Z-.0933
N8330 X5.425 Y-.4975 Z-.0941
N8340 X5.4265 Y-.4829 Z-.0949
N8350 X5.4307 Y-.4688 Z-.0956
N8360 X5.4377 Y-.4559 Z-.0964
N8370 X5.447 Y-.4445 Z-.0972
N8380 X5.4584 Y-.4352 Z-.098
N8390 X5.4713 Y-.4282 Z-.0988
N8400 X5.4854 Y-.424 Z-.0995
N8410 X5.5 Y-.4225 Z-.1003
N8420 X5.5146 Y-.424 Z-.1011
N8430 X5.5287 Y-.4282 Z-.1018
N8440 X5.5416 Y-.4352 Z-.1026
N8450 X5.553 Y-.4445 Z-.1034
N8460 X5.5623 Y-.4559 Z-.1042
N8470 X5.5693 Y-.4688 Z-.105
N8480 X5.5735 Y-.4829 Z-.1057
N8490 X5.575 Y-.4975 Z-.1065
N8500 X5.5735 Y-.5121 Z-.1073
N8510 X5.5693 Y-.5262 Z-.108
N8520 X5.5623 Y-.5391 Z-.1088
N8530 X5.553 Y-.5505 Z-.1096
N8540 X5.5416 Y-.5598 Z-.1104
N8550 X5.5287 Y-.5668 Z-.1111
N8560 X5.5146 Y-.571 Z-.1119
N8570 X5.5 Y-.5725 Z-.1127
N8580 X5.4857 Y-.5711 Z-.1134
N8590 X5.4718 Y-.567 Z-.1142
N8600 X5.4591 Y-.5603 Z-.1149
N8610 X5.4478 Y-.5513 Z-.1157
N8620 X5.4381 Y-.5398 Z-.1165
N8630 X5.431 Y-.5267 Z-.1172
N8640 X5.4265 Y-.5124 Z-.118
N8650 X5.425 Y-.4975 Z-.1188
N8660 X5.4265 Y-.4829 Z-.1196
N8670 X5.4307 Y-.4688 Z-.1203
N8680 X5.4377 Y-.4559 Z-.1211
N8690 X5.447 Y-.4445 Z-.1219
N8700 X5.4584 Y-.4352 Z-.1227
N8710 X5.4713 Y-.4282 Z-.1235
N8720 X5.4854 Y-.424 Z-.1242
N8730 X5.5 Y-.4225 Z-.125
N8740 Y-.4631
N8750 G3 X5.4631 Y-.5 I0. J-.0369
N8760 X5.5 Y-.5369 I.0369 J0.
N8770 X5.5369 Y-.5 I0. J.0369
N8780 X5.5 Y-.4631 I-.0369 J0.
N8790 G1 Y-.4163
N8800 G3 X5.4163 Y-.5 I0. J-.0837
N8810 X5.5 Y-.5837 I.0837 J0.
N8820 X5.5837 Y-.5 I0. J.0837
N8830 X5.5 Y-.4163 I-.0837 J0.
N8840 G1 Y-.3225
N8850 G3 X5.3225 Y-.5 I0. J-.1775
N8860 X5.5 Y-.6775 I.1775 J0.
N8870 X5.6775 Y-.5 I0. J.1775
N8880 X5.5 Y-.3225 I-.1775 J0.
N8890 G0 Z.25
N8900 X5.3875 Y-.4625
N8910 Z-.015
N8920 G1 Z-.125 F4.
N8930 X5.35 F15.
N8940 G3 X5.3125 Y-.5 I0. J-.0375
N8950 X5.5 Y-.6875 I.1875 J0.
N8960 X5.6875 Y-.5 I0. J.1875
N8970 X5.5 Y-.3125 I-.1875 J0.
N8980 X5.3125 Y-.5 I0. J-.1875
N8990 X5.35 Y-.5375 I.0375 J0.
N9000 G1 X5.3875
N9010 G0 Z.25
N9020 M5
N9030 G91 G28 Z0. M9
N9040 G28 X0. Y0.
N9050 M30
%
