%
O0
(BASE_TOP_OP_1_V1)
(DATE=DD-MM-YY - 28-04-23 TIME=HH:MM - 14:28)
(MCAM FILE - C:\USERS\PPAK\DOWNLOADS\BASE_ALL_OPS_V1.EMCAM)
(NC FILE - C:\USERS\PPAK\DOCUMENTS\MY MASTERCAM 2020\MASTERCAM\MILL\NC\BASE_TOP)
(MATERIAL - ALUMINUM INCH - 6061)
(T1| 3/8 BALL ENDMILL|H1|D1|TOOL DIA. - .375)
(T2| 1/8 CENTERDRILL|H2|D2|TOOL DIA. - .125)
(T3| NO. 27 DRILL|H3|D3|TOOL DIA. - .144)
(T4| 3/8 FLAT ENDMILL|H4|D4|TOOL DIA. - .375)
(T5|0.375 ROUNDOVER TOOL|H5|D5|TOOL DIA. - .375|XY STOCK - .125|Z STOCK - 0.)
N100 G20
N110 G0 G17 G40 G49 G80 G90
N120 T1 M6
N130 G187 P3 E.001
N140 G0 G90 G54 X5.5 Y-5.135 S2000 M3
N150 G43 H1 Z.25
N160 M8
N170 Z.1
N180 G1 Z-.0767 F6.
N190 X.5 F10.
N200 G3 X.385 Y-5.25 I0. J-.115
N210 X.5 Y-5.365 I.115 J0.
N220 G1 X5.5
N230 G3 X5.615 Y-5.25 I0. J.115
N240 X5.5 Y-5.135 I-.115 J0.
N250 G1 Z-.1533 F6.
N260 X.5 F10.
N270 G3 X.385 Y-5.25 I0. J-.115
N280 X.5 Y-5.365 I.115 J0.
N290 G1 X5.5
N300 G3 X5.615 Y-5.25 I0. J.115
N310 X5.5 Y-5.135 I-.115 J0.
N320 G1 Z-.23 F6.
N330 X.5 F10.
N340 G3 X.385 Y-5.25 I0. J-.115
N350 X.5 Y-5.365 I.115 J0.
N360 G1 X5.5
N370 G3 X5.615 Y-5.25 I0. J.115
N380 X5.5 Y-5.135 I-.115 J0.
N390 G1 Z-.24 F6.
N400 X.5 F10.
N410 G3 X.385 Y-5.25 I0. J-.115
N420 X.5 Y-5.365 I.115 J0.
N430 G1 X5.5
N440 G3 X5.615 Y-5.25 I0. J.115
N450 X5.5 Y-5.135 I-.115 J0.
N460 G1 Z-.25 F6.
N470 X.5 F10.
N480 G3 X.385 Y-5.25 I0. J-.115
N490 X.5 Y-5.365 I.115 J0.
N500 G1 X5.5
N510 G3 X5.615 Y-5.25 I0. J.115
N520 X5.5 Y-5.135 I-.115 J0.
N530 G0 Z.25
N540 X3.1125 Y-5.35
N550 Z-.14
N560 G1 Z-.25 F6.
N570 Y-5.2375 F10.
N580 G3 X3. Y-5.125 I-.1125 J0.
N590 G1 X.5
N600 G3 X.375 Y-5.25 I0. J-.125
N610 X.5 Y-5.375 I.125 J0.
N620 G1 X5.5
N630 G3 X5.625 Y-5.25 I0. J.125
N640 X5.5 Y-5.125 I-.125 J0.
N650 G1 X3.
N660 G3 X2.8875 Y-5.2375 I0. J-.1125
N670 G1 Y-5.35
N680 G0 Z.25
N690 S3259 M3
N700 M9
N710 G187 P3 E.001
N720 X.4861 Y-5.374
N730 Z-.0919
N740 G1 Z-.1919 F7.7
N750 X.4867 Z-.1931 F15.4
N760 X.4929 Z-.1971
N770 X.4938 Z-.1973
N780 X.4997
N790 X.5 Z-.1972
N800 X.5003 Z-.1973
N810 X.5072
N820 Z-.1981
N830 X5.4928
N840 Z-.1973
N850 X5.4997
N860 X5.5 Z-.1972
N870 X5.5003 Z-.1973
N880 X5.5062
N890 X5.5071 Z-.1971
N900 X5.5133 Z-.1931
N910 X5.5137 Z-.1923
N920 G0 Z-.0923
N930 Z.25
N940 X5.5503 Y-5.3641
N950 Z-.0928
N960 G1 Z-.1928 F7.7
N970 Z-.1931 F15.4
N980 X5.5485 Z-.1986
N990 X5.5475 Z-.2004
N1000 X5.5452 Z-.204
N1010 X5.5404 Z-.2092
N1020 X5.5378 Z-.2114
N1030 X5.5337 Z-.2142
N1040 X5.529 Z-.2167
N1050 X5.5237 Z-.2188
N1060 X5.5209 Z-.2198
N1070 X5.5135 Z-.2215
N1080 X5.5065 Z-.2225
N1090 X5.5018 Z-.2227
N1100 X5.5 Z-.2224
N1110 X5.4987 Z-.2226
N1120 X.5013
N1130 X.5 Z-.2224
N1140 X.4982 Z-.2227
N1150 X.4935 Z-.2225
N1160 X.4865 Z-.2215
N1170 X.4791 Z-.2198
N1180 X.4763 Z-.2188
N1190 X.471 Z-.2167
N1200 X.4663 Z-.2142
N1210 X.4622 Z-.2114
N1220 X.4596 Z-.2092
N1230 X.4548 Z-.204
N1240 X.4525 Z-.2004
N1250 X.4515 Z-.1986
N1260 X.4498 Z-.1933
N1270 Z-.1915
N1280 X.4314 Y-5.3542
N1290 X.4315 Z-.1931
N1300 X.4329 Z-.1986
N1310 X.4352 Z-.2043
N1320 X.4384 Z-.2092
N1330 X.4426 Z-.2142
N1340 X.4466 Z-.2179
N1350 X.4477 Z-.2188
N1360 X.4543 Z-.2232
N1370 X.4566 Z-.2244
N1380 X.4655 Z-.2284
N1390 X.4735 Z-.2308
N1400 X.4809 Z-.2324
N1410 X.4877 Z-.2334
N1420 X.494 Z-.2339
N1430 X.4975
N1440 X.5 Z-.2336
N1450 X.5025 Z-.2339
N1460 X5.4975
N1470 X5.5 Z-.2336
N1480 X5.5025 Z-.2339
N1490 X5.5072 Z-.2338
N1500 X5.5129 Z-.2333
N1510 X5.5191 Z-.2324
N1520 X5.5265 Z-.2308
N1530 X5.5351 Z-.2282
N1540 X5.5434 Z-.2244
N1550 X5.5457 Z-.2232
N1560 X5.5527 Z-.2185
N1570 X5.5534 Z-.2179
N1580 X5.5574 Z-.2142
N1590 X5.5616 Z-.2092
N1600 X5.565 Z-.204
N1610 X5.5671 Z-.1986
N1620 X5.5685 Z-.1931
N1630 X5.5686 Z-.1915
N1640 X5.5815 Y-5.3442
N1650 Z-.1933
N1660 X5.5804 Z-.1986
N1670 X5.5785 Z-.204
N1680 X5.5759 Z-.2092
N1690 X5.5726 Z-.2142
N1700 X5.5707 Z-.2165
N1710 X5.5685 Z-.2188
N1720 X5.5636 Z-.2232
N1730 X5.5586 Z-.2268
N1740 X5.5565 Z-.2282
N1750 X5.5478 Z-.2327
N1760 X5.5393 Z-.2358
N1770 X5.5344 Z-.2372
N1780 X5.5322 Z-.2377
N1790 X5.5239 Z-.2393
N1800 X5.5173 Z-.2403
N1810 X5.5111 Z-.2409
N1820 X5.5057 Z-.2412
N1830 X5.5022 Z-.2413
N1840 X5.5 Z-.241
N1850 X5.4977 Z-.2413
N1860 X.5023
N1870 X.5 Z-.241
N1880 X.4978 Z-.2413
N1890 X.495 Z-.2412
N1900 X.4898 Z-.241
N1910 X.4827 Z-.2403
N1920 X.4761 Z-.2393
N1930 X.4688 Z-.238
N1940 X.4656 Z-.2372
N1950 X.4607 Z-.2358
N1960 X.4528 Z-.2329
N1970 X.4517 Z-.2324
N1980 X.4435 Z-.2282
N1990 X.4414 Z-.2268
N2000 X.4364 Z-.2232
N2010 X.4315 Z-.2188
N2020 X.4293 Z-.2165
N2030 X.4274 Z-.2142
N2040 X.4241 Z-.2092
N2050 X.4215 Z-.204
N2060 X.4196 Z-.1986
N2070 X.4184 Z-.1931
N2080 Z-.1925
N2090 X.4083 Y-5.3343
N2100 Z-.1941
N2110 X.4093 Z-.199
N2120 X.4109 Z-.204
N2130 X.4132 Z-.2092
N2140 X.4162 Z-.2142
N2150 X.4197 Z-.2188
N2160 X.4239 Z-.2235
N2170 X.4296 Z-.2282
N2180 X.4368 Z-.2329
N2190 X.4456 Z-.2372
N2200 X.4475 Z-.2379
N2210 X.457 Z-.2411
N2220 X.4649 Z-.2428
N2230 X.4721 Z-.2442
N2240 X.4806 Z-.2451
N2250 X.4875 Z-.2456
N2260 X.4952 Z-.2459
N2270 X.4995 Z-.246
N2280 X.5 Z-.2459
N2290 X.5005 Z-.246
N2300 X5.4995
N2310 X5.5 Z-.2459
N2320 X5.5005 Z-.246
N2330 X5.508 Z-.2458
N2340 X5.5155 Z-.2454
N2350 X5.5228 Z-.2448
N2360 X5.5279 Z-.2442
N2370 X5.5351 Z-.2428
N2380 X5.5434 Z-.241
N2390 X5.5534 Z-.2376
N2400 X5.5544 Z-.2372
N2410 X5.5633 Z-.2329
N2420 X5.5704 Z-.2282
N2430 X5.5764 Z-.2232
N2440 X5.5803 Z-.2188
N2450 X5.5838 Z-.2142
N2460 X5.5868 Z-.2092
N2470 X5.5891 Z-.204
N2480 X5.5909 Z-.1983
N2490 X5.5918 Z-.1938
N2500 Z-.1934
N2510 X5.6001 Y-5.3244
N2520 X5.5992 Z-.1986
N2530 X5.5977 Z-.2036
N2540 X5.5954 Z-.2092
N2550 X5.5927 Z-.2142
N2560 X5.5896 Z-.2188
N2570 X5.586 Z-.2232
N2580 X5.5812 Z-.2279
N2590 X5.5746 Z-.2329
N2600 X5.5674 Z-.2372
N2610 X5.5587 Z-.241
N2620 X5.5573 Z-.2415
N2630 X5.5484 Z-.2442
N2640 X5.5421 Z-.2455
N2650 X5.5354 Z-.2467
N2660 X5.5323 Z-.2471
N2670 X5.5246 Z-.2479
N2680 X5.5147 Z-.2486
N2690 X5.5027 Z-.2488
N2700 X5.5 Z-.2485
N2710 X5.4971 Z-.2488
N2720 X.5029
N2730 X.5 Z-.2485
N2740 X.4973 Z-.2488
N2750 X.4865 Z-.2486
N2760 X.4811 Z-.2483
N2770 X.4716 Z-.2475
N2780 X.4646 Z-.2467
N2790 X.4619 Z-.2463
N2800 X.4516 Z-.2442
N2810 X.4442 Z-.242
N2820 X.4413 Z-.241
N2830 X.4328 Z-.2373
N2840 X.4254 Z-.2329
N2850 X.4193 Z-.2284
N2860 X.414 Z-.2232
N2870 X.4104 Z-.2188
N2880 X.4073 Z-.2142
N2890 X.4046 Z-.2092
N2900 X.4024 Z-.204
N2910 X.4008 Z-.1986
N2920 X.3999 Z-.1934
N2930 X.3933 Y-5.3145
N2940 Z-.1935
N2950 X.3942 Z-.1989
N2960 X.3956 Z-.204
N2970 X.3976 Z-.2092
N2980 X.4001 Z-.2142
N2990 X.4031 Z-.2188
N3000 X.4064 Z-.2232
N3010 X.4111 Z-.2282
N3020 X.414 Z-.2308
N3030 X.4166 Z-.2329
N3040 X.4232 Z-.2372
N3050 X.4305 Z-.241
N3060 X.439 Z-.2442
N3070 X.4418 Z-.245
N3080 X.4487 Z-.2467
N3090 X.46 Z-.2486
N3100 X.4731 Z-.2495
N3110 X.4786 Z-.2497
N3120 X.4973 Z-.2499
N3130 X.5 Z-.2496
N3140 X.5028 Z-.2499
N3150 X5.4972
N3160 X5.5 Z-.2496
N3170 X5.5027 Z-.2499
N3180 X5.5249 Z-.2496
N3190 X5.5353 Z-.2489
N3200 X5.5401 Z-.2485
N3210 X5.5513 Z-.2467
N3220 X5.5597 Z-.2445
N3230 X5.561 Z-.2442
N3240 X5.5698 Z-.2408
N3250 X5.5768 Z-.2372
N3260 X5.5834 Z-.2329
N3270 X5.586 Z-.2308
N3280 X5.5889 Z-.2282
N3290 X5.5936 Z-.2232
N3300 X5.5969 Z-.2188
N3310 X5.5999 Z-.2142
N3320 X5.6024 Z-.2092
N3330 X5.6044 Z-.204
N3340 X5.6059 Z-.1983
N3350 X5.6067 Z-.1935
N3360 X5.612 Y-5.3046
N3370 X5.6112 Z-.1986
N3380 X5.6099 Z-.204
N3390 X5.608 Z-.2092
N3400 X5.6056 Z-.2142
N3410 X5.6028 Z-.2188
N3420 X5.5997 Z-.2232
N3430 X5.5953 Z-.2282
N3440 X5.5903 Z-.2328
N3450 X5.5841 Z-.2372
N3460 X5.5774 Z-.241
N3470 X5.5759 Z-.2417
N3480 X5.57 Z-.2442
N3490 X5.5617 Z-.2467
N3500 X5.5526 Z-.2486
N3510 X5.5425 Z-.2496
N3520 X5.5303 Z-.25
N3530 X.4696
N3540 X.4575 Z-.2496
N3550 X.4474 Z-.2486
N3560 X.4383 Z-.2467
N3570 X.43 Z-.2442
N3580 X.4272 Z-.2431
N3590 X.4226 Z-.241
N3600 X.4159 Z-.2372
N3610 X.41 Z-.233
N3620 X.4047 Z-.2282
N3630 X.4003 Z-.2232
N3640 X.3972 Z-.2188
N3650 X.3944 Z-.2142
N3660 X.392 Z-.2092
N3670 X.3901 Z-.204
N3680 X.3888 Z-.1986
N3690 X.3879 Z-.1931
N3700 X.3837 Y-5.2946
N3710 Z-.1932
N3720 X.3845 Z-.1986
N3730 X.3858 Z-.204
N3740 X.3876 Z-.2092
N3750 X.3898 Z-.2142
N3760 X.3925 Z-.2188
N3770 X.3955 Z-.2232
N3780 X.3996 Z-.2282
N3790 X.4045 Z-.2329
N3800 X.4102 Z-.2372
N3810 X.4165 Z-.241
N3820 X.4233 Z-.2442
N3830 X.4308 Z-.2467
N3840 X.4387 Z-.2486
N3850 X.4473 Z-.2496
N3860 X.4564 Z-.25
N3870 X5.5436
N3880 X5.5527 Z-.2496
N3890 X5.5613 Z-.2486
N3900 X5.5692 Z-.2467
N3910 X5.5767 Z-.2442
N3920 X5.5835 Z-.241
N3930 X5.5898 Z-.2372
N3940 X5.5955 Z-.2329
N3950 X5.6004 Z-.2282
N3960 X5.6045 Z-.2232
N3970 X5.6075 Z-.2188
N3980 X5.6102 Z-.2142
N3990 X5.6124 Z-.2092
N4000 X5.6142 Z-.204
N4010 X5.6155 Z-.1986
N4020 X5.6163 Z-.1932
N4030 X5.6196 Y-5.2847
N4040 Z-.1933
N4050 X5.6189 Z-.1986
N4060 X5.6176 Z-.204
N4070 X5.6159 Z-.2092
N4080 X5.6137 Z-.2142
N4090 X5.6111 Z-.2188
N4100 X5.6083 Z-.2232
N4110 X5.6043 Z-.2282
N4120 X5.5997 Z-.2327
N4130 X5.5941 Z-.2372
N4140 X5.5881 Z-.241
N4150 X5.5816 Z-.2442
N4160 X5.5748 Z-.2467
N4170 X5.5674 Z-.2486
N4180 X5.5598 Z-.2496
N4190 X5.5519 Z-.25
N4200 X.4481
N4210 X.4402 Z-.2496
N4220 X.4326 Z-.2486
N4230 X.4252 Z-.2467
N4240 X.4184 Z-.2442
N4250 X.4119 Z-.241
N4260 X.4059 Z-.2372
N4270 X.4005 Z-.2329
N4280 X.3957 Z-.2282
N4290 X.3917 Z-.2232
N4300 X.3889 Z-.2188
N4310 X.3863 Z-.2142
N4320 X.3841 Z-.2092
N4330 X.3824 Z-.204
N4340 X.3811 Z-.1986
N4350 X.3804 Z-.1933
N4360 X.3779 Y-5.2748
N4370 X.3786 Z-.1986
N4380 X.3799 Z-.204
N4390 X.3815 Z-.2092
N4400 X.3837 Z-.2142
N4410 X.3861 Z-.2188
N4420 X.3889 Z-.2232
N4430 X.3932 Z-.2285
N4440 X.3976 Z-.2329
N4450 X.4028 Z-.2372
N4460 X.4086 Z-.241
N4470 X.4149 Z-.2442
N4480 X.4215 Z-.2467
N4490 X.4286 Z-.2486
N4500 X.4355 Z-.2496
N4510 X.4433 Z-.25
N4520 X5.5573
N4530 X5.5645 Z-.2496
N4540 X5.5718 Z-.2485
N4550 X5.5785 Z-.2467
N4560 X5.5851 Z-.2442
N4570 X5.5914 Z-.241
N4580 X5.5972 Z-.2372
N4590 X5.6024 Z-.2329
N4600 X5.6073 Z-.2279
N4610 X5.6111 Z-.2232
N4620 X5.6139 Z-.2188
N4630 X5.6163 Z-.2142
N4640 X5.6185 Z-.2092
N4650 X5.6201 Z-.204
N4660 X5.6214 Z-.1986
N4670 X5.6221 Z-.1933
N4680 X5.6238 Y-5.2649
N4690 X5.6231 Z-.1981
N4700 X5.6219 Z-.2035
N4710 X5.6203 Z-.2086
N4720 X5.618 Z-.2142
N4730 X5.6155 Z-.2188
N4740 X5.6127 Z-.2232
N4750 X5.6088 Z-.2282
N4760 X5.6043 Z-.2329
N4770 X5.5991 Z-.2372
N4780 X5.5935 Z-.241
N4790 X5.5874 Z-.2442
N4800 X5.581 Z-.2467
N4810 X5.5743 Z-.2486
N4820 X5.5675 Z-.2496
N4830 X5.5606 Z-.25
N4840 X.4394
N4850 X.4325 Z-.2496
N4860 X.4257 Z-.2486
N4870 X.419 Z-.2467
N4880 X.4126 Z-.2442
N4890 X.4065 Z-.241
N4900 X.4009 Z-.2372
N4910 X.3957 Z-.2329
N4920 X.3912 Z-.2282
N4930 X.3873 Z-.2232
N4940 X.3845 Z-.2188
N4950 X.382 Z-.2142
N4960 X.3801 Z-.2098
N4970 X.3784 Z-.2045
N4980 X.3771 Z-.1991
N4990 X.3762 Z-.1933
N5000 X.3756 Y-5.255
N5010 X.3763 Z-.1986
N5020 X.3775 Z-.204
N5030 X.3792 Z-.2092
N5040 X.3812 Z-.2142
N5050 X.3837 Z-.2188
N5060 X.3865 Z-.2232
N5070 X.3903 Z-.2282
N5080 X.3948 Z-.2329
N5090 X.3999 Z-.2372
N5100 X.4055 Z-.241
N5110 X.4115 Z-.2442
N5120 X.4178 Z-.2467
N5130 X.4244 Z-.2486
N5140 X.4311 Z-.2496
N5150 X.4378 Z-.25
N5160 X5.5622
N5170 X5.5689 Z-.2496
N5180 X5.5756 Z-.2486
N5190 X5.5822 Z-.2467
N5200 X5.5885 Z-.2442
N5210 X5.5945 Z-.241
N5220 X5.6001 Z-.2372
N5230 X5.6052 Z-.2329
N5240 X5.6097 Z-.2282
N5250 X5.6135 Z-.2232
N5260 X5.6163 Z-.2188
N5270 X5.6188 Z-.2142
N5280 X5.6208 Z-.2092
N5290 X5.6225 Z-.204
N5300 X5.6237 Z-.1986
N5310 X5.6244 Z-.1934
N5320 Y-5.245
N5330 X5.6237 Z-.1986
N5340 X5.6225 Z-.204
N5350 X5.6208 Z-.2092
N5360 X5.6188 Z-.2142
N5370 X5.6163 Z-.2188
N5380 X5.6135 Z-.2232
N5390 X5.6097 Z-.2282
N5400 X5.6052 Z-.2329
N5410 X5.6001 Z-.2372
N5420 X5.5945 Z-.241
N5430 X5.5885 Z-.2442
N5440 X5.5822 Z-.2467
N5450 X5.5756 Z-.2486
N5460 X5.5689 Z-.2496
N5470 X5.5622 Z-.25
N5480 X.438
N5490 X.4311 Z-.2496
N5500 X.4244 Z-.2486
N5510 X.4178 Z-.2467
N5520 X.4115 Z-.2442
N5530 X.4055 Z-.241
N5540 X.3999 Z-.2372
N5550 X.3948 Z-.2329
N5560 X.3903 Z-.2282
N5570 X.3865 Z-.2232
N5580 X.3837 Z-.2188
N5590 X.3812 Z-.2142
N5600 X.3792 Z-.2092
N5610 X.3775 Z-.204
N5620 X.3763 Z-.1986
N5630 X.3756 Z-.1934
N5640 X.3762 Y-5.2351 Z-.1933
N5650 X.377 Z-.1986
N5660 X.3782 Z-.204
N5670 X.3799 Z-.2092
N5680 X.382 Z-.2142
N5690 X.3845 Z-.2188
N5700 X.3873 Z-.2232
N5710 X.3912 Z-.2282
N5720 X.3957 Z-.2329
N5730 X.4009 Z-.2372
N5740 X.4065 Z-.241
N5750 X.4126 Z-.2442
N5760 X.419 Z-.2467
N5770 X.4257 Z-.2486
N5780 X.4327 Z-.2497
N5790 X.4394 Z-.25
N5800 X5.5606
N5810 X5.5678 Z-.2496
N5820 X5.5743 Z-.2486
N5830 X5.581 Z-.2467
N5840 X5.5874 Z-.2442
N5850 X5.5935 Z-.241
N5860 X5.5991 Z-.2372
N5870 X5.6043 Z-.2329
N5880 X5.6088 Z-.2282
N5890 X5.6127 Z-.2232
N5900 X5.6155 Z-.2188
N5910 X5.618 Z-.2142
N5920 X5.6201 Z-.2092
N5930 X5.6218 Z-.204
N5940 X5.623 Z-.1986
N5950 X5.6238 Z-.1933
N5960 X5.6221 Y-5.2252
N5970 X5.6214 Z-.1986
N5980 X5.6201 Z-.204
N5990 X5.6185 Z-.2092
N6000 X5.6166 Z-.2136
N6010 X5.614 Z-.2185
N6020 X5.6111 Z-.2231
N6030 X5.6071 Z-.2282
N6040 X5.6024 Z-.2329
N6050 X5.5972 Z-.2372
N6060 X5.5914 Z-.241
N6070 X5.5851 Z-.2442
N6080 X5.5785 Z-.2467
N6090 X5.5717 Z-.2486
N6100 X5.5645 Z-.2496
N6110 X5.5573 Z-.25
N6120 X.4427
N6130 X.4355 Z-.2496
N6140 X.4283 Z-.2486
N6150 X.4215 Z-.2467
N6160 X.4149 Z-.2442
N6170 X.4086 Z-.241
N6180 X.4028 Z-.2372
N6190 X.3976 Z-.2329
N6200 X.3929 Z-.2282
N6210 X.389 Z-.2233
N6220 X.3863 Z-.2191
N6230 X.3839 Z-.2146
N6240 X.3815 Z-.2092
N6250 X.3799 Z-.204
N6260 X.3786 Z-.1986
N6270 X.3779 Z-.1933
N6280 X.3804 Y-5.2153
N6290 X.3811 Z-.1986
N6300 X.3824 Z-.204
N6310 X.3841 Z-.2092
N6320 X.3863 Z-.2142
N6330 X.3889 Z-.2188
N6340 X.3917 Z-.2232
N6350 X.3961 Z-.2285
N6360 X.4005 Z-.2329
N6370 X.4059 Z-.2372
N6380 X.4119 Z-.241
N6390 X.4184 Z-.2442
N6400 X.4254 Z-.2468
N6410 X.4326 Z-.2486
N6420 X.4402 Z-.2496
N6430 X.4481 Z-.25
N6440 X5.5519
N6450 X5.5598 Z-.2496
N6460 X5.5674 Z-.2486
N6470 X5.575 Z-.2466
N6480 X5.5816 Z-.2442
N6490 X5.5881 Z-.241
N6500 X5.5941 Z-.2372
N6510 X5.5995 Z-.2329
N6520 X5.6043 Z-.2282
N6530 X5.6083 Z-.2232
N6540 X5.6111 Z-.2188
N6550 X5.6137 Z-.2142
N6560 X5.6159 Z-.2092
N6570 X5.6176 Z-.204
N6580 X5.6189 Z-.1986
N6590 X5.6196 Z-.1933
N6600 Z-.1932
N6610 X5.6163 Y-5.2054
N6620 X5.6155 Z-.1986
N6630 X5.6142 Z-.204
N6640 X5.6124 Z-.2092
N6650 X5.6102 Z-.2142
N6660 X5.6075 Z-.2188
N6670 X5.6045 Z-.2232
N6680 X5.6004 Z-.2282
N6690 X5.5955 Z-.2329
N6700 X5.5898 Z-.2372
N6710 X5.5835 Z-.241
N6720 X5.5767 Z-.2442
N6730 X5.5692 Z-.2467
N6740 X5.5613 Z-.2486
N6750 X5.5527 Z-.2496
N6760 X5.5436 Z-.25
N6770 X.4564
N6780 X.4473 Z-.2496
N6790 X.4387 Z-.2486
N6800 X.4308 Z-.2467
N6810 X.4233 Z-.2442
N6820 X.4165 Z-.241
N6830 X.4102 Z-.2372
N6840 X.4045 Z-.2329
N6850 X.3996 Z-.2282
N6860 X.3955 Z-.2232
N6870 X.3925 Z-.2188
N6880 X.3898 Z-.2142
N6890 X.3876 Z-.2092
N6900 X.3858 Z-.204
N6910 X.3845 Z-.1986
N6920 X.3837 Z-.1932
N6930 X.388 Y-5.1954
N6940 Z-.1935
N6950 X.3888 Z-.1986
N6960 X.3901 Z-.204
N6970 X.392 Z-.2092
N6980 X.3944 Z-.2142
N6990 X.3972 Z-.2188
N7000 X.4003 Z-.2232
N7010 X.4047 Z-.2282
N7020 X.4098 Z-.2329
N7030 X.4159 Z-.2372
N7040 X.4226 Z-.241
N7050 X.4291 Z-.2438
N7060 X.43 Z-.2442
N7070 X.4383 Z-.2467
N7080 X.4474 Z-.2486
N7090 X.4575 Z-.2496
N7100 X.4697 Z-.25
N7110 X5.5304
N7120 X5.5425 Z-.2496
N7130 X5.5526 Z-.2486
N7140 X5.5617 Z-.2467
N7150 X5.57 Z-.2442
N7160 X5.5728 Z-.2431
N7170 X5.5774 Z-.241
N7180 X5.5841 Z-.2372
N7190 X5.5902 Z-.2329
N7200 X5.5953 Z-.2282
N7210 X5.5997 Z-.2232
N7220 X5.6028 Z-.2188
N7230 X5.6056 Z-.2142
N7240 X5.608 Z-.2092
N7250 X5.6099 Z-.204
N7260 X5.6112 Z-.1986
N7270 X5.6121 Z-.1931
N7280 X5.6067 Y-5.1855
N7290 Z-.1935
N7300 X5.6059 Z-.1986
N7310 X5.6044 Z-.204
N7320 X5.6024 Z-.2092
N7330 X5.5999 Z-.2142
N7340 X5.5969 Z-.2188
N7350 X5.5936 Z-.2232
N7360 X5.5889 Z-.2282
N7370 X5.586 Z-.2308
N7380 X5.5834 Z-.2329
N7390 X5.5768 Z-.2372
N7400 X5.5695 Z-.241
N7410 X5.561 Z-.2442
N7420 X5.5582 Z-.245
N7430 X5.5513 Z-.2467
N7440 X5.5405 Z-.2485
N7450 X5.5331 Z-.2491
N7460 X5.5249 Z-.2496
N7470 X5.5027 Z-.2499
N7480 X5.5 Z-.2496
N7490 X5.4972 Z-.2499
N7500 X.5028
N7510 X.5 Z-.2496
N7520 X.4973 Z-.2499
N7530 X.4821 Z-.2498
N7540 X.4736 Z-.2496
N7550 X.46 Z-.2486
N7560 X.4487 Z-.2467
N7570 X.4454 Z-.2459
N7580 X.439 Z-.2442
N7590 X.4305 Z-.241
N7600 X.4232 Z-.2372
N7610 X.4166 Z-.2329
N7620 X.414 Z-.2308
N7630 X.4111 Z-.2282
N7640 X.4064 Z-.2232
N7650 X.4031 Z-.2188
N7660 X.4001 Z-.2142
N7670 X.3976 Z-.2092
N7680 X.3956 Z-.204
N7690 X.3941 Z-.1986
N7700 X.3933 Z-.1935
N7710 Z-.1934
N7720 X.3999 Y-5.1756
N7730 X.4008 Z-.1986
N7740 X.4024 Z-.204
N7750 X.4046 Z-.2092
N7760 X.4073 Z-.2142
N7770 X.4104 Z-.2188
N7780 X.414 Z-.2232
N7790 X.4191 Z-.2282
N7800 X.4254 Z-.2329
N7810 X.4328 Z-.2373
N7820 X.4413 Z-.241
N7830 X.4442 Z-.242
N7840 X.4516 Z-.2442
N7850 X.4619 Z-.2463
N7860 X.4646 Z-.2467
N7870 X.4725 Z-.2476
N7880 X.4818 Z-.2483
N7890 X.4864 Z-.2486
N7900 X.4973 Z-.2488
N7910 X.5 Z-.2485
N7920 X.5029 Z-.2488
N7930 X5.4971
N7940 X5.5 Z-.2485
N7950 X5.5027 Z-.2488
N7960 X5.5147 Z-.2486
N7970 X5.5246 Z-.2479
N7980 X5.531 Z-.2472
N7990 X5.5354 Z-.2467
N8000 X5.5423 Z-.2454
N8010 X5.5484 Z-.2442
N8020 X5.5558 Z-.242
N8030 X5.5587 Z-.241
N8040 X5.5677 Z-.237
N8050 X5.5746 Z-.2329
N8060 X5.5812 Z-.2279
N8070 X5.586 Z-.2232
N8080 X5.5896 Z-.2188
N8090 X5.5927 Z-.2142
N8100 X5.5954 Z-.2092
N8110 X5.5976 Z-.204
N8120 X5.5992 Z-.1986
N8130 X5.6001 Z-.1934
N8140 X5.5917 Y-5.1657
N8150 Z-.1941
N8160 X5.5909 Z-.1986
N8170 X5.5891 Z-.204
N8180 X5.5868 Z-.2092
N8190 X5.5838 Z-.2142
N8200 X5.5803 Z-.2188
N8210 X5.5765 Z-.2231
N8220 X5.5704 Z-.2282
N8230 X5.5634 Z-.2328
N8240 X5.5544 Z-.2372
N8250 X5.5525 Z-.2379
N8260 X5.5434 Z-.241
N8270 X5.5351 Z-.2428
N8280 X5.528 Z-.2442
N8290 X5.5194 Z-.2451
N8300 X5.5125 Z-.2456
N8310 X5.5067 Z-.2459
N8320 X5.5005 Z-.246
N8330 X5.5 Z-.2459
N8340 X5.4995 Z-.246
N8350 X.5005
N8360 X.5 Z-.2459
N8370 X.4995 Z-.246
N8380 X.4952 Z-.2459
N8390 X.4872 Z-.2456
N8400 X.4786 Z-.2449
N8410 X.4721 Z-.2442
N8420 X.4649 Z-.2428
N8430 X.4568 Z-.241
N8440 X.4475 Z-.2379
N8450 X.4456 Z-.2372
N8460 X.4368 Z-.2329
N8470 X.4296 Z-.2282
N8480 X.4239 Z-.2235
N8490 X.4197 Z-.2188
N8500 X.4162 Z-.2142
N8510 X.4132 Z-.2092
N8520 X.4109 Z-.204
N8530 X.4091 Z-.1986
N8540 X.4082 Z-.1938
N8550 Z-.1933
N8560 X.4185 Y-5.1558
N8570 X.4196 Z-.1986
N8580 X.4215 Z-.204
N8590 X.4241 Z-.2092
N8600 X.4274 Z-.2142
N8610 X.4293 Z-.2165
N8620 X.4315 Z-.2188
N8630 X.4364 Z-.2232
N8640 X.4414 Z-.2268
N8650 X.4435 Z-.2282
N8660 X.4522 Z-.2327
N8670 X.4607 Z-.2358
N8680 X.4656 Z-.2372
N8690 X.4688 Z-.238
N8700 X.4761 Z-.2393
N8710 X.4837 Z-.2404
N8720 X.4898 Z-.241
N8730 X.4946 Z-.2412
N8740 X.4978 Z-.2413
N8750 X.5 Z-.241
N8760 X.5023 Z-.2413
N8770 X5.4977
N8780 X5.5 Z-.241
N8790 X5.5022 Z-.2413
N8800 X5.5054 Z-.2412
N8810 X5.5112 Z-.2409
N8820 X5.5173 Z-.2403
N8830 X5.5239 Z-.2393
N8840 X5.5312 Z-.238
N8850 X5.5344 Z-.2372
N8860 X5.5393 Z-.2358
N8870 X5.5472 Z-.2329
N8880 X5.5483 Z-.2324
N8890 X5.5565 Z-.2282
N8900 X5.5586 Z-.2268
N8910 X5.5636 Z-.2232
N8920 X5.5685 Z-.2188
N8930 X5.5707 Z-.2165
N8940 X5.5726 Z-.2142
N8950 X5.5759 Z-.2092
N8960 X5.5785 Z-.204
N8970 X5.5804 Z-.1986
N8980 X5.5816 Z-.1931
N8990 Z-.1925
N9000 Z-.1915
N9010 X5.5686 Y-5.1458
N9020 X5.5685 Z-.1931
N9030 X5.5671 Z-.1986
N9040 X5.565 Z-.2039
N9050 X5.5616 Z-.2092
N9060 X5.5574 Z-.2142
N9070 X5.5534 Z-.2179
N9080 X5.5523 Z-.2188
N9090 X5.5457 Z-.2232
N9100 X5.5434 Z-.2244
N9110 X5.5351 Z-.2282
N9120 X5.5265 Z-.2308
N9130 X5.5191 Z-.2324
N9140 X5.5123 Z-.2334
N9150 X5.506 Z-.2339
N9160 X5.5025
N9170 X5.5 Z-.2336
N9180 X5.4975 Z-.2339
N9190 X.5025
N9200 X.5 Z-.2336
N9210 X.4975 Z-.2339
N9220 X.494
N9230 X.4877 Z-.2334
N9240 X.4815 Z-.2325
N9250 X.4735 Z-.2308
N9260 X.4655 Z-.2284
N9270 X.4566 Z-.2244
N9280 X.4543 Z-.2232
N9290 X.4477 Z-.2188
N9300 X.4466 Z-.2179
N9310 X.4426 Z-.2142
N9320 X.4384 Z-.2092
N9330 X.4352 Z-.2043
N9340 X.4329 Z-.1986
N9350 X.4315 Z-.1931
N9360 X.4314 Z-.1915
N9370 X.4497 Y-5.1359
N9380 Z-.1928
N9390 X.4501 Z-.1943
N9400 X.4515 Z-.1986
N9410 X.4525 Z-.2004
N9420 X.4548 Z-.204
N9430 X.4596 Z-.2092
N9440 X.4622 Z-.2114
N9450 X.4663 Z-.2142
N9460 X.471 Z-.2167
N9470 X.4763 Z-.2188
N9480 X.4791 Z-.2198
N9490 X.4865 Z-.2215
N9500 X.4935 Z-.2225
N9510 X.4982 Z-.2227
N9520 X.5 Z-.2224
N9530 X.5013 Z-.2226
N9540 X5.4987
N9550 X5.5 Z-.2224
N9560 X5.5018 Z-.2227
N9570 X5.5065 Z-.2225
N9580 X5.5135 Z-.2215
N9590 X5.5209 Z-.2198
N9600 X5.5237 Z-.2188
N9610 X5.529 Z-.2167
N9620 X5.5337 Z-.2142
N9630 X5.5378 Z-.2114
N9640 X5.5404 Z-.2092
N9650 X5.5452 Z-.204
N9660 X5.5475 Z-.2004
N9670 X5.5485 Z-.1986
N9680 X5.5502 Z-.1933
N9690 G0 Z-.0933
N9700 Z.25
N9710 X5.5139 Y-5.126
N9720 Z-.0919
N9730 G1 Z-.1919 F7.7
N9740 X5.5133 Z-.1931 F15.4
N9750 X5.5071 Z-.1971
N9760 X5.5062 Z-.1973
N9770 X5.5003
N9780 X5.5 Z-.1972
N9790 X5.4997 Z-.1973
N9800 X5.4928
N9810 Z-.1981
N9820 X.5072
N9830 Z-.1973
N9840 X.5003
N9850 X.5 Z-.1972
N9860 X.4997 Z-.1973
N9870 X.4938
N9880 X.4929 Z-.1971
N9890 X.4867 Z-.1931
N9900 X.4863 Z-.1923
N9910 G0 Z-.0923
N9920 Z.25
N9930 M5
N9940 G91 G28 Z0.
N9950 M01
N9960 T2 M6
N9970 G187 P3 E.001
N9980 G0 G90 G17 G54 X1. Y-3.9375 S7334 M3
N9990 G43 H2 Z.1
N100 M8
N110 G99 G83 Z-.075 R.1 Q.1 F7.
N120 X5.
N130 X3. Y-1.7813
N140 G80
N150 M5
N160 G91 G28 Z0. M9
N170 M01
N180 T3 M6
N190 G187 P3 E.001
N200 G0 G90 G17 G54 X1. Y-3.9375 S6366 M3
N210 G43 H3 Z.1
N220 M8
N230 G99 G83 Z-1.0533 R.1 Q.1 F8.6
N240 X5.
N250 X3. Y-1.7813
N260 G80
N270 M5
N280 G91 G28 Z0. M9
N290 M01
N300 T4 M6
N310 G187 P3 E.001
N320 G0 G90 G17 G54 X3.1955 Y-2.9288 S2000 M3
N330 G43 H4 Z.25
N340 M8
N350 Z.1
N360 G1 X3.1655 Y-2.9453 Z.0982 F10.
N370 X3.1341 Y-2.959 Z.0964
N380 X3.1015 Y-2.9698 Z.0946
N390 X3.0682 Y-2.9775 Z.0928
N400 X3.0342 Y-2.9822 Z.091
N410 X3. Y-2.9838 Z.0892
N420 X2.9632 Y-2.982 Z.0873
N430 X2.9268 Y-2.9766 Z.0853
N440 X2.8911 Y-2.9676 Z.0834
N450 X2.8565 Y-2.9552 Z.0815
N460 X2.8232 Y-2.9395 Z.0795
N470 X2.7917 Y-2.9206 Z.0776
N480 X2.7621 Y-2.8987 Z.0757
N490 X2.7348 Y-2.874 Z.0737
N500 X2.7101 Y-2.8467 Z.0718
N510 X2.6882 Y-2.8171 Z.0699
N520 X2.6693 Y-2.7856 Z.068
N530 X2.6536 Y-2.7523 Z.066
N540 X2.6412 Y-2.7177 Z.0641
N550 X2.6322 Y-2.682 Z.0622
N560 X2.6268 Y-2.6456 Z.0602
N570 X2.625 Y-2.6088 Z.0583
N580 X2.6268 Y-2.572 Z.0564
N590 X2.6322 Y-2.5356 Z.0544
N600 X2.6412 Y-2.4999 Z.0525
N610 X2.6536 Y-2.4653 Z.0506
N620 X2.6693 Y-2.432 Z.0487
N630 X2.6882 Y-2.4005 Z.0467
N640 X2.7101 Y-2.3709 Z.0448
N650 X2.7348 Y-2.3436 Z.0429
N660 X2.7621 Y-2.3189 Z.041
N670 X2.7917 Y-2.297 Z.0391
N680 X2.8232 Y-2.2781 Z.0371
N690 X2.8565 Y-2.2624 Z.0352
N700 X2.8911 Y-2.25 Z.0333
N710 X2.9268 Y-2.241 Z.0314
N720 X2.9632 Y-2.2356 Z.0294
N730 X3. Y-2.2338 Z.0275
N740 X3.0368 Y-2.2356 Z.0256
N750 X3.0732 Y-2.241 Z.0236
N760 X3.1089 Y-2.25 Z.0217
N770 X3.1435 Y-2.2624 Z.0198
N780 X3.1768 Y-2.2781 Z.0178
N790 X3.2083 Y-2.297 Z.0159
N800 X3.2379 Y-2.3189 Z.014
N810 X3.2652 Y-2.3436 Z.012
N820 X3.2899 Y-2.3709 Z.0101
N830 X3.3118 Y-2.4005 Z.0082
N840 X3.3307 Y-2.432 Z.0063
N850 X3.3464 Y-2.4653 Z.0043
N860 X3.3588 Y-2.4999 Z.0024
N870 X3.3678 Y-2.5356 Z.0005
N880 X3.3732 Y-2.572 Z-.0015
N890 X3.375 Y-2.6088 Z-.0034
N900 X3.3734 Y-2.6436 Z-.0052
N910 X3.3685 Y-2.6781 Z-.0071
N920 X3.3605 Y-2.712 Z-.0089
N930 X3.3494 Y-2.745 Z-.0107
N940 X3.3352 Y-2.7769 Z-.0125
N950 X3.3182 Y-2.8072 Z-.0144
N960 X3.2984 Y-2.8359 Z-.0162
N970 X3.276 Y-2.8626 Z-.018
N980 X3.2513 Y-2.8872 Z-.0198
N990 X3.2244 Y-2.9093 Z-.0217
N1000 X3.1955 Y-2.9288 Z-.0235
N1010 X3.1655 Y-2.9453 Z-.0253
N1020 X3.1341 Y-2.959 Z-.0271
N1030 X3.1015 Y-2.9698 Z-.0289
N1040 X3.0682 Y-2.9775 Z-.0307
N1050 X3.0342 Y-2.9822 Z-.0325
N1060 X3. Y-2.9838 Z-.0343
N1070 X2.9632 Y-2.982 Z-.0362
N1080 X2.9268 Y-2.9766 Z-.0381
N1090 X2.8911 Y-2.9676 Z-.0401
N1100 X2.8565 Y-2.9552 Z-.042
N1110 X2.8232 Y-2.9395 Z-.0439
N1120 X2.7917 Y-2.9206 Z-.0459
N1130 X2.7621 Y-2.8987 Z-.0478
N1140 X2.7348 Y-2.874 Z-.0497
N1150 X2.7101 Y-2.8467 Z-.0516
N1160 X2.6882 Y-2.8171 Z-.0536
N1170 X2.6693 Y-2.7856 Z-.0555
N1180 X2.6536 Y-2.7523 Z-.0574
N1190 X2.6412 Y-2.7177 Z-.0593
N1200 X2.6322 Y-2.682 Z-.0613
N1210 X2.6268 Y-2.6456 Z-.0632
N1220 X2.625 Y-2.6088 Z-.0651
N1230 X2.6268 Y-2.572 Z-.067
N1240 X2.6322 Y-2.5356 Z-.069
N1250 X2.6412 Y-2.4999 Z-.0709
N1260 X2.6536 Y-2.4653 Z-.0728
N1270 X2.6693 Y-2.432 Z-.0748
N1280 X2.6882 Y-2.4005 Z-.0767
N1290 X2.7101 Y-2.3709 Z-.0786
N1300 X2.7348 Y-2.3436 Z-.0806
N1310 X2.7621 Y-2.3189 Z-.0825
N1320 X2.7917 Y-2.297 Z-.0844
N1330 X2.8232 Y-2.2781 Z-.0863
N1340 X2.8565 Y-2.2624 Z-.0883
N1350 X2.8911 Y-2.25 Z-.0902
N1360 X2.9268 Y-2.241 Z-.0921
N1370 X2.9632 Y-2.2356 Z-.0941
N1380 X3. Y-2.2338 Z-.096
N1390 Y-1.8181
N1400 G3 X3.0368 Y-1.7813 I0. J.0368
N1410 X3. Y-1.7444 I-.0368 J0.
N1420 X2.9631 Y-1.7813 I0. J-.0369
N1430 X3. Y-1.8181 I.0369 J0.
N1440 G1 Y-1.9587
N1450 G3 X3.1774 Y-1.7813 I0. J.1774
N1460 X3. Y-1.6038 I-.1774 J0.
N1470 X2.8225 Y-1.7813 I0. J-.1775
N1480 X3. Y-1.9587 I.1775 J0.
N1490 G1 Y-2.24
N1500 G3 X3.4587 Y-1.7813 I0. J.4587
N1510 X3. Y-1.3225 I-.4587 J0.
N1520 X2.5412 Y-1.7813 I0. J-.4588
N1530 X3. Y-2.24 I.4588 J0.
N1540 G1 Y-2.5213
N1550 G3 X3.74 Y-1.7813 I0. J.74
N1560 X3. Y-1.0413 I-.74 J0.
N1570 X2.26 Y-1.7813 I0. J-.74
N1580 X3. Y-2.5213 I.74 J0.
N1590 G1 Y-2.8025
N1600 G3 X4.0212 Y-1.7813 I0. J1.0212
N1610 X3. Y-.76 I-1.0212 J0.
N1620 X1.9787 Y-1.7813 I0. J-1.0213
N1630 X3. Y-2.8025 I1.0213 J0.
N1640 G1 Y-3.0838
N1650 G3 X4.3025 Y-1.7813 I0. J1.3025
N1660 X3. Y-.4788 I-1.3025 J0.
N1670 X1.6975 Y-1.7813 I0. J-1.3025
N1680 X3. Y-3.0838 I1.3025 J0.
N1690 G0 Z.25
N1700 X3.1955 Y-2.9288
N1710 Z.004
N1720 G1 X3.1655 Y-2.9453 Z.0022
N1730 X3.1341 Y-2.959 Z.0004
N1740 X3.1015 Y-2.9698 Z-.0014
N1750 X3.0682 Y-2.9775 Z-.0032
N1760 X3.0342 Y-2.9822 Z-.005
N1770 X3. Y-2.9838 Z-.0068
N1780 X2.9632 Y-2.982 Z-.0087
N1790 X2.9268 Y-2.9766 Z-.0107
N1800 X2.8911 Y-2.9676 Z-.0126
N1810 X2.8565 Y-2.9552 Z-.0145
N1820 X2.8232 Y-2.9395 Z-.0165
N1830 X2.7917 Y-2.9206 Z-.0184
N1840 X2.7621 Y-2.8987 Z-.0203
N1850 X2.7348 Y-2.874 Z-.0222
N1860 X2.7101 Y-2.8467 Z-.0242
N1870 X2.6882 Y-2.8171 Z-.0261
N1880 X2.6693 Y-2.7856 Z-.028
N1890 X2.6536 Y-2.7523 Z-.03
N1900 X2.6412 Y-2.7177 Z-.0319
N1910 X2.6322 Y-2.682 Z-.0338
N1920 X2.6268 Y-2.6456 Z-.0358
N1930 X2.625 Y-2.6088 Z-.0377
N1940 X2.6268 Y-2.572 Z-.0396
N1950 X2.6322 Y-2.5356 Z-.0415
N1960 X2.6412 Y-2.4999 Z-.0435
N1970 X2.6536 Y-2.4653 Z-.0454
N1980 X2.6693 Y-2.432 Z-.0473
N1990 X2.6882 Y-2.4005 Z-.0493
N2000 X2.7101 Y-2.3709 Z-.0512
N2010 X2.7348 Y-2.3436 Z-.0531
N2020 X2.7621 Y-2.3189 Z-.055
N2030 X2.7917 Y-2.297 Z-.057
N2040 X2.8232 Y-2.2781 Z-.0589
N2050 X2.8565 Y-2.2624 Z-.0608
N2060 X2.8911 Y-2.25 Z-.0627
N2070 X2.9268 Y-2.241 Z-.0647
N2080 X2.9632 Y-2.2356 Z-.0666
N2090 X3. Y-2.2338 Z-.0685
N2100 X3.0368 Y-2.2356 Z-.0704
N2110 X3.0732 Y-2.241 Z-.0724
N2120 X3.1089 Y-2.25 Z-.0743
N2130 X3.1435 Y-2.2624 Z-.0762
N2140 X3.1768 Y-2.2781 Z-.0782
N2150 X3.2083 Y-2.297 Z-.0801
N2160 X3.2379 Y-2.3189 Z-.082
N2170 X3.2652 Y-2.3436 Z-.0839
N2180 X3.2899 Y-2.3709 Z-.0859
N2190 X3.3118 Y-2.4005 Z-.0878
N2200 X3.3307 Y-2.432 Z-.0897
N2210 X3.3464 Y-2.4653 Z-.0917
N2220 X3.3588 Y-2.4999 Z-.0936
N2230 X3.3678 Y-2.5356 Z-.0955
N2240 X3.3732 Y-2.572 Z-.0975
N2250 X3.375 Y-2.6088 Z-.0994
N2260 X3.3734 Y-2.6436 Z-.1012
N2270 X3.3685 Y-2.6781 Z-.1031
N2280 X3.3605 Y-2.712 Z-.1049
N2290 X3.3494 Y-2.745 Z-.1067
N2300 X3.3352 Y-2.7769 Z-.1085
N2310 X3.3182 Y-2.8072 Z-.1104
N2320 X3.2984 Y-2.8359 Z-.1122
N2330 X3.276 Y-2.8626 Z-.114
N2340 X3.2513 Y-2.8872 Z-.1158
N2350 X3.2244 Y-2.9093 Z-.1177
N2360 X3.1955 Y-2.9288 Z-.1195
N2370 X3.1655 Y-2.9453 Z-.1213
N2380 X3.1341 Y-2.959 Z-.1231
N2390 X3.1015 Y-2.9698 Z-.1249
N2400 X3.0682 Y-2.9775 Z-.1267
N2410 X3.0342 Y-2.9822 Z-.1285
N2420 X3. Y-2.9838 Z-.1303
N2430 X2.9632 Y-2.982 Z-.1322
N2440 X2.9268 Y-2.9766 Z-.1341
N2450 X2.8911 Y-2.9676 Z-.1361
N2460 X2.8565 Y-2.9552 Z-.138
N2470 X2.8232 Y-2.9395 Z-.1399
N2480 X2.7917 Y-2.9206 Z-.1419
N2490 X2.7621 Y-2.8987 Z-.1438
N2500 X2.7348 Y-2.874 Z-.1457
N2510 X2.7101 Y-2.8467 Z-.1476
N2520 X2.6882 Y-2.8171 Z-.1495
N2530 X2.6693 Y-2.7856 Z-.1515
N2540 X2.6536 Y-2.7523 Z-.1534
N2550 X2.6412 Y-2.7177 Z-.1553
N2560 X2.6322 Y-2.682 Z-.1573
N2570 X2.6268 Y-2.6456 Z-.1592
N2580 X2.625 Y-2.6088 Z-.1611
N2590 X2.6268 Y-2.572 Z-.163
N2600 X2.6322 Y-2.5356 Z-.165
N2610 X2.6412 Y-2.4999 Z-.1669
N2620 X2.6536 Y-2.4653 Z-.1688
N2630 X2.6693 Y-2.432 Z-.1708
N2640 X2.6882 Y-2.4005 Z-.1727
N2650 X2.7101 Y-2.3709 Z-.1746
N2660 X2.7348 Y-2.3436 Z-.1765
N2670 X2.7621 Y-2.3189 Z-.1785
N2680 X2.7917 Y-2.297 Z-.1804
N2690 X2.8232 Y-2.2781 Z-.1823
N2700 X2.8565 Y-2.2624 Z-.1843
N2710 X2.8911 Y-2.25 Z-.1862
N2720 X2.9268 Y-2.241 Z-.1881
N2730 X2.9632 Y-2.2356 Z-.1901
N2740 X3. Y-2.2338 Z-.192
N2750 Y-1.8181
N2760 G3 X3.0368 Y-1.7813 I0. J.0368
N2770 X3. Y-1.7444 I-.0368 J0.
N2780 X2.9631 Y-1.7813 I0. J-.0369
N2790 X3. Y-1.8181 I.0369 J0.
N2800 G1 Y-1.9587
N2810 G3 X3.1774 Y-1.7813 I0. J.1774
N2820 X3. Y-1.6038 I-.1774 J0.
N2830 X2.8225 Y-1.7813 I0. J-.1775
N2840 X3. Y-1.9587 I.1775 J0.
N2850 G1 Y-2.24
N2860 G3 X3.4587 Y-1.7813 I0. J.4587
N2870 X3. Y-1.3225 I-.4587 J0.
N2880 X2.5412 Y-1.7813 I0. J-.4588
N2890 X3. Y-2.24 I.4588 J0.
N2900 G1 Y-2.5213
N2910 G3 X3.74 Y-1.7813 I0. J.74
N2920 X3. Y-1.0413 I-.74 J0.
N2930 X2.26 Y-1.7813 I0. J-.74
N2940 X3. Y-2.5213 I.74 J0.
N2950 G1 Y-2.8025
N2960 G3 X4.0212 Y-1.7813 I0. J1.0212
N2970 X3. Y-.76 I-1.0212 J0.
N2980 X1.9787 Y-1.7813 I0. J-1.0213
N2990 X3. Y-2.8025 I1.0213 J0.
N3000 G1 Y-3.0838
N3010 G3 X4.3025 Y-1.7813 I0. J1.3025
N3020 X3. Y-.4788 I-1.3025 J0.
N3030 X1.6975 Y-1.7813 I0. J-1.3025
N3040 X3. Y-3.0838 I1.3025 J0.
N3050 G0 Z.25
N3060 X3.1955 Y-2.9288
N3070 Z-.092
N3080 G1 X3.1655 Y-2.9453 Z-.0938
N3090 X3.1341 Y-2.959 Z-.0956
N3100 X3.1015 Y-2.9698 Z-.0974
N3110 X3.0682 Y-2.9775 Z-.0992
N3120 X3.0342 Y-2.9822 Z-.101
N3130 X3. Y-2.9838 Z-.1028
N3140 X2.9632 Y-2.982 Z-.1047
N3150 X2.9268 Y-2.9766 Z-.1067
N3160 X2.8911 Y-2.9676 Z-.1086
N3170 X2.8565 Y-2.9552 Z-.1105
N3180 X2.8232 Y-2.9395 Z-.1125
N3190 X2.7917 Y-2.9206 Z-.1144
N3200 X2.7621 Y-2.8987 Z-.1163
N3210 X2.7348 Y-2.874 Z-.1183
N3220 X2.7101 Y-2.8467 Z-.1202
N3230 X2.6882 Y-2.8171 Z-.1221
N3240 X2.6693 Y-2.7856 Z-.124
N3250 X2.6536 Y-2.7523 Z-.126
N3260 X2.6412 Y-2.7177 Z-.1279
N3270 X2.6322 Y-2.682 Z-.1298
N3280 X2.6268 Y-2.6456 Z-.1318
N3290 X2.625 Y-2.6088 Z-.1337
N3300 X2.6268 Y-2.572 Z-.1356
N3310 X2.6322 Y-2.5356 Z-.1376
N3320 X2.6412 Y-2.4999 Z-.1395
N3330 X2.6536 Y-2.4653 Z-.1414
N3340 X2.6693 Y-2.432 Z-.1433
N3350 X2.6882 Y-2.4005 Z-.1453
N3360 X2.7101 Y-2.3709 Z-.1472
N3370 X2.7348 Y-2.3436 Z-.1491
N3380 X2.7621 Y-2.3189 Z-.151
N3390 X2.7917 Y-2.297 Z-.153
N3400 X2.8232 Y-2.2781 Z-.1549
N3410 X2.8565 Y-2.2624 Z-.1568
N3420 X2.8911 Y-2.25 Z-.1587
N3430 X2.9268 Y-2.241 Z-.1607
N3440 X2.9632 Y-2.2356 Z-.1626
N3450 X3. Y-2.2338 Z-.1645
N3460 X3.0368 Y-2.2356 Z-.1664
N3470 X3.0732 Y-2.241 Z-.1684
N3480 X3.1089 Y-2.25 Z-.1703
N3490 X3.1435 Y-2.2624 Z-.1722
N3500 X3.1768 Y-2.2781 Z-.1742
N3510 X3.2083 Y-2.297 Z-.1761
N3520 X3.2379 Y-2.3189 Z-.178
N3530 X3.2652 Y-2.3436 Z-.1799
N3540 X3.2899 Y-2.3709 Z-.1819
N3550 X3.3118 Y-2.4005 Z-.1838
N3560 X3.3307 Y-2.432 Z-.1857
N3570 X3.3464 Y-2.4653 Z-.1877
N3580 X3.3588 Y-2.4999 Z-.1896
N3590 X3.3678 Y-2.5356 Z-.1915
N3600 X3.3732 Y-2.572 Z-.1935
N3610 X3.375 Y-2.6088 Z-.1954
N3620 X3.3734 Y-2.6436 Z-.1972
N3630 X3.3685 Y-2.6781 Z-.1991
N3640 X3.3605 Y-2.712 Z-.2009
N3650 X3.3494 Y-2.745 Z-.2027
N3660 X3.3352 Y-2.7769 Z-.2045
N3670 X3.3182 Y-2.8072 Z-.2064
N3680 X3.2984 Y-2.8359 Z-.2082
N3690 X3.276 Y-2.8626 Z-.21
N3700 X3.2513 Y-2.8872 Z-.2118
N3710 X3.2244 Y-2.9093 Z-.2137
N3720 X3.1955 Y-2.9288 Z-.2155
N3730 X3.1655 Y-2.9453 Z-.2173
N3740 X3.1341 Y-2.959 Z-.2191
N3750 X3.1015 Y-2.9698 Z-.2209
N3760 X3.0682 Y-2.9775 Z-.2227
N3770 X3.0342 Y-2.9822 Z-.2245
N3780 X3. Y-2.9838 Z-.2263
N3790 X2.9632 Y-2.982 Z-.2282
N3800 X2.9268 Y-2.9766 Z-.2301
N3810 X2.8911 Y-2.9676 Z-.2321
N3820 X2.8565 Y-2.9552 Z-.234
N3830 X2.8232 Y-2.9395 Z-.2359
N3840 X2.7917 Y-2.9206 Z-.2379
N3850 X2.7621 Y-2.8987 Z-.2398
N3860 X2.7348 Y-2.874 Z-.2417
N3870 X2.7101 Y-2.8467 Z-.2436
N3880 X2.6882 Y-2.8171 Z-.2455
N3890 X2.6693 Y-2.7856 Z-.2475
N3900 X2.6536 Y-2.7523 Z-.2494
N3910 X2.6412 Y-2.7177 Z-.2513
N3920 X2.6322 Y-2.682 Z-.2532
N3930 X2.6268 Y-2.6456 Z-.2552
N3940 X2.625 Y-2.6088 Z-.2571
N3950 X2.6268 Y-2.572 Z-.259
N3960 X2.6322 Y-2.5356 Z-.261
N3970 X2.6412 Y-2.4999 Z-.2629
N3980 X2.6536 Y-2.4653 Z-.2648
N3990 X2.6693 Y-2.432 Z-.2668
N4000 X2.6882 Y-2.4005 Z-.2687
N4010 X2.7101 Y-2.3709 Z-.2706
N4020 X2.7348 Y-2.3436 Z-.2725
N4030 X2.7621 Y-2.3189 Z-.2745
N4040 X2.7917 Y-2.297 Z-.2764
N4050 X2.8232 Y-2.2781 Z-.2783
N4060 X2.8565 Y-2.2624 Z-.2803
N4070 X2.8911 Y-2.25 Z-.2822
N4080 X2.9268 Y-2.241 Z-.2841
N4090 X2.9632 Y-2.2356 Z-.2861
N4100 X3. Y-2.2338 Z-.288
N4110 Y-1.8181
N4120 G3 X3.0368 Y-1.7813 I0. J.0368
N4130 X3. Y-1.7444 I-.0368 J0.
N4140 X2.9631 Y-1.7813 I0. J-.0369
N4150 X3. Y-1.8181 I.0369 J0.
N4160 G1 Y-1.9587
N4170 G3 X3.1774 Y-1.7813 I0. J.1774
N4180 X3. Y-1.6038 I-.1774 J0.
N4190 X2.8225 Y-1.7813 I0. J-.1775
N4200 X3. Y-1.9587 I.1775 J0.
N4210 G1 Y-2.24
N4220 G3 X3.4587 Y-1.7813 I0. J.4587
N4230 X3. Y-1.3225 I-.4587 J0.
N4240 X2.5412 Y-1.7813 I0. J-.4588
N4250 X3. Y-2.24 I.4588 J0.
N4260 G1 Y-2.5213
N4270 G3 X3.74 Y-1.7813 I0. J.74
N4280 X3. Y-1.0413 I-.74 J0.
N4290 X2.26 Y-1.7813 I0. J-.74
N4300 X3. Y-2.5213 I.74 J0.
N4310 G1 Y-2.8025
N4320 G3 X4.0212 Y-1.7813 I0. J1.0212
N4330 X3. Y-.76 I-1.0212 J0.
N4340 X1.9787 Y-1.7813 I0. J-1.0213
N4350 X3. Y-2.8025 I1.0213 J0.
N4360 G1 Y-3.0838
N4370 G3 X4.3025 Y-1.7813 I0. J1.3025
N4380 X3. Y-.4788 I-1.3025 J0.
N4390 X1.6975 Y-1.7813 I0. J-1.3025
N4400 X3. Y-3.0838 I1.3025 J0.
N4410 G0 Z.25
N4420 X3.1955 Y-2.9288
N4430 Z-.188
N4440 G1 X3.1655 Y-2.9453 Z-.1898
N4450 X3.1341 Y-2.959 Z-.1916
N4460 X3.1015 Y-2.9698 Z-.1934
N4470 X3.0682 Y-2.9775 Z-.1952
N4480 X3.0342 Y-2.9822 Z-.197
N4490 X3. Y-2.9838 Z-.1988
N4500 X2.9632 Y-2.982 Z-.2007
N4510 X2.9268 Y-2.9766 Z-.2027
N4520 X2.8911 Y-2.9676 Z-.2046
N4530 X2.8565 Y-2.9552 Z-.2065
N4540 X2.8232 Y-2.9395 Z-.2085
N4550 X2.7917 Y-2.9206 Z-.2104
N4560 X2.7621 Y-2.8987 Z-.2123
N4570 X2.7348 Y-2.874 Z-.2142
N4580 X2.7101 Y-2.8467 Z-.2162
N4590 X2.6882 Y-2.8171 Z-.2181
N4600 X2.6693 Y-2.7856 Z-.22
N4610 X2.6536 Y-2.7523 Z-.222
N4620 X2.6412 Y-2.7177 Z-.2239
N4630 X2.6322 Y-2.682 Z-.2258
N4640 X2.6268 Y-2.6456 Z-.2278
N4650 X2.625 Y-2.6088 Z-.2297
N4660 X2.6268 Y-2.572 Z-.2316
N4670 X2.6322 Y-2.5356 Z-.2335
N4680 X2.6412 Y-2.4999 Z-.2355
N4690 X2.6536 Y-2.4653 Z-.2374
N4700 X2.6693 Y-2.432 Z-.2393
N4710 X2.6882 Y-2.4005 Z-.2412
N4720 X2.7101 Y-2.3709 Z-.2432
N4730 X2.7348 Y-2.3436 Z-.2451
N4740 X2.7621 Y-2.3189 Z-.247
N4750 X2.7917 Y-2.297 Z-.249
N4760 X2.8232 Y-2.2781 Z-.2509
N4770 X2.8565 Y-2.2624 Z-.2528
N4780 X2.8911 Y-2.25 Z-.2547
N4790 X2.9268 Y-2.241 Z-.2566
N4800 X2.9632 Y-2.2356 Z-.2586
N4810 X3. Y-2.2338 Z-.2605
N4820 X3.0368 Y-2.2356 Z-.2624
N4830 X3.0732 Y-2.241 Z-.2644
N4840 X3.1089 Y-2.25 Z-.2663
N4850 X3.1435 Y-2.2624 Z-.2682
N4860 X3.1768 Y-2.2781 Z-.2702
N4870 X3.2083 Y-2.297 Z-.2721
N4880 X3.2379 Y-2.3189 Z-.274
N4890 X3.2652 Y-2.3436 Z-.276
N4900 X3.2899 Y-2.3709 Z-.2779
N4910 X3.3118 Y-2.4005 Z-.2798
N4920 X3.3307 Y-2.432 Z-.2817
N4930 X3.3464 Y-2.4653 Z-.2837
N4940 X3.3588 Y-2.4999 Z-.2856
N4950 X3.3678 Y-2.5356 Z-.2875
N4960 X3.3732 Y-2.572 Z-.2895
N4970 X3.375 Y-2.6088 Z-.2914
N4980 X3.3734 Y-2.6436 Z-.2932
N4990 X3.3685 Y-2.6781 Z-.2951
N5000 X3.3605 Y-2.712 Z-.2969
N5010 X3.3494 Y-2.745 Z-.2987
N5020 X3.3352 Y-2.7769 Z-.3005
N5030 X3.3182 Y-2.8072 Z-.3024
N5040 X3.2984 Y-2.8359 Z-.3042
N5050 X3.276 Y-2.8626 Z-.306
N5060 X3.2513 Y-2.8872 Z-.3078
N5070 X3.2244 Y-2.9093 Z-.3097
N5080 X3.1955 Y-2.9288 Z-.3115
N5090 X3.1655 Y-2.9453 Z-.3133
N5100 X3.1341 Y-2.959 Z-.3151
N5110 X3.1015 Y-2.9698 Z-.3169
N5120 X3.0682 Y-2.9775 Z-.3187
N5130 X3.0342 Y-2.9822 Z-.3205
N5140 X3. Y-2.9838 Z-.3223
N5150 X2.9632 Y-2.982 Z-.3242
N5160 X2.9268 Y-2.9766 Z-.3261
N5170 X2.8911 Y-2.9676 Z-.3281
N5180 X2.8565 Y-2.9552 Z-.33
N5190 X2.8232 Y-2.9395 Z-.3319
N5200 X2.7917 Y-2.9206 Z-.3338
N5210 X2.7621 Y-2.8987 Z-.3358
N5220 X2.7348 Y-2.874 Z-.3377
N5230 X2.7101 Y-2.8467 Z-.3396
N5240 X2.6882 Y-2.8171 Z-.3416
N5250 X2.6693 Y-2.7856 Z-.3435
N5260 X2.6536 Y-2.7523 Z-.3454
N5270 X2.6412 Y-2.7177 Z-.3473
N5280 X2.6322 Y-2.682 Z-.3493
N5290 X2.6268 Y-2.6456 Z-.3512
N5300 X2.625 Y-2.6088 Z-.3531
N5310 X2.6268 Y-2.572 Z-.355
N5320 X2.6322 Y-2.5356 Z-.357
N5330 X2.6412 Y-2.4999 Z-.3589
N5340 X2.6536 Y-2.4653 Z-.3608
N5350 X2.6693 Y-2.432 Z-.3628
N5360 X2.6882 Y-2.4005 Z-.3647
N5370 X2.7101 Y-2.3709 Z-.3666
N5380 X2.7348 Y-2.3436 Z-.3686
N5390 X2.7621 Y-2.3189 Z-.3705
N5400 X2.7917 Y-2.297 Z-.3724
N5410 X2.8232 Y-2.2781 Z-.3743
N5420 X2.8565 Y-2.2624 Z-.3763
N5430 X2.8911 Y-2.25 Z-.3782
N5440 X2.9268 Y-2.241 Z-.3801
N5450 X2.9632 Y-2.2356 Z-.3821
N5460 X3. Y-2.2338 Z-.384
N5470 Y-1.8181
N5480 G3 X3.0368 Y-1.7813 I0. J.0368
N5490 X3. Y-1.7444 I-.0368 J0.
N5500 X2.9631 Y-1.7813 I0. J-.0369
N5510 X3. Y-1.8181 I.0369 J0.
N5520 G1 Y-1.9587
N5530 G3 X3.1774 Y-1.7813 I0. J.1774
N5540 X3. Y-1.6038 I-.1774 J0.
N5550 X2.8225 Y-1.7813 I0. J-.1775
N5560 X3. Y-1.9587 I.1775 J0.
N5570 G1 Y-2.24
N5580 G3 X3.4587 Y-1.7813 I0. J.4587
N5590 X3. Y-1.3225 I-.4587 J0.
N5600 X2.5412 Y-1.7813 I0. J-.4588
N5610 X3. Y-2.24 I.4588 J0.
N5620 G1 Y-2.5213
N5630 G3 X3.74 Y-1.7813 I0. J.74
N5640 X3. Y-1.0413 I-.74 J0.
N5650 X2.26 Y-1.7813 I0. J-.74
N5660 X3. Y-2.5213 I.74 J0.
N5670 G1 Y-2.8025
N5680 G3 X4.0212 Y-1.7813 I0. J1.0212
N5690 X3. Y-.76 I-1.0212 J0.
N5700 X1.9787 Y-1.7813 I0. J-1.0213
N5710 X3. Y-2.8025 I1.0213 J0.
N5720 G1 Y-3.0838
N5730 G3 X4.3025 Y-1.7813 I0. J1.3025
N5740 X3. Y-.4788 I-1.3025 J0.
N5750 X1.6975 Y-1.7813 I0. J-1.3025
N5760 X3. Y-3.0838 I1.3025 J0.
N5770 G0 Z.25
N5780 X3.1955 Y-2.9288
N5790 Z-.284
N5800 G1 X3.1655 Y-2.9453 Z-.2858
N5810 X3.1341 Y-2.959 Z-.2876
N5820 X3.1015 Y-2.9698 Z-.2894
N5830 X3.0682 Y-2.9775 Z-.2912
N5840 X3.0342 Y-2.9822 Z-.293
N5850 X3. Y-2.9838 Z-.2948
N5860 X2.9632 Y-2.982 Z-.2967
N5870 X2.9268 Y-2.9766 Z-.2987
N5880 X2.8911 Y-2.9676 Z-.3006
N5890 X2.8565 Y-2.9552 Z-.3025
N5900 X2.8232 Y-2.9395 Z-.3045
N5910 X2.7917 Y-2.9206 Z-.3064
N5920 X2.7621 Y-2.8987 Z-.3083
N5930 X2.7348 Y-2.874 Z-.3103
N5940 X2.7101 Y-2.8467 Z-.3122
N5950 X2.6882 Y-2.8171 Z-.3141
N5960 X2.6693 Y-2.7856 Z-.316
N5970 X2.6536 Y-2.7523 Z-.318
N5980 X2.6412 Y-2.7177 Z-.3199
N5990 X2.6322 Y-2.682 Z-.3218
N6000 X2.6268 Y-2.6456 Z-.3238
N6010 X2.625 Y-2.6088 Z-.3257
N6020 X2.6268 Y-2.572 Z-.3276
N6030 X2.6322 Y-2.5356 Z-.3296
N6040 X2.6412 Y-2.4999 Z-.3315
N6050 X2.6536 Y-2.4653 Z-.3334
N6060 X2.6693 Y-2.432 Z-.3353
N6070 X2.6882 Y-2.4005 Z-.3372
N6080 X2.7101 Y-2.3709 Z-.3392
N6090 X2.7348 Y-2.3436 Z-.3411
N6100 X2.7621 Y-2.3189 Z-.343
N6110 X2.7917 Y-2.297 Z-.3449
N6120 X2.8232 Y-2.2781 Z-.3469
N6130 X2.8565 Y-2.2624 Z-.3488
N6140 X2.8911 Y-2.25 Z-.3507
N6150 X2.9268 Y-2.241 Z-.3526
N6160 X2.9632 Y-2.2356 Z-.3546
N6170 X3. Y-2.2338 Z-.3565
N6180 X3.0368 Y-2.2356 Z-.3584
N6190 X3.0732 Y-2.241 Z-.3604
N6200 X3.1089 Y-2.25 Z-.3623
N6210 X3.1435 Y-2.2624 Z-.3642
N6220 X3.1768 Y-2.2781 Z-.3662
N6230 X3.2083 Y-2.297 Z-.3681
N6240 X3.2379 Y-2.3189 Z-.37
N6250 X3.2652 Y-2.3436 Z-.372
N6260 X3.2899 Y-2.3709 Z-.3739
N6270 X3.3118 Y-2.4005 Z-.3758
N6280 X3.3307 Y-2.432 Z-.3777
N6290 X3.3464 Y-2.4653 Z-.3797
N6300 X3.3588 Y-2.4999 Z-.3816
N6310 X3.3678 Y-2.5356 Z-.3835
N6320 X3.3732 Y-2.572 Z-.3855
N6330 X3.375 Y-2.6088 Z-.3874
N6340 X3.3734 Y-2.6436 Z-.3892
N6350 X3.3685 Y-2.6781 Z-.3911
N6360 X3.3605 Y-2.712 Z-.3929
N6370 X3.3494 Y-2.745 Z-.3947
N6380 X3.3352 Y-2.7769 Z-.3965
N6390 X3.3182 Y-2.8072 Z-.3984
N6400 X3.2984 Y-2.8359 Z-.4002
N6410 X3.276 Y-2.8626 Z-.402
N6420 X3.2513 Y-2.8872 Z-.4038
N6430 X3.2244 Y-2.9093 Z-.4057
N6440 X3.1955 Y-2.9288 Z-.4075
N6450 X3.1655 Y-2.9453 Z-.4093
N6460 X3.1341 Y-2.959 Z-.4111
N6470 X3.1015 Y-2.9698 Z-.4129
N6480 X3.0682 Y-2.9775 Z-.4147
N6490 X3.0342 Y-2.9822 Z-.4165
N6500 X3. Y-2.9838 Z-.4183
N6510 X2.9632 Y-2.982 Z-.4202
N6520 X2.9268 Y-2.9766 Z-.4222
N6530 X2.8911 Y-2.9676 Z-.4241
N6540 X2.8565 Y-2.9552 Z-.426
N6550 X2.8232 Y-2.9395 Z-.4279
N6560 X2.7917 Y-2.9206 Z-.4299
N6570 X2.7621 Y-2.8987 Z-.4318
N6580 X2.7348 Y-2.874 Z-.4337
N6590 X2.7101 Y-2.8467 Z-.4356
N6600 X2.6882 Y-2.8171 Z-.4375
N6610 X2.6693 Y-2.7856 Z-.4395
N6620 X2.6536 Y-2.7523 Z-.4414
N6630 X2.6412 Y-2.7177 Z-.4433
N6640 X2.6322 Y-2.682 Z-.4452
N6650 X2.6268 Y-2.6456 Z-.4472
N6660 X2.625 Y-2.6088 Z-.4491
N6670 X2.6268 Y-2.572 Z-.451
N6680 X2.6322 Y-2.5356 Z-.453
N6690 X2.6412 Y-2.4999 Z-.4549
N6700 X2.6536 Y-2.4653 Z-.4568
N6710 X2.6693 Y-2.432 Z-.4588
N6720 X2.6882 Y-2.4005 Z-.4607
N6730 X2.7101 Y-2.3709 Z-.4626
N6740 X2.7348 Y-2.3436 Z-.4646
N6750 X2.7621 Y-2.3189 Z-.4665
N6760 X2.7917 Y-2.297 Z-.4684
N6770 X2.8232 Y-2.2781 Z-.4703
N6780 X2.8565 Y-2.2624 Z-.4723
N6790 X2.8911 Y-2.25 Z-.4742
N6800 X2.9268 Y-2.241 Z-.4761
N6810 X2.9632 Y-2.2356 Z-.4781
N6820 X3. Y-2.2338 Z-.48
N6830 Y-1.8181
N6840 G3 X3.0368 Y-1.7813 I0. J.0368
N6850 X3. Y-1.7444 I-.0368 J0.
N6860 X2.9631 Y-1.7813 I0. J-.0369
N6870 X3. Y-1.8181 I.0369 J0.
N6880 G1 Y-1.9587
N6890 G3 X3.1774 Y-1.7813 I0. J.1774
N6900 X3. Y-1.6038 I-.1774 J0.
N6910 X2.8225 Y-1.7813 I0. J-.1775
N6920 X3. Y-1.9587 I.1775 J0.
N6930 G1 Y-2.24
N6940 G3 X3.4587 Y-1.7813 I0. J.4587
N6950 X3. Y-1.3225 I-.4587 J0.
N6960 X2.5412 Y-1.7813 I0. J-.4588
N6970 X3. Y-2.24 I.4588 J0.
N6980 G1 Y-2.5213
N6990 G3 X3.74 Y-1.7813 I0. J.74
N7000 X3. Y-1.0413 I-.74 J0.
N7010 X2.26 Y-1.7813 I0. J-.74
N7020 X3. Y-2.5213 I.74 J0.
N7030 G1 Y-2.8025
N7040 G3 X4.0212 Y-1.7813 I0. J1.0212
N7050 X3. Y-.76 I-1.0212 J0.
N7060 X1.9787 Y-1.7813 I0. J-1.0213
N7070 X3. Y-2.8025 I1.0213 J0.
N7080 G1 Y-3.0838
N7090 G3 X4.3025 Y-1.7813 I0. J1.3025
N7100 X3. Y-.4788 I-1.3025 J0.
N7110 X1.6975 Y-1.7813 I0. J-1.3025
N7120 X3. Y-3.0838 I1.3025 J0.
N7130 G0 Z.25
N7140 X3.1955 Y-2.9288
N7150 Z-.294
N7160 G1 X3.1655 Y-2.9453 Z-.2958
N7170 X3.1341 Y-2.959 Z-.2976
N7180 X3.1015 Y-2.9698 Z-.2994
N7190 X3.0682 Y-2.9775 Z-.3012
N7200 X3.0342 Y-2.9822 Z-.303
N7210 X3. Y-2.9838 Z-.3048
N7220 X2.9632 Y-2.982 Z-.3067
N7230 X2.9268 Y-2.9766 Z-.3087
N7240 X2.8911 Y-2.9676 Z-.3106
N7250 X2.8565 Y-2.9552 Z-.3125
N7260 X2.8232 Y-2.9395 Z-.3145
N7270 X2.7917 Y-2.9206 Z-.3164
N7280 X2.7621 Y-2.8987 Z-.3183
N7290 X2.7348 Y-2.874 Z-.3203
N7300 X2.7101 Y-2.8467 Z-.3222
N7310 X2.6882 Y-2.8171 Z-.3241
N7320 X2.6693 Y-2.7856 Z-.326
N7330 X2.6536 Y-2.7523 Z-.328
N7340 X2.6412 Y-2.7177 Z-.3299
N7350 X2.6322 Y-2.682 Z-.3318
N7360 X2.6268 Y-2.6456 Z-.3338
N7370 X2.625 Y-2.6088 Z-.3357
N7380 X2.6268 Y-2.572 Z-.3376
N7390 X2.6322 Y-2.5356 Z-.3396
N7400 X2.6412 Y-2.4999 Z-.3415
N7410 X2.6536 Y-2.4653 Z-.3434
N7420 X2.6693 Y-2.432 Z-.3453
N7430 X2.6882 Y-2.4005 Z-.3473
N7440 X2.7101 Y-2.3709 Z-.3492
N7450 X2.7348 Y-2.3436 Z-.3511
N7460 X2.7621 Y-2.3189 Z-.353
N7470 X2.7917 Y-2.297 Z-.3549
N7480 X2.8232 Y-2.2781 Z-.3569
N7490 X2.8565 Y-2.2624 Z-.3588
N7500 X2.8911 Y-2.25 Z-.3607
N7510 X2.9268 Y-2.241 Z-.3626
N7520 X2.9632 Y-2.2356 Z-.3646
N7530 X3. Y-2.2338 Z-.3665
N7540 X3.0368 Y-2.2356 Z-.3684
N7550 X3.0732 Y-2.241 Z-.3704
N7560 X3.1089 Y-2.25 Z-.3723
N7570 X3.1435 Y-2.2624 Z-.3742
N7580 X3.1768 Y-2.2781 Z-.3762
N7590 X3.2083 Y-2.297 Z-.3781
N7600 X3.2379 Y-2.3189 Z-.38
N7610 X3.2652 Y-2.3436 Z-.382
N7620 X3.2899 Y-2.3709 Z-.3839
N7630 X3.3118 Y-2.4005 Z-.3858
N7640 X3.3307 Y-2.432 Z-.3877
N7650 X3.3464 Y-2.4653 Z-.3897
N7660 X3.3588 Y-2.4999 Z-.3916
N7670 X3.3678 Y-2.5356 Z-.3935
N7680 X3.3732 Y-2.572 Z-.3955
N7690 X3.375 Y-2.6088 Z-.3974
N7700 X3.3734 Y-2.6436 Z-.3992
N7710 X3.3685 Y-2.6781 Z-.4011
N7720 X3.3605 Y-2.712 Z-.4029
N7730 X3.3494 Y-2.745 Z-.4047
N7740 X3.3352 Y-2.7769 Z-.4065
N7750 X3.3182 Y-2.8072 Z-.4084
N7760 X3.2984 Y-2.8359 Z-.4102
N7770 X3.276 Y-2.8626 Z-.412
N7780 X3.2513 Y-2.8872 Z-.4138
N7790 X3.2244 Y-2.9093 Z-.4157
N7800 X3.1955 Y-2.9288 Z-.4175
N7810 X3.1655 Y-2.9453 Z-.4193
N7820 X3.1341 Y-2.959 Z-.4211
N7830 X3.1015 Y-2.9698 Z-.4229
N7840 X3.0682 Y-2.9775 Z-.4247
N7850 X3.0342 Y-2.9822 Z-.4265
N7860 X3. Y-2.9838 Z-.4283
N7870 X2.9632 Y-2.982 Z-.4302
N7880 X2.9268 Y-2.9766 Z-.4322
N7890 X2.8911 Y-2.9676 Z-.4341
N7900 X2.8565 Y-2.9552 Z-.436
N7910 X2.8232 Y-2.9395 Z-.4379
N7920 X2.7917 Y-2.9206 Z-.4399
N7930 X2.7621 Y-2.8987 Z-.4418
N7940 X2.7348 Y-2.874 Z-.4437
N7950 X2.7101 Y-2.8467 Z-.4456
N7960 X2.6882 Y-2.8171 Z-.4476
N7970 X2.6693 Y-2.7856 Z-.4495
N7980 X2.6536 Y-2.7523 Z-.4514
N7990 X2.6412 Y-2.7177 Z-.4533
N8000 X2.6322 Y-2.682 Z-.4552
N8010 X2.6268 Y-2.6456 Z-.4572
N8020 X2.625 Y-2.6088 Z-.4591
N8030 X2.6268 Y-2.572 Z-.461
N8040 X2.6322 Y-2.5356 Z-.463
N8050 X2.6412 Y-2.4999 Z-.4649
N8060 X2.6536 Y-2.4653 Z-.4668
N8070 X2.6693 Y-2.432 Z-.4688
N8080 X2.6882 Y-2.4005 Z-.4707
N8090 X2.7101 Y-2.3709 Z-.4726
N8100 X2.7348 Y-2.3436 Z-.4746
N8110 X2.7621 Y-2.3189 Z-.4765
N8120 X2.7917 Y-2.297 Z-.4784
N8130 X2.8232 Y-2.2781 Z-.4803
N8140 X2.8565 Y-2.2624 Z-.4823
N8150 X2.8911 Y-2.25 Z-.4842
N8160 X2.9268 Y-2.241 Z-.4861
N8170 X2.9632 Y-2.2356 Z-.4881
N8180 X3. Y-2.2338 Z-.49
N8190 Y-1.8181
N8200 G3 X3.0368 Y-1.7813 I0. J.0368
N8210 X3. Y-1.7444 I-.0368 J0.
N8220 X2.9631 Y-1.7813 I0. J-.0369
N8230 X3. Y-1.8181 I.0369 J0.
N8240 G1 Y-1.9587
N8250 G3 X3.1774 Y-1.7813 I0. J.1774
N8260 X3. Y-1.6038 I-.1774 J0.
N8270 X2.8225 Y-1.7813 I0. J-.1775
N8280 X3. Y-1.9587 I.1775 J0.
N8290 G1 Y-2.24
N8300 G3 X3.4587 Y-1.7813 I0. J.4587
N8310 X3. Y-1.3225 I-.4587 J0.
N8320 X2.5412 Y-1.7813 I0. J-.4588
N8330 X3. Y-2.24 I.4588 J0.
N8340 G1 Y-2.5213
N8350 G3 X3.74 Y-1.7813 I0. J.74
N8360 X3. Y-1.0413 I-.74 J0.
N8370 X2.26 Y-1.7813 I0. J-.74
N8380 X3. Y-2.5213 I.74 J0.
N8390 G1 Y-2.8025
N8400 G3 X4.0212 Y-1.7813 I0. J1.0212
N8410 X3. Y-.76 I-1.0212 J0.
N8420 X1.9787 Y-1.7813 I0. J-1.0213
N8430 X3. Y-2.8025 I1.0213 J0.
N8440 G1 Y-3.0838
N8450 G3 X4.3025 Y-1.7813 I0. J1.3025
N8460 X3. Y-.4788 I-1.3025 J0.
N8470 X1.6975 Y-1.7813 I0. J-1.3025
N8480 X3. Y-3.0838 I1.3025 J0.
N8490 G0 Z.25
N8500 X3.1955 Y-2.9288
N8510 Z-.304
N8520 G1 X3.1655 Y-2.9453 Z-.3058
N8530 X3.1341 Y-2.959 Z-.3076
N8540 X3.1015 Y-2.9698 Z-.3094
N8550 X3.0682 Y-2.9775 Z-.3112
N8560 X3.0342 Y-2.9822 Z-.313
N8570 X3. Y-2.9838 Z-.3148
N8580 X2.9632 Y-2.982 Z-.3167
N8590 X2.9268 Y-2.9766 Z-.3187
N8600 X2.8911 Y-2.9676 Z-.3206
N8610 X2.8565 Y-2.9552 Z-.3225
N8620 X2.8232 Y-2.9395 Z-.3245
N8630 X2.7917 Y-2.9206 Z-.3264
N8640 X2.7621 Y-2.8987 Z-.3283
N8650 X2.7348 Y-2.874 Z-.3303
N8660 X2.7101 Y-2.8467 Z-.3322
N8670 X2.6882 Y-2.8171 Z-.3341
N8680 X2.6693 Y-2.7856 Z-.336
N8690 X2.6536 Y-2.7523 Z-.338
N8700 X2.6412 Y-2.7177 Z-.3399
N8710 X2.6322 Y-2.682 Z-.3418
N8720 X2.6268 Y-2.6456 Z-.3438
N8730 X2.625 Y-2.6088 Z-.3457
N8740 X2.6268 Y-2.572 Z-.3476
N8750 X2.6322 Y-2.5356 Z-.3496
N8760 X2.6412 Y-2.4999 Z-.3515
N8770 X2.6536 Y-2.4653 Z-.3534
N8780 X2.6693 Y-2.432 Z-.3553
N8790 X2.6882 Y-2.4005 Z-.3573
N8800 X2.7101 Y-2.3709 Z-.3592
N8810 X2.7348 Y-2.3436 Z-.3611
N8820 X2.7621 Y-2.3189 Z-.363
N8830 X2.7917 Y-2.297 Z-.3649
N8840 X2.8232 Y-2.2781 Z-.3669
N8850 X2.8565 Y-2.2624 Z-.3688
N8860 X2.8911 Y-2.25 Z-.3707
N8870 X2.9268 Y-2.241 Z-.3726
N8880 X2.9632 Y-2.2356 Z-.3746
N8890 X3. Y-2.2338 Z-.3765
N8900 X3.0368 Y-2.2356 Z-.3784
N8910 X3.0732 Y-2.241 Z-.3804
N8920 X3.1089 Y-2.25 Z-.3823
N8930 X3.1435 Y-2.2624 Z-.3842
N8940 X3.1768 Y-2.2781 Z-.3862
N8950 X3.2083 Y-2.297 Z-.3881
N8960 X3.2379 Y-2.3189 Z-.39
N8970 X3.2652 Y-2.3436 Z-.392
N8980 X3.2899 Y-2.3709 Z-.3939
N8990 X3.3118 Y-2.4005 Z-.3958
N9000 X3.3307 Y-2.432 Z-.3977
N9010 X3.3464 Y-2.4653 Z-.3997
N9020 X3.3588 Y-2.4999 Z-.4016
N9030 X3.3678 Y-2.5356 Z-.4035
N9040 X3.3732 Y-2.572 Z-.4055
N9050 X3.375 Y-2.6088 Z-.4074
N9060 X3.3734 Y-2.6436 Z-.4092
N9070 X3.3685 Y-2.6781 Z-.4111
N9080 X3.3605 Y-2.712 Z-.4129
N9090 X3.3494 Y-2.745 Z-.4147
N9100 X3.3352 Y-2.7769 Z-.4165
N9110 X3.3182 Y-2.8072 Z-.4184
N9120 X3.2984 Y-2.8359 Z-.4202
N9130 X3.276 Y-2.8626 Z-.422
N9140 X3.2513 Y-2.8872 Z-.4238
N9150 X3.2244 Y-2.9093 Z-.4257
N9160 X3.1955 Y-2.9288 Z-.4275
N9170 X3.1655 Y-2.9453 Z-.4293
N9180 X3.1341 Y-2.959 Z-.4311
N9190 X3.1015 Y-2.9698 Z-.4329
N9200 X3.0682 Y-2.9775 Z-.4347
N9210 X3.0342 Y-2.9822 Z-.4365
N9220 X3. Y-2.9838 Z-.4383
N9230 X2.9632 Y-2.982 Z-.4402
N9240 X2.9268 Y-2.9766 Z-.4422
N9250 X2.8911 Y-2.9676 Z-.4441
N9260 X2.8565 Y-2.9552 Z-.446
N9270 X2.8232 Y-2.9395 Z-.4479
N9280 X2.7917 Y-2.9206 Z-.4499
N9290 X2.7621 Y-2.8987 Z-.4518
N9300 X2.7348 Y-2.874 Z-.4537
N9310 X2.7101 Y-2.8467 Z-.4556
N9320 X2.6882 Y-2.8171 Z-.4576
N9330 X2.6693 Y-2.7856 Z-.4595
N9340 X2.6536 Y-2.7523 Z-.4614
N9350 X2.6412 Y-2.7177 Z-.4633
N9360 X2.6322 Y-2.682 Z-.4652
N9370 X2.6268 Y-2.6456 Z-.4672
N9380 X2.625 Y-2.6088 Z-.4691
N9390 X2.6268 Y-2.572 Z-.471
N9400 X2.6322 Y-2.5356 Z-.473
N9410 X2.6412 Y-2.4999 Z-.4749
N9420 X2.6536 Y-2.4653 Z-.4768
N9430 X2.6693 Y-2.432 Z-.4788
N9440 X2.6882 Y-2.4005 Z-.4807
N9450 X2.7101 Y-2.3709 Z-.4826
N9460 X2.7348 Y-2.3436 Z-.4846
N9470 X2.7621 Y-2.3189 Z-.4865
N9480 X2.7917 Y-2.297 Z-.4884
N9490 X2.8232 Y-2.2781 Z-.4903
N9500 X2.8565 Y-2.2624 Z-.4923
N9510 X2.8911 Y-2.25 Z-.4942
N9520 X2.9268 Y-2.241 Z-.4961
N9530 X2.9632 Y-2.2356 Z-.4981
N9540 X3. Y-2.2338 Z-.5
N9550 Y-1.8181
N9560 G3 X3.0368 Y-1.7813 I0. J.0368
N9570 X3. Y-1.7444 I-.0368 J0.
N9580 X2.9631 Y-1.7813 I0. J-.0369
N9590 X3. Y-1.8181 I.0369 J0.
N9600 G1 Y-1.9587
N9610 G3 X3.1774 Y-1.7813 I0. J.1774
N9620 X3. Y-1.6038 I-.1774 J0.
N9630 X2.8225 Y-1.7813 I0. J-.1775
N9640 X3. Y-1.9587 I.1775 J0.
N9650 G1 Y-2.24
N9660 G3 X3.4587 Y-1.7813 I0. J.4587
N9670 X3. Y-1.3225 I-.4587 J0.
N9680 X2.5412 Y-1.7813 I0. J-.4588
N9690 X3. Y-2.24 I.4588 J0.
N9700 G1 Y-2.5213
N9710 G3 X3.74 Y-1.7813 I0. J.74
N9720 X3. Y-1.0413 I-.74 J0.
N9730 X2.26 Y-1.7813 I0. J-.74
N9740 X3. Y-2.5213 I.74 J0.
N9750 G1 Y-2.8025
N9760 G3 X4.0212 Y-1.7813 I0. J1.0212
N9770 X3. Y-.76 I-1.0212 J0.
N9780 X1.9787 Y-1.7813 I0. J-1.0213
N9790 X3. Y-2.8025 I1.0213 J0.
N9800 G1 Y-3.0838
N9810 G3 X4.3025 Y-1.7813 I0. J1.3025
N9820 X3. Y-.4788 I-1.3025 J0.
N9830 X1.6975 Y-1.7813 I0. J-1.3025
N9840 X3. Y-3.0838 I1.3025 J0.
N9850 G0 Z.25
N9860 X4.0875 Y-1.8938
N9870 Z-.39
N9880 G1 Z-.5 F6.
N9890 X4.2 F10.
N9900 G3 X4.3125 Y-1.7813 I0. J.1125
N9910 X3. Y-.4688 I-1.3125 J0.
N9920 X1.6875 Y-1.7813 I0. J-1.3125
N9930 X3. Y-3.0938 I1.3125 J0.
N9940 X4.3125 Y-1.7813 I0. J1.3125
N9950 X4.2 Y-1.6687 I-.1125 J0.
N9960 G1 X4.0875
N9970 G0 Z.25
N9980 M5
N9990 G91 G28 Z0. M9
N100 M01
N110 T5 M6
N120 G187 P3 E.001
N130 G0 G90 G17 G54 X3.1125 Y-6.535 S12224 M3
N140 G43 H5 Z.25
N150 M8
N160 Z.1
N170 G1 Z-.0575 F97.8
N180 Y-6.31 F195.6
N190 G3 X3. Y-6.1975 I-.1125 J0.
N200 G1 X.125
N210 G2 X-.1975 Y-5.875 I0. J.3225
N220 G1 Y-.125
N230 G2 X.125 Y.1975 I.3225 J0.
N240 G1 X5.875
N250 G2 X6.1975 Y-.125 I0. J-.3225
N260 G1 Y-5.875
N270 G2 X5.875 Y-6.1975 I-.3225 J0.
N280 G1 X3.
N290 G3 X2.8875 Y-6.31 I0. J-.1125
N300 G1 Y-6.535
N310 G0 Z.25
N320 X3.1125
N330 Z.0425
N340 G1 Z-.115 F97.8
N350 Y-6.31 F195.6
N360 G3 X3. Y-6.1975 I-.1125 J0.
N370 G1 X.125
N380 G2 X-.1975 Y-5.875 I0. J.3225
N390 G1 Y-.125
N400 G2 X.125 Y.1975 I.3225 J0.
N410 G1 X5.875
N420 G2 X6.1975 Y-.125 I0. J-.3225
N430 G1 Y-5.875
N440 G2 X5.875 Y-6.1975 I-.3225 J0.
N450 G1 X3.
N460 G3 X2.8875 Y-6.31 I0. J-.1125
N470 G1 Y-6.535
N480 G0 Z.25
N490 X3.1125
N500 Z-.015
N510 G1 Z-.125 F97.8
N520 Y-6.31 F195.6
N530 G3 X3. Y-6.1975 I-.1125 J0.
N540 G1 X.125
N550 G2 X-.1975 Y-5.875 I0. J.3225
N560 G1 Y-.125
N570 G2 X.125 Y.1975 I.3225 J0.
N580 G1 X5.875
N590 G2 X6.1975 Y-.125 I0. J-.3225
N600 G1 Y-5.875
N610 G2 X5.875 Y-6.1975 I-.3225 J0.
N620 G1 X3.
N630 G3 X2.8875 Y-6.31 I0. J-.1125
N640 G1 Y-6.535
N650 G0 Z.25
N660 X3.1125 Y-6.525
N670 Z-.015
N680 G1 Z-.125 F97.8
N690 Y-6.3 F195.6
N700 G3 X3. Y-6.1875 I-.1125 J0.
N710 G1 X.125
N720 G2 X-.1875 Y-5.875 I0. J.3125
N730 G1 Y-.125
N740 G2 X.125 Y.1875 I.3125 J0.
N750 G1 X5.875
N760 G2 X6.1875 Y-.125 I0. J-.3125
N770 G1 Y-5.875
N780 G2 X5.875 Y-6.1875 I-.3125 J0.
N790 G1 X3.
N800 G3 X2.8875 Y-6.3 I0. J-.1125
N810 G1 Y-6.525
N820 G0 Z.25
N830 M5
N840 G91 G28 Z0. M9
N850 M01
N860 T4 M6
N870 G187 P3 E.001
N880 G0 G90 G17 G54 X3.1125 Y-6.535 S4074 M3
N890 G43 H4 Z.25
N900 M8
N910 Z.1
N920 G1 Z-.098 F12.1
N930 Y-6.31 F24.1
N940 G3 X3. Y-6.1975 I-.1125 J0.
N950 G1 X.125
N960 G2 X-.1975 Y-5.875 I0. J.3225
N970 G1 Y-.125
N980 G2 X.125 Y.1975 I.3225 J0.
N990 G1 X5.875
N1000 G2 X6.1975 Y-.125 I0. J-.3225
N1010 G1 Y-5.875
N1020 G2 X5.875 Y-6.1975 I-.3225 J0.
N1030 G1 X3.
N1040 G3 X2.8875 Y-6.31 I0. J-.1125
N1050 G1 Y-6.535
N1060 G0 Z.25
N1070 X3.1125
N1080 Z.002
N1090 G1 Z-.196 F12.1
N1100 Y-6.31 F24.1
N1110 G3 X3. Y-6.1975 I-.1125 J0.
N1120 G1 X.125
N1130 G2 X-.1975 Y-5.875 I0. J.3225
N1140 G1 Y-.125
N1150 G2 X.125 Y.1975 I.3225 J0.
N1160 G1 X5.875
N1170 G2 X6.1975 Y-.125 I0. J-.3225
N1180 G1 Y-5.875
N1190 G2 X5.875 Y-6.1975 I-.3225 J0.
N1200 G1 X3.
N1210 G3 X2.8875 Y-6.31 I0. J-.1125
N1220 G1 Y-6.535
N1230 G0 Z.25
N1240 X3.1125
N1250 Z-.096
N1260 G1 Z-.294 F12.1
N1270 Y-6.31 F24.1
N1280 G3 X3. Y-6.1975 I-.1125 J0.
N1290 G1 X.125
N1300 G2 X-.1975 Y-5.875 I0. J.3225
N1310 G1 Y-.125
N1320 G2 X.125 Y.1975 I.3225 J0.
N1330 G1 X5.875
N1340 G2 X6.1975 Y-.125 I0. J-.3225
N1350 G1 Y-5.875
N1360 G2 X5.875 Y-6.1975 I-.3225 J0.
N1370 G1 X3.
N1380 G3 X2.8875 Y-6.31 I0. J-.1125
N1390 G1 Y-6.535
N1400 G0 Z.25
N1410 X3.1125
N1420 Z-.194
N1430 G1 Z-.392 F12.1
N1440 Y-6.31 F24.1
N1450 G3 X3. Y-6.1975 I-.1125 J0.
N1460 G1 X.125
N1470 G2 X-.1975 Y-5.875 I0. J.3225
N1480 G1 Y-.125
N1490 G2 X.125 Y.1975 I.3225 J0.
N1500 G1 X5.875
N1510 G2 X6.1975 Y-.125 I0. J-.3225
N1520 G1 Y-5.875
N1530 G2 X5.875 Y-6.1975 I-.3225 J0.
N1540 G1 X3.
N1550 G3 X2.8875 Y-6.31 I0. J-.1125
N1560 G1 Y-6.535
N1570 G0 Z.25
N1580 X3.1125
N1590 Z-.292
N1600 G1 Z-.49 F12.1
N1610 Y-6.31 F24.1
N1620 G3 X3. Y-6.1975 I-.1125 J0.
N1630 G1 X.125
N1640 G2 X-.1975 Y-5.875 I0. J.3225
N1650 G1 Y-.125
N1660 G2 X.125 Y.1975 I.3225 J0.
N1670 G1 X5.875
N1680 G2 X6.1975 Y-.125 I0. J-.3225
N1690 G1 Y-5.875
N1700 G2 X5.875 Y-6.1975 I-.3225 J0.
N1710 G1 X3.
N1720 G3 X2.8875 Y-6.31 I0. J-.1125
N1730 G1 Y-6.535
N1740 G0 Z.25
N1750 X3.1125
N1760 Z-.39
N1770 G1 Z-.5 F12.1
N1780 Y-6.31 F24.1
N1790 G3 X3. Y-6.1975 I-.1125 J0.
N1800 G1 X.125
N1810 G2 X-.1975 Y-5.875 I0. J.3225
N1820 G1 Y-.125
N1830 G2 X.125 Y.1975 I.3225 J0.
N1840 G1 X5.875
N1850 G2 X6.1975 Y-.125 I0. J-.3225
N1860 G1 Y-5.875
N1870 G2 X5.875 Y-6.1975 I-.3225 J0.
N1880 G1 X3.
N1890 G3 X2.8875 Y-6.31 I0. J-.1125
N1900 G1 Y-6.535
N1910 G0 Z.25
N1920 X3.1125 Y-6.525
N1930 Z-.39
N1940 G1 Z-.5 F12.1
N1950 Y-6.3 F24.1
N1960 G3 X3. Y-6.1875 I-.1125 J0.
N1970 G1 X.125
N1980 G2 X-.1875 Y-5.875 I0. J.3125
N1990 G1 Y-.125
N2000 G2 X.125 Y.1875 I.3125 J0.
N2010 G1 X5.875
N2020 G2 X6.1875 Y-.125 I0. J-.3125
N2030 G1 Y-5.875
N2040 G2 X5.875 Y-6.1875 I-.3125 J0.
N2050 G1 X3.
N2060 G3 X2.8875 Y-6.3 I0. J-.1125
N2070 G1 Y-6.525
N2080 G0 Z.25
N2090 M5
N2100 G91 G28 Z0. M9
N2110 G28 X0. Y0.
N2120 M30
%
