%
O0255
(LEGO 1)
(DATE=DD-MM-YY - 02-10-19 TIME=HH:MM - 17:07)
(MCAM FILE - C:\USERS\BZIMMERM\DESKTOP\LEGO 1.EMCAM)
(NC FILE - C:\USERS\BZIMMERM\DOCUMENTS\MY MASTERCAM 2020\MASTERCAM\MILL\NC\LEGO)
(MATERIAL - ALUMINUM INCH - 6061)
(T1| 3/8 FLAT ENDMILL|H1|D1|TOOL DIA. - .375)
(T2| 1/8 FLAT ENDMILL|H2|D2|TOOL DIA. - .125)
N100 G20
N110 G0 G17 G40 G49 G80 G90
N120 T1 M6
N130 G187 P3 E.001
N140 G0 G90 G54 X-.0936 Y-.4125 S3500 M3
N150 G43 H1 Z.25
N160 M8
N170 Z.2
N180 G1 Z-.01 F10.
N190 Y1.725 F20.
N200 X.0938
N210 Y-.225
N220 X.2813
N230 Y1.725
N240 X.4687
N250 Y-.225
N260 X.6562
N270 Y1.725
N280 X.8437
N290 Y-.4125
N300 G0 Z.24
N310 G187 P3 E.001
N320 X1.375 Y.6375 Z.25
N330 Z.1
N340 G1 Z-.0694 F12.1
N350 X1.15 F20.
N360 G2 X1.0375 Y.75 I0. J.1125
N370 G1 Y1.5
N380 G3 X.75 Y1.7875 I-.2875 J0.
N390 G1 X0.
N400 G3 X-.2875 Y1.5 I0. J-.2875
N410 G1 Y0.
N420 G3 X0. Y-.2875 I.2875 J0.
N430 G1 X.75
N440 G3 X1.0375 Y0. I0. J.2875
N450 G1 Y.75
N460 G2 X1.15 Y.8625 I.1125 J0.
N470 G1 X1.375
N480 G0 Z.25
N490 X1.275 Y.6375
N500 Z.1
N510 G1 Z-.0694 F12.1
N520 X1.05 F20.
N530 G2 X.9375 Y.75 I0. J.1125
N540 G1 Y1.5
N550 G3 X.75 Y1.6875 I-.1875 J0.
N560 G1 X0.
N570 G3 X-.1875 Y1.5 I0. J-.1875
N580 G1 Y0.
N590 G3 X0. Y-.1875 I.1875 J0.
N600 G1 X.75
N610 G3 X.9375 Y0. I0. J.1875
N620 G1 Y.75
N630 G2 X1.05 Y.8625 I.1125 J0.
N640 G1 X1.275
N650 G0 Z.25
N660 X1.375 Y.6375
N670 Z.0306
N680 G1 Z-.1389 F12.1
N690 X1.15 F20.
N700 G2 X1.0375 Y.75 I0. J.1125
N710 G1 Y1.5
N720 G3 X.75 Y1.7875 I-.2875 J0.
N730 G1 X0.
N740 G3 X-.2875 Y1.5 I0. J-.2875
N750 G1 Y0.
N760 G3 X0. Y-.2875 I.2875 J0.
N770 G1 X.75
N780 G3 X1.0375 Y0. I0. J.2875
N790 G1 Y.75
N800 G2 X1.15 Y.8625 I.1125 J0.
N810 G1 X1.375
N820 G0 Z.25
N830 X1.275 Y.6375
N840 Z.0306
N850 G1 Z-.1389 F12.1
N860 X1.05 F20.
N870 G2 X.9375 Y.75 I0. J.1125
N880 G1 Y1.5
N890 G3 X.75 Y1.6875 I-.1875 J0.
N900 G1 X0.
N910 G3 X-.1875 Y1.5 I0. J-.1875
N920 G1 Y0.
N930 G3 X0. Y-.1875 I.1875 J0.
N940 G1 X.75
N950 G3 X.9375 Y0. I0. J.1875
N960 G1 Y.75
N970 G2 X1.05 Y.8625 I.1125 J0.
N980 G1 X1.275
N990 G0 Z.25
N1000 X1.375 Y.6375
N1010 Z-.0389
N1020 G1 Z-.2083 F12.1
N1030 X1.15 F20.
N1040 G2 X1.0375 Y.75 I0. J.1125
N1050 G1 Y1.5
N1060 G3 X.75 Y1.7875 I-.2875 J0.
N1070 G1 X0.
N1080 G3 X-.2875 Y1.5 I0. J-.2875
N1090 G1 Y0.
N1100 G3 X0. Y-.2875 I.2875 J0.
N1110 G1 X.75
N1120 G3 X1.0375 Y0. I0. J.2875
N1130 G1 Y.75
N1140 G2 X1.15 Y.8625 I.1125 J0.
N1150 G1 X1.375
N1160 G0 Z.25
N1170 X1.275 Y.6375
N1180 Z-.0389
N1190 G1 Z-.2083 F12.1
N1200 X1.05 F20.
N1210 G2 X.9375 Y.75 I0. J.1125
N1220 G1 Y1.5
N1230 G3 X.75 Y1.6875 I-.1875 J0.
N1240 G1 X0.
N1250 G3 X-.1875 Y1.5 I0. J-.1875
N1260 G1 Y0.
N1270 G3 X0. Y-.1875 I.1875 J0.
N1280 G1 X.75
N1290 G3 X.9375 Y0. I0. J.1875
N1300 G1 Y.75
N1310 G2 X1.05 Y.8625 I.1125 J0.
N1320 G1 X1.275
N1330 G0 Z.25
N1340 X1.375 Y.6375
N1350 Z-.1083
N1360 G1 Z-.2778 F12.1
N1370 X1.15 F20.
N1380 G2 X1.0375 Y.75 I0. J.1125
N1390 G1 Y1.5
N1400 G3 X.75 Y1.7875 I-.2875 J0.
N1410 G1 X0.
N1420 G3 X-.2875 Y1.5 I0. J-.2875
N1430 G1 Y0.
N1440 G3 X0. Y-.2875 I.2875 J0.
N1450 G1 X.75
N1460 G3 X1.0375 Y0. I0. J.2875
N1470 G1 Y.75
N1480 G2 X1.15 Y.8625 I.1125 J0.
N1490 G1 X1.375
N1500 G0 Z.25
N1510 X1.275 Y.6375
N1520 Z-.1083
N1530 G1 Z-.2778 F12.1
N1540 X1.05 F20.
N1550 G2 X.9375 Y.75 I0. J.1125
N1560 G1 Y1.5
N1570 G3 X.75 Y1.6875 I-.1875 J0.
N1580 G1 X0.
N1590 G3 X-.1875 Y1.5 I0. J-.1875
N1600 G1 Y0.
N1610 G3 X0. Y-.1875 I.1875 J0.
N1620 G1 X.75
N1630 G3 X.9375 Y0. I0. J.1875
N1640 G1 Y.75
N1650 G2 X1.05 Y.8625 I.1125 J0.
N1660 G1 X1.275
N1670 G0 Z.25
N1680 X1.375 Y.6375
N1690 Z-.1778
N1700 G1 Z-.3472 F12.1
N1710 X1.15 F20.
N1720 G2 X1.0375 Y.75 I0. J.1125
N1730 G1 Y1.5
N1740 G3 X.75 Y1.7875 I-.2875 J0.
N1750 G1 X0.
N1760 G3 X-.2875 Y1.5 I0. J-.2875
N1770 G1 Y0.
N1780 G3 X0. Y-.2875 I.2875 J0.
N1790 G1 X.75
N1800 G3 X1.0375 Y0. I0. J.2875
N1810 G1 Y.75
N1820 G2 X1.15 Y.8625 I.1125 J0.
N1830 G1 X1.375
N1840 G0 Z.25
N1850 X1.275 Y.6375
N1860 Z-.1778
N1870 G1 Z-.3472 F12.1
N1880 X1.05 F20.
N1890 G2 X.9375 Y.75 I0. J.1125
N1900 G1 Y1.5
N1910 G3 X.75 Y1.6875 I-.1875 J0.
N1920 G1 X0.
N1930 G3 X-.1875 Y1.5 I0. J-.1875
N1940 G1 Y0.
N1950 G3 X0. Y-.1875 I.1875 J0.
N1960 G1 X.75
N1970 G3 X.9375 Y0. I0. J.1875
N1980 G1 Y.75
N1990 G2 X1.05 Y.8625 I.1125 J0.
N2000 G1 X1.275
N2010 G0 Z.25
N2020 X1.375 Y.6375
N2030 Z-.2472
N2040 G1 Z-.4167 F12.1
N2050 X1.15 F20.
N2060 G2 X1.0375 Y.75 I0. J.1125
N2070 G1 Y1.5
N2080 G3 X.75 Y1.7875 I-.2875 J0.
N2090 G1 X0.
N2100 G3 X-.2875 Y1.5 I0. J-.2875
N2110 G1 Y0.
N2120 G3 X0. Y-.2875 I.2875 J0.
N2130 G1 X.75
N2140 G3 X1.0375 Y0. I0. J.2875
N2150 G1 Y.75
N2160 G2 X1.15 Y.8625 I.1125 J0.
N2170 G1 X1.375
N2180 G0 Z.25
N2190 X1.275 Y.6375
N2200 Z-.2472
N2210 G1 Z-.4167 F12.1
N2220 X1.05 F20.
N2230 G2 X.9375 Y.75 I0. J.1125
N2240 G1 Y1.5
N2250 G3 X.75 Y1.6875 I-.1875 J0.
N2260 G1 X0.
N2270 G3 X-.1875 Y1.5 I0. J-.1875
N2280 G1 Y0.
N2290 G3 X0. Y-.1875 I.1875 J0.
N2300 G1 X.75
N2310 G3 X.9375 Y0. I0. J.1875
N2320 G1 Y.75
N2330 G2 X1.05 Y.8625 I.1125 J0.
N2340 G1 X1.275
N2350 G0 Z.25
N2360 X1.375 Y.6375
N2370 Z-.3167
N2380 G1 Z-.4861 F12.1
N2390 X1.15 F20.
N2400 G2 X1.0375 Y.75 I0. J.1125
N2410 G1 Y1.5
N2420 G3 X.75 Y1.7875 I-.2875 J0.
N2430 G1 X0.
N2440 G3 X-.2875 Y1.5 I0. J-.2875
N2450 G1 Y0.
N2460 G3 X0. Y-.2875 I.2875 J0.
N2470 G1 X.75
N2480 G3 X1.0375 Y0. I0. J.2875
N2490 G1 Y.75
N2500 G2 X1.15 Y.8625 I.1125 J0.
N2510 G1 X1.375
N2520 G0 Z.25
N2530 X1.275 Y.6375
N2540 Z-.3167
N2550 G1 Z-.4861 F12.1
N2560 X1.05 F20.
N2570 G2 X.9375 Y.75 I0. J.1125
N2580 G1 Y1.5
N2590 G3 X.75 Y1.6875 I-.1875 J0.
N2600 G1 X0.
N2610 G3 X-.1875 Y1.5 I0. J-.1875
N2620 G1 Y0.
N2630 G3 X0. Y-.1875 I.1875 J0.
N2640 G1 X.75
N2650 G3 X.9375 Y0. I0. J.1875
N2660 G1 Y.75
N2670 G2 X1.05 Y.8625 I.1125 J0.
N2680 G1 X1.275
N2690 G0 Z.25
N2700 X1.375 Y.6375
N2710 Z-.3861
N2720 G1 Z-.5556 F12.1
N2730 X1.15 F20.
N2740 G2 X1.0375 Y.75 I0. J.1125
N2750 G1 Y1.5
N2760 G3 X.75 Y1.7875 I-.2875 J0.
N2770 G1 X0.
N2780 G3 X-.2875 Y1.5 I0. J-.2875
N2790 G1 Y0.
N2800 G3 X0. Y-.2875 I.2875 J0.
N2810 G1 X.75
N2820 G3 X1.0375 Y0. I0. J.2875
N2830 G1 Y.75
N2840 G2 X1.15 Y.8625 I.1125 J0.
N2850 G1 X1.375
N2860 G0 Z.25
N2870 X1.275 Y.6375
N2880 Z-.3861
N2890 G1 Z-.5556 F12.1
N2900 X1.05 F20.
N2910 G2 X.9375 Y.75 I0. J.1125
N2920 G1 Y1.5
N2930 G3 X.75 Y1.6875 I-.1875 J0.
N2940 G1 X0.
N2950 G3 X-.1875 Y1.5 I0. J-.1875
N2960 G1 Y0.
N2970 G3 X0. Y-.1875 I.1875 J0.
N2980 G1 X.75
N2990 G3 X.9375 Y0. I0. J.1875
N3000 G1 Y.75
N3010 G2 X1.05 Y.8625 I.1125 J0.
N3020 G1 X1.275
N3030 G0 Z.25
N3040 X1.375 Y.6375
N3050 Z-.4556
N3060 G1 Z-.625 F12.1
N3070 X1.15 F20.
N3080 G2 X1.0375 Y.75 I0. J.1125
N3090 G1 Y1.5
N3100 G3 X.75 Y1.7875 I-.2875 J0.
N3110 G1 X0.
N3120 G3 X-.2875 Y1.5 I0. J-.2875
N3130 G1 Y0.
N3140 G3 X0. Y-.2875 I.2875 J0.
N3150 G1 X.75
N3160 G3 X1.0375 Y0. I0. J.2875
N3170 G1 Y.75
N3180 G2 X1.15 Y.8625 I.1125 J0.
N3190 G1 X1.375
N3200 G0 Z.25
N3210 X1.275 Y.6375
N3220 Z-.4556
N3230 G1 Z-.625 F12.1
N3240 X1.05 F20.
N3250 G2 X.9375 Y.75 I0. J.1125
N3260 G1 Y1.5
N3270 G3 X.75 Y1.6875 I-.1875 J0.
N3280 G1 X0.
N3290 G3 X-.1875 Y1.5 I0. J-.1875
N3300 G1 Y0.
N3310 G3 X0. Y-.1875 I.1875 J0.
N3320 G1 X.75
N3330 G3 X.9375 Y0. I0. J.1875
N3340 G1 Y.75
N3350 G2 X1.05 Y.8625 I.1125 J0.
N3360 G1 X1.275
N3370 G0 Z.25
N3380 X1.265 Y.6375
N3390 Z-.4556
N3400 G1 Z-.625 F12.1
N3410 X1.04 F20.
N3420 G2 X.9275 Y.75 I0. J.1125
N3430 G1 Y1.5
N3440 G3 X.75 Y1.6775 I-.1775 J0.
N3450 G1 X0.
N3460 G3 X-.1775 Y1.5 I0. J-.1775
N3470 G1 Y0.
N3480 G3 X0. Y-.1775 I.1775 J0.
N3490 G1 X.75
N3500 G3 X.9275 Y0. I0. J.1775
N3510 G1 Y.75
N3520 G2 X1.04 Y.8625 I.1125 J0.
N3530 G1 X1.265
N3540 G0 Z.25
N3550 M5
N3560 G91 G28 Z0. M9
N3570 M01
N3580 T2 M6
N3590 G187 P3 E.001
N3600 G0 G90 G17 G54 X.1886 Y.25 S5000 M3
N3610 G43 H2 Z.25
N3620 M8
N3630 Z.1
N3640 G1 Z-.025 F2.
N3650 G3 X.175 Y.2636 I-.0136 J0. F10.
N3660 X.1614 Y.25 I0. J-.0136
N3670 X.175 Y.2364 I.0136 J0.
N3680 X.1886 Y.25 I0. J.0136
N3690 G1 X.2355
N3700 G3 X.175 Y.3105 I-.0605 J0.
N3710 X.1145 Y.25 I0. J-.0605
N3720 X.175 Y.1895 I.0605 J0.
N3730 X.2355 Y.25 I0. J.0605
N3740 G0 Z.25
N3750 X.1886
N3760 Z.075
N3770 G1 Z-.05 F2.
N3780 G3 X.175 Y.2636 I-.0136 J0. F10.
N3790 X.1614 Y.25 I0. J-.0136
N3800 X.175 Y.2364 I.0136 J0.
N3810 X.1886 Y.25 I0. J.0136
N3820 G1 X.2355
N3830 G3 X.175 Y.3105 I-.0605 J0.
N3840 X.1145 Y.25 I0. J-.0605
N3850 X.175 Y.1895 I.0605 J0.
N3860 X.2355 Y.25 I0. J.0605
N3870 G0 Z.25
N3880 X.1886
N3890 Z.05
N3900 G1 Z-.075 F2.
N3910 G3 X.175 Y.2636 I-.0136 J0. F10.
N3920 X.1614 Y.25 I0. J-.0136
N3930 X.175 Y.2364 I.0136 J0.
N3940 X.1886 Y.25 I0. J.0136
N3950 G1 X.2355
N3960 G3 X.175 Y.3105 I-.0605 J0.
N3970 X.1145 Y.25 I0. J-.0605
N3980 X.175 Y.1895 I.0605 J0.
N3990 X.2355 Y.25 I0. J.0605
N4000 G0 Z.25
N4010 X.1886
N4020 Z.025
N4030 G1 Z-.1 F2.
N4040 G3 X.175 Y.2636 I-.0136 J0. F10.
N4050 X.1614 Y.25 I0. J-.0136
N4060 X.175 Y.2364 I.0136 J0.
N4070 X.1886 Y.25 I0. J.0136
N4080 G1 X.2355
N4090 G3 X.175 Y.3105 I-.0605 J0.
N4100 X.1145 Y.25 I0. J-.0605
N4110 X.175 Y.1895 I.0605 J0.
N4120 X.2355 Y.25 I0. J.0605
N4130 G0 Z.25
N4140 X.1886
N4150 Z0.
N4160 G1 Z-.125 F2.
N4170 G3 X.175 Y.2636 I-.0136 J0. F10.
N4180 X.1614 Y.25 I0. J-.0136
N4190 X.175 Y.2364 I.0136 J0.
N4200 X.1886 Y.25 I0. J.0136
N4210 G1 X.2355
N4220 G3 X.175 Y.3105 I-.0605 J0.
N4230 X.1145 Y.25 I0. J-.0605
N4240 X.175 Y.1895 I.0605 J0.
N4250 X.2355 Y.25 I0. J.0605
N4260 G0 Z.25
N4270 X.1886
N4280 Z-.025
N4290 G1 Z-.15 F2.
N4300 G3 X.175 Y.2636 I-.0136 J0. F10.
N4310 X.1614 Y.25 I0. J-.0136
N4320 X.175 Y.2364 I.0136 J0.
N4330 X.1886 Y.25 I0. J.0136
N4340 G1 X.2355
N4350 G3 X.175 Y.3105 I-.0605 J0.
N4360 X.1145 Y.25 I0. J-.0605
N4370 X.175 Y.1895 I.0605 J0.
N4380 X.2355 Y.25 I0. J.0605
N4390 G0 Z.25
N4400 X.1886
N4410 Z-.05
N4420 G1 Z-.175 F2.
N4430 G3 X.175 Y.2636 I-.0136 J0. F10.
N4440 X.1614 Y.25 I0. J-.0136
N4450 X.175 Y.2364 I.0136 J0.
N4460 X.1886 Y.25 I0. J.0136
N4470 G1 X.2355
N4480 G3 X.175 Y.3105 I-.0605 J0.
N4490 X.1145 Y.25 I0. J-.0605
N4500 X.175 Y.1895 I.0605 J0.
N4510 X.2355 Y.25 I0. J.0605
N4520 G0 Z.25
N4530 X.1875 Y.2875
N4540 Z-.05
N4550 G1 Z-.175 F2.
N4560 X.15 F10.
N4570 G3 X.1125 Y.25 I0. J-.0375
N4580 X.175 Y.1875 I.0625 J0.
N4590 X.2375 Y.25 I0. J.0625
N4600 X.175 Y.3125 I-.0625 J0.
N4610 X.1125 Y.25 I0. J-.0625
N4620 X.15 Y.2125 I.0375 J0.
N4630 G1 X.1875
N4640 G0 Z.25
N4650 X.5886 Y.25
N4660 Z.1
N4670 G1 Z-.025 F2.
N4680 G3 X.575 Y.2636 I-.0136 J0. F10.
N4690 X.5614 Y.25 I0. J-.0136
N4700 X.575 Y.2364 I.0136 J0.
N4710 X.5886 Y.25 I0. J.0136
N4720 G1 X.6355
N4730 G3 X.575 Y.3105 I-.0605 J0.
N4740 X.5145 Y.25 I0. J-.0605
N4750 X.575 Y.1895 I.0605 J0.
N4760 X.6355 Y.25 I0. J.0605
N4770 G0 Z.25
N4780 X.5886
N4790 Z.075
N4800 G1 Z-.05 F2.
N4810 G3 X.575 Y.2636 I-.0136 J0. F10.
N4820 X.5614 Y.25 I0. J-.0136
N4830 X.575 Y.2364 I.0136 J0.
N4840 X.5886 Y.25 I0. J.0136
N4850 G1 X.6355
N4860 G3 X.575 Y.3105 I-.0605 J0.
N4870 X.5145 Y.25 I0. J-.0605
N4880 X.575 Y.1895 I.0605 J0.
N4890 X.6355 Y.25 I0. J.0605
N4900 G0 Z.25
N4910 X.5886
N4920 Z.05
N4930 G1 Z-.075 F2.
N4940 G3 X.575 Y.2636 I-.0136 J0. F10.
N4950 X.5614 Y.25 I0. J-.0136
N4960 X.575 Y.2364 I.0136 J0.
N4970 X.5886 Y.25 I0. J.0136
N4980 G1 X.6355
N4990 G3 X.575 Y.3105 I-.0605 J0.
N5000 X.5145 Y.25 I0. J-.0605
N5010 X.575 Y.1895 I.0605 J0.
N5020 X.6355 Y.25 I0. J.0605
N5030 G0 Z.25
N5040 X.5886
N5050 Z.025
N5060 G1 Z-.1 F2.
N5070 G3 X.575 Y.2636 I-.0136 J0. F10.
N5080 X.5614 Y.25 I0. J-.0136
N5090 X.575 Y.2364 I.0136 J0.
N5100 X.5886 Y.25 I0. J.0136
N5110 G1 X.6355
N5120 G3 X.575 Y.3105 I-.0605 J0.
N5130 X.5145 Y.25 I0. J-.0605
N5140 X.575 Y.1895 I.0605 J0.
N5150 X.6355 Y.25 I0. J.0605
N5160 G0 Z.25
N5170 X.5886
N5180 Z0.
N5190 G1 Z-.125 F2.
N5200 G3 X.575 Y.2636 I-.0136 J0. F10.
N5210 X.5614 Y.25 I0. J-.0136
N5220 X.575 Y.2364 I.0136 J0.
N5230 X.5886 Y.25 I0. J.0136
N5240 G1 X.6355
N5250 G3 X.575 Y.3105 I-.0605 J0.
N5260 X.5145 Y.25 I0. J-.0605
N5270 X.575 Y.1895 I.0605 J0.
N5280 X.6355 Y.25 I0. J.0605
N5290 G0 Z.25
N5300 X.5886
N5310 Z-.025
N5320 G1 Z-.15 F2.
N5330 G3 X.575 Y.2636 I-.0136 J0. F10.
N5340 X.5614 Y.25 I0. J-.0136
N5350 X.575 Y.2364 I.0136 J0.
N5360 X.5886 Y.25 I0. J.0136
N5370 G1 X.6355
N5380 G3 X.575 Y.3105 I-.0605 J0.
N5390 X.5145 Y.25 I0. J-.0605
N5400 X.575 Y.1895 I.0605 J0.
N5410 X.6355 Y.25 I0. J.0605
N5420 G0 Z.25
N5430 X.5886
N5440 Z-.05
N5450 G1 Z-.175 F2.
N5460 G3 X.575 Y.2636 I-.0136 J0. F10.
N5470 X.5614 Y.25 I0. J-.0136
N5480 X.575 Y.2364 I.0136 J0.
N5490 X.5886 Y.25 I0. J.0136
N5500 G1 X.6355
N5510 G3 X.575 Y.3105 I-.0605 J0.
N5520 X.5145 Y.25 I0. J-.0605
N5530 X.575 Y.1895 I.0605 J0.
N5540 X.6355 Y.25 I0. J.0605
N5550 G0 Z.25
N5560 X.5875 Y.2875
N5570 Z-.05
N5580 G1 Z-.175 F2.
N5590 X.55 F10.
N5600 G3 X.5125 Y.25 I0. J-.0375
N5610 X.575 Y.1875 I.0625 J0.
N5620 X.6375 Y.25 I0. J.0625
N5630 X.575 Y.3125 I-.0625 J0.
N5640 X.5125 Y.25 I0. J-.0625
N5650 X.55 Y.2125 I.0375 J0.
N5660 G1 X.5875
N5670 G0 Z.25
N5680 X.5886 Y.75
N5690 Z.1
N5700 G1 Z-.025 F2.
N5710 G3 X.575 Y.7636 I-.0136 J0. F10.
N5720 X.5614 Y.75 I0. J-.0136
N5730 X.575 Y.7364 I.0136 J0.
N5740 X.5886 Y.75 I0. J.0136
N5750 G1 X.6355
N5760 G3 X.575 Y.8105 I-.0605 J0.
N5770 X.5145 Y.75 I0. J-.0605
N5780 X.575 Y.6895 I.0605 J0.
N5790 X.6355 Y.75 I0. J.0605
N5800 G0 Z.25
N5810 X.5886
N5820 Z.075
N5830 G1 Z-.05 F2.
N5840 G3 X.575 Y.7636 I-.0136 J0. F10.
N5850 X.5614 Y.75 I0. J-.0136
N5860 X.575 Y.7364 I.0136 J0.
N5870 X.5886 Y.75 I0. J.0136
N5880 G1 X.6355
N5890 G3 X.575 Y.8105 I-.0605 J0.
N5900 X.5145 Y.75 I0. J-.0605
N5910 X.575 Y.6895 I.0605 J0.
N5920 X.6355 Y.75 I0. J.0605
N5930 G0 Z.25
N5940 X.5886
N5950 Z.05
N5960 G1 Z-.075 F2.
N5970 G3 X.575 Y.7636 I-.0136 J0. F10.
N5980 X.5614 Y.75 I0. J-.0136
N5990 X.575 Y.7364 I.0136 J0.
N6000 X.5886 Y.75 I0. J.0136
N6010 G1 X.6355
N6020 G3 X.575 Y.8105 I-.0605 J0.
N6030 X.5145 Y.75 I0. J-.0605
N6040 X.575 Y.6895 I.0605 J0.
N6050 X.6355 Y.75 I0. J.0605
N6060 G0 Z.25
N6070 X.5886
N6080 Z.025
N6090 G1 Z-.1 F2.
N6100 G3 X.575 Y.7636 I-.0136 J0. F10.
N6110 X.5614 Y.75 I0. J-.0136
N6120 X.575 Y.7364 I.0136 J0.
N6130 X.5886 Y.75 I0. J.0136
N6140 G1 X.6355
N6150 G3 X.575 Y.8105 I-.0605 J0.
N6160 X.5145 Y.75 I0. J-.0605
N6170 X.575 Y.6895 I.0605 J0.
N6180 X.6355 Y.75 I0. J.0605
N6190 G0 Z.25
N6200 X.5886
N6210 Z0.
N6220 G1 Z-.125 F2.
N6230 G3 X.575 Y.7636 I-.0136 J0. F10.
N6240 X.5614 Y.75 I0. J-.0136
N6250 X.575 Y.7364 I.0136 J0.
N6260 X.5886 Y.75 I0. J.0136
N6270 G1 X.6355
N6280 G3 X.575 Y.8105 I-.0605 J0.
N6290 X.5145 Y.75 I0. J-.0605
N6300 X.575 Y.6895 I.0605 J0.
N6310 X.6355 Y.75 I0. J.0605
N6320 G0 Z.25
N6330 X.5886
N6340 Z-.025
N6350 G1 Z-.15 F2.
N6360 G3 X.575 Y.7636 I-.0136 J0. F10.
N6370 X.5614 Y.75 I0. J-.0136
N6380 X.575 Y.7364 I.0136 J0.
N6390 X.5886 Y.75 I0. J.0136
N6400 G1 X.6355
N6410 G3 X.575 Y.8105 I-.0605 J0.
N6420 X.5145 Y.75 I0. J-.0605
N6430 X.575 Y.6895 I.0605 J0.
N6440 X.6355 Y.75 I0. J.0605
N6450 G0 Z.25
N6460 X.5886
N6470 Z-.05
N6480 G1 Z-.175 F2.
N6490 G3 X.575 Y.7636 I-.0136 J0. F10.
N6500 X.5614 Y.75 I0. J-.0136
N6510 X.575 Y.7364 I.0136 J0.
N6520 X.5886 Y.75 I0. J.0136
N6530 G1 X.6355
N6540 G3 X.575 Y.8105 I-.0605 J0.
N6550 X.5145 Y.75 I0. J-.0605
N6560 X.575 Y.6895 I.0605 J0.
N6570 X.6355 Y.75 I0. J.0605
N6580 G0 Z.25
N6590 X.5875 Y.7875
N6600 Z-.05
N6610 G1 Z-.175 F2.
N6620 X.55 F10.
N6630 G3 X.5125 Y.75 I0. J-.0375
N6640 X.575 Y.6875 I.0625 J0.
N6650 X.6375 Y.75 I0. J.0625
N6660 X.575 Y.8125 I-.0625 J0.
N6670 X.5125 Y.75 I0. J-.0625
N6680 X.55 Y.7125 I.0375 J0.
N6690 G1 X.5875
N6700 G0 Z.25
N6710 X.1886 Y.75
N6720 Z.1
N6730 G1 Z-.025 F2.
N6740 G3 X.175 Y.7636 I-.0136 J0. F10.
N6750 X.1614 Y.75 I0. J-.0136
N6760 X.175 Y.7364 I.0136 J0.
N6770 X.1886 Y.75 I0. J.0136
N6780 G1 X.2355
N6790 G3 X.175 Y.8105 I-.0605 J0.
N6800 X.1145 Y.75 I0. J-.0605
N6810 X.175 Y.6895 I.0605 J0.
N6820 X.2355 Y.75 I0. J.0605
N6830 G0 Z.25
N6840 X.1886
N6850 Z.075
N6860 G1 Z-.05 F2.
N6870 G3 X.175 Y.7636 I-.0136 J0. F10.
N6880 X.1614 Y.75 I0. J-.0136
N6890 X.175 Y.7364 I.0136 J0.
N6900 X.1886 Y.75 I0. J.0136
N6910 G1 X.2355
N6920 G3 X.175 Y.8105 I-.0605 J0.
N6930 X.1145 Y.75 I0. J-.0605
N6940 X.175 Y.6895 I.0605 J0.
N6950 X.2355 Y.75 I0. J.0605
N6960 G0 Z.25
N6970 X.1886
N6980 Z.05
N6990 G1 Z-.075 F2.
N7000 G3 X.175 Y.7636 I-.0136 J0. F10.
N7010 X.1614 Y.75 I0. J-.0136
N7020 X.175 Y.7364 I.0136 J0.
N7030 X.1886 Y.75 I0. J.0136
N7040 G1 X.2355
N7050 G3 X.175 Y.8105 I-.0605 J0.
N7060 X.1145 Y.75 I0. J-.0605
N7070 X.175 Y.6895 I.0605 J0.
N7080 X.2355 Y.75 I0. J.0605
N7090 G0 Z.25
N7100 X.1886
N7110 Z.025
N7120 G1 Z-.1 F2.
N7130 G3 X.175 Y.7636 I-.0136 J0. F10.
N7140 X.1614 Y.75 I0. J-.0136
N7150 X.175 Y.7364 I.0136 J0.
N7160 X.1886 Y.75 I0. J.0136
N7170 G1 X.2355
N7180 G3 X.175 Y.8105 I-.0605 J0.
N7190 X.1145 Y.75 I0. J-.0605
N7200 X.175 Y.6895 I.0605 J0.
N7210 X.2355 Y.75 I0. J.0605
N7220 G0 Z.25
N7230 X.1886
N7240 Z0.
N7250 G1 Z-.125 F2.
N7260 G3 X.175 Y.7636 I-.0136 J0. F10.
N7270 X.1614 Y.75 I0. J-.0136
N7280 X.175 Y.7364 I.0136 J0.
N7290 X.1886 Y.75 I0. J.0136
N7300 G1 X.2355
N7310 G3 X.175 Y.8105 I-.0605 J0.
N7320 X.1145 Y.75 I0. J-.0605
N7330 X.175 Y.6895 I.0605 J0.
N7340 X.2355 Y.75 I0. J.0605
N7350 G0 Z.25
N7360 X.1886
N7370 Z-.025
N7380 G1 Z-.15 F2.
N7390 G3 X.175 Y.7636 I-.0136 J0. F10.
N7400 X.1614 Y.75 I0. J-.0136
N7410 X.175 Y.7364 I.0136 J0.
N7420 X.1886 Y.75 I0. J.0136
N7430 G1 X.2355
N7440 G3 X.175 Y.8105 I-.0605 J0.
N7450 X.1145 Y.75 I0. J-.0605
N7460 X.175 Y.6895 I.0605 J0.
N7470 X.2355 Y.75 I0. J.0605
N7480 G0 Z.25
N7490 X.1886
N7500 Z-.05
N7510 G1 Z-.175 F2.
N7520 G3 X.175 Y.7636 I-.0136 J0. F10.
N7530 X.1614 Y.75 I0. J-.0136
N7540 X.175 Y.7364 I.0136 J0.
N7550 X.1886 Y.75 I0. J.0136
N7560 G1 X.2355
N7570 G3 X.175 Y.8105 I-.0605 J0.
N7580 X.1145 Y.75 I0. J-.0605
N7590 X.175 Y.6895 I.0605 J0.
N7600 X.2355 Y.75 I0. J.0605
N7610 G0 Z.25
N7620 X.1875 Y.7875
N7630 Z-.05
N7640 G1 Z-.175 F2.
N7650 X.15 F10.
N7660 G3 X.1125 Y.75 I0. J-.0375
N7670 X.175 Y.6875 I.0625 J0.
N7680 X.2375 Y.75 I0. J.0625
N7690 X.175 Y.8125 I-.0625 J0.
N7700 X.1125 Y.75 I0. J-.0625
N7710 X.15 Y.7125 I.0375 J0.
N7720 G1 X.1875
N7730 G0 Z.25
N7740 X.1886 Y1.25
N7750 Z.1
N7760 G1 Z-.025 F2.
N7770 G3 X.175 Y1.2636 I-.0136 J0. F10.
N7780 X.1614 Y1.25 I0. J-.0136
N7790 X.175 Y1.2364 I.0136 J0.
N7800 X.1886 Y1.25 I0. J.0136
N7810 G1 X.2355
N7820 G3 X.175 Y1.3105 I-.0605 J0.
N7830 X.1145 Y1.25 I0. J-.0605
N7840 X.175 Y1.1895 I.0605 J0.
N7850 X.2355 Y1.25 I0. J.0605
N7860 G0 Z.25
N7870 X.1886
N7880 Z.075
N7890 G1 Z-.05 F2.
N7900 G3 X.175 Y1.2636 I-.0136 J0. F10.
N7910 X.1614 Y1.25 I0. J-.0136
N7920 X.175 Y1.2364 I.0136 J0.
N7930 X.1886 Y1.25 I0. J.0136
N7940 G1 X.2355
N7950 G3 X.175 Y1.3105 I-.0605 J0.
N7960 X.1145 Y1.25 I0. J-.0605
N7970 X.175 Y1.1895 I.0605 J0.
N7980 X.2355 Y1.25 I0. J.0605
N7990 G0 Z.25
N8000 X.1886
N8010 Z.05
N8020 G1 Z-.075 F2.
N8030 G3 X.175 Y1.2636 I-.0136 J0. F10.
N8040 X.1614 Y1.25 I0. J-.0136
N8050 X.175 Y1.2364 I.0136 J0.
N8060 X.1886 Y1.25 I0. J.0136
N8070 G1 X.2355
N8080 G3 X.175 Y1.3105 I-.0605 J0.
N8090 X.1145 Y1.25 I0. J-.0605
N8100 X.175 Y1.1895 I.0605 J0.
N8110 X.2355 Y1.25 I0. J.0605
N8120 G0 Z.25
N8130 X.1886
N8140 Z.025
N8150 G1 Z-.1 F2.
N8160 G3 X.175 Y1.2636 I-.0136 J0. F10.
N8170 X.1614 Y1.25 I0. J-.0136
N8180 X.175 Y1.2364 I.0136 J0.
N8190 X.1886 Y1.25 I0. J.0136
N8200 G1 X.2355
N8210 G3 X.175 Y1.3105 I-.0605 J0.
N8220 X.1145 Y1.25 I0. J-.0605
N8230 X.175 Y1.1895 I.0605 J0.
N8240 X.2355 Y1.25 I0. J.0605
N8250 G0 Z.25
N8260 X.1886
N8270 Z0.
N8280 G1 Z-.125 F2.
N8290 G3 X.175 Y1.2636 I-.0136 J0. F10.
N8300 X.1614 Y1.25 I0. J-.0136
N8310 X.175 Y1.2364 I.0136 J0.
N8320 X.1886 Y1.25 I0. J.0136
N8330 G1 X.2355
N8340 G3 X.175 Y1.3105 I-.0605 J0.
N8350 X.1145 Y1.25 I0. J-.0605
N8360 X.175 Y1.1895 I.0605 J0.
N8370 X.2355 Y1.25 I0. J.0605
N8380 G0 Z.25
N8390 X.1886
N8400 Z-.025
N8410 G1 Z-.15 F2.
N8420 G3 X.175 Y1.2636 I-.0136 J0. F10.
N8430 X.1614 Y1.25 I0. J-.0136
N8440 X.175 Y1.2364 I.0136 J0.
N8450 X.1886 Y1.25 I0. J.0136
N8460 G1 X.2355
N8470 G3 X.175 Y1.3105 I-.0605 J0.
N8480 X.1145 Y1.25 I0. J-.0605
N8490 X.175 Y1.1895 I.0605 J0.
N8500 X.2355 Y1.25 I0. J.0605
N8510 G0 Z.25
N8520 X.1886
N8530 Z-.05
N8540 G1 Z-.175 F2.
N8550 G3 X.175 Y1.2636 I-.0136 J0. F10.
N8560 X.1614 Y1.25 I0. J-.0136
N8570 X.175 Y1.2364 I.0136 J0.
N8580 X.1886 Y1.25 I0. J.0136
N8590 G1 X.2355
N8600 G3 X.175 Y1.3105 I-.0605 J0.
N8610 X.1145 Y1.25 I0. J-.0605
N8620 X.175 Y1.1895 I.0605 J0.
N8630 X.2355 Y1.25 I0. J.0605
N8640 G0 Z.25
N8650 X.1875 Y1.2875
N8660 Z-.05
N8670 G1 Z-.175 F2.
N8680 X.15 F10.
N8690 G3 X.1125 Y1.25 I0. J-.0375
N8700 X.175 Y1.1875 I.0625 J0.
N8710 X.2375 Y1.25 I0. J.0625
N8720 X.175 Y1.3125 I-.0625 J0.
N8730 X.1125 Y1.25 I0. J-.0625
N8740 X.15 Y1.2125 I.0375 J0.
N8750 G1 X.1875
N8760 G0 Z.25
N8770 X.5886 Y1.25
N8780 Z.1
N8790 G1 Z-.025 F2.
N8800 G3 X.575 Y1.2636 I-.0136 J0. F10.
N8810 X.5614 Y1.25 I0. J-.0136
N8820 X.575 Y1.2364 I.0136 J0.
N8830 X.5886 Y1.25 I0. J.0136
N8840 G1 X.6355
N8850 G3 X.575 Y1.3105 I-.0605 J0.
N8860 X.5145 Y1.25 I0. J-.0605
N8870 X.575 Y1.1895 I.0605 J0.
N8880 X.6355 Y1.25 I0. J.0605
N8890 G0 Z.25
N8900 X.5886
N8910 Z.075
N8920 G1 Z-.05 F2.
N8930 G3 X.575 Y1.2636 I-.0136 J0. F10.
N8940 X.5614 Y1.25 I0. J-.0136
N8950 X.575 Y1.2364 I.0136 J0.
N8960 X.5886 Y1.25 I0. J.0136
N8970 G1 X.6355
N8980 G3 X.575 Y1.3105 I-.0605 J0.
N8990 X.5145 Y1.25 I0. J-.0605
N9000 X.575 Y1.1895 I.0605 J0.
N9010 X.6355 Y1.25 I0. J.0605
N9020 G0 Z.25
N9030 X.5886
N9040 Z.05
N9050 G1 Z-.075 F2.
N9060 G3 X.575 Y1.2636 I-.0136 J0. F10.
N9070 X.5614 Y1.25 I0. J-.0136
N9080 X.575 Y1.2364 I.0136 J0.
N9090 X.5886 Y1.25 I0. J.0136
N9100 G1 X.6355
N9110 G3 X.575 Y1.3105 I-.0605 J0.
N9120 X.5145 Y1.25 I0. J-.0605
N9130 X.575 Y1.1895 I.0605 J0.
N9140 X.6355 Y1.25 I0. J.0605
N9150 G0 Z.25
N9160 X.5886
N9170 Z.025
N9180 G1 Z-.1 F2.
N9190 G3 X.575 Y1.2636 I-.0136 J0. F10.
N9200 X.5614 Y1.25 I0. J-.0136
N9210 X.575 Y1.2364 I.0136 J0.
N9220 X.5886 Y1.25 I0. J.0136
N9230 G1 X.6355
N9240 G3 X.575 Y1.3105 I-.0605 J0.
N9250 X.5145 Y1.25 I0. J-.0605
N9260 X.575 Y1.1895 I.0605 J0.
N9270 X.6355 Y1.25 I0. J.0605
N9280 G0 Z.25
N9290 X.5886
N9300 Z0.
N9310 G1 Z-.125 F2.
N9320 G3 X.575 Y1.2636 I-.0136 J0. F10.
N9330 X.5614 Y1.25 I0. J-.0136
N9340 X.575 Y1.2364 I.0136 J0.
N9350 X.5886 Y1.25 I0. J.0136
N9360 G1 X.6355
N9370 G3 X.575 Y1.3105 I-.0605 J0.
N9380 X.5145 Y1.25 I0. J-.0605
N9390 X.575 Y1.1895 I.0605 J0.
N9400 X.6355 Y1.25 I0. J.0605
N9410 G0 Z.25
N9420 X.5886
N9430 Z-.025
N9440 G1 Z-.15 F2.
N9450 G3 X.575 Y1.2636 I-.0136 J0. F10.
N9460 X.5614 Y1.25 I0. J-.0136
N9470 X.575 Y1.2364 I.0136 J0.
N9480 X.5886 Y1.25 I0. J.0136
N9490 G1 X.6355
N9500 G3 X.575 Y1.3105 I-.0605 J0.
N9510 X.5145 Y1.25 I0. J-.0605
N9520 X.575 Y1.1895 I.0605 J0.
N9530 X.6355 Y1.25 I0. J.0605
N9540 G0 Z.25
N9550 X.5886
N9560 Z-.05
N9570 G1 Z-.175 F2.
N9580 G3 X.575 Y1.2636 I-.0136 J0. F10.
N9590 X.5614 Y1.25 I0. J-.0136
N9600 X.575 Y1.2364 I.0136 J0.
N9610 X.5886 Y1.25 I0. J.0136
N9620 G1 X.6355
N9630 G3 X.575 Y1.3105 I-.0605 J0.
N9640 X.5145 Y1.25 I0. J-.0605
N9650 X.575 Y1.1895 I.0605 J0.
N9660 X.6355 Y1.25 I0. J.0605
N9670 G0 Z.25
N9680 X.5875 Y1.2875
N9690 Z-.05
N9700 G1 Z-.175 F2.
N9710 X.55 F10.
N9720 G3 X.5125 Y1.25 I0. J-.0375
N9730 X.575 Y1.1875 I.0625 J0.
N9740 X.6375 Y1.25 I0. J.0625
N9750 X.575 Y1.3125 I-.0625 J0.
N9760 X.5125 Y1.25 I0. J-.0625
N9770 X.55 Y1.2125 I.0375 J0.
N9780 G1 X.5875
N9790 G0 Z.25
N9800 M5
N9810 G91 G28 Z0. M9
N9820 G28 X0. Y0.
N9830 M30
%
